( Made using CamBam - http://www.cambam.info )
( Rückplatte 10/4/2024 4:40:41 PM )
( T0 : 3.0 )
G21 G90 G40
G53 G00 Z-1
M00
( T0 : 3.0 )
G00 Z3.0
( Chamfer2 )
G17
M03 S12000
G00 X5.4026 Y120.901
G00 Z3.0
G00 X6.1526 Y120.901
G00 Z1.0
G01 Z0.0 F300.0
G03 X5.0276 Y121.5505 Z-0.0333 I-0.75 J0.0 F200.0
G03 Y120.2514 Z-0.0667 I0.375 J-0.6495
G03 X6.1526 Y120.901 Z-0.1 I0.375 J0.6495
G03 X5.0276 Y121.5505 Z-0.1333 I-0.75 J0.0
G03 Y120.2514 Z-0.1667 I0.375 J-0.6495
G03 X6.1526 Y120.901 Z-0.2 I0.375 J0.6495
G03 X5.0276 Y121.5505 Z-0.2333 I-0.75 J0.0
G03 Y120.2514 Z-0.2667 I0.375 J-0.6495
G03 X6.1526 Y120.901 Z-0.3 I0.375 J0.6495
G03 X5.0276 Y121.5505 Z-0.3333 I-0.75 J0.0
G03 Y120.2514 Z-0.3667 I0.375 J-0.6495
G03 X6.1526 Y120.901 Z-0.4 I0.375 J0.6495
G03 X5.0276 Y121.5505 Z-0.4333 I-0.75 J0.0
G03 Y120.2514 Z-0.4667 I0.375 J-0.6495
G03 X6.1526 Y120.901 Z-0.5 I0.375 J0.6495
G03 X5.0276 Y121.5505 Z-0.5333 I-0.75 J0.0
G03 Y120.2514 Z-0.5667 I0.375 J-0.6495
G03 X6.1526 Y120.901 Z-0.6 I0.375 J0.6495
G03 X5.0276 Y121.5505 Z-0.6333 I-0.75 J0.0
G03 Y120.2514 Z-0.6667 I0.375 J-0.6495
G03 X6.1526 Y120.901 Z-0.7 I0.375 J0.6495
G03 X5.0276 Y121.5505 Z-0.7333 I-0.75 J0.0
G03 Y120.2514 Z-0.7667 I0.375 J-0.6495
G03 X6.1526 Y120.901 Z-0.8 I0.375 J0.6495
G03 X5.0276 Y121.5505 Z-0.8333 I-0.75 J0.0
G03 Y120.2514 Z-0.8667 I0.375 J-0.6495
G03 X6.1526 Y120.901 Z-0.9 I0.375 J0.6495
G03 X5.0276 Y121.5505 Z-0.9333 I-0.75 J0.0
G03 Y120.2514 Z-0.9667 I0.375 J-0.6495
G03 X6.1526 Y120.901 Z-1.0 I0.375 J0.6495
G03 X5.0276 Y121.5505 Z-1.0333 I-0.75 J0.0
G03 Y120.2514 Z-1.0667 I0.375 J-0.6495
G03 X6.1526 Y120.901 Z-1.1 I0.375 J0.6495
G03 X5.0276 Y121.5505 Z-1.1333 I-0.75 J0.0
G03 Y120.2514 Z-1.1667 I0.375 J-0.6495
G03 X6.1526 Y120.901 Z-1.2 I0.375 J0.6495
G03 X5.0276 Y121.5505 I-0.75 J0.0
G03 Y120.2514 I0.375 J-0.6495
G03 X6.1526 Y120.901 I0.375 J0.6495
G00 Z3.0
G00 X100.8514 Y120.9518
G00 Z1.0
G01 Z0.0 F300.0
G03 X99.7264 Y121.6013 Z-0.0333 I-0.75 J0.0 F200.0
G03 Y120.3022 Z-0.0667 I0.375 J-0.6495
G03 X100.8514 Y120.9518 Z-0.1 I0.375 J0.6495
G03 X99.7264 Y121.6013 Z-0.1333 I-0.75 J0.0
G03 Y120.3022 Z-0.1667 I0.375 J-0.6495
G03 X100.8514 Y120.9518 Z-0.2 I0.375 J0.6495
G03 X99.7264 Y121.6013 Z-0.2333 I-0.75 J0.0
G03 Y120.3022 Z-0.2667 I0.375 J-0.6495
G03 X100.8514 Y120.9518 Z-0.3 I0.375 J0.6495
G03 X99.7264 Y121.6013 Z-0.3333 I-0.75 J0.0
G03 Y120.3022 Z-0.3667 I0.375 J-0.6495
G03 X100.8514 Y120.9518 Z-0.4 I0.375 J0.6495
G03 X99.7264 Y121.6013 Z-0.4333 I-0.75 J0.0
G03 Y120.3022 Z-0.4667 I0.375 J-0.6495
G03 X100.8514 Y120.9518 Z-0.5 I0.375 J0.6495
G03 X99.7264 Y121.6013 Z-0.5333 I-0.75 J0.0
G03 Y120.3022 Z-0.5667 I0.375 J-0.6495
G03 X100.8514 Y120.9518 Z-0.6 I0.375 J0.6495
G03 X99.7264 Y121.6013 Z-0.6333 I-0.75 J0.0
G03 Y120.3022 Z-0.6667 I0.375 J-0.6495
G03 X100.8514 Y120.9518 Z-0.7 I0.375 J0.6495
G03 X99.7264 Y121.6013 Z-0.7333 I-0.75 J0.0
G03 Y120.3022 Z-0.7667 I0.375 J-0.6495
G03 X100.8514 Y120.9518 Z-0.8 I0.375 J0.6495
G03 X99.7264 Y121.6013 Z-0.8333 I-0.75 J0.0
G03 Y120.3022 Z-0.8667 I0.375 J-0.6495
G03 X100.8514 Y120.9518 Z-0.9 I0.375 J0.6495
G03 X99.7264 Y121.6013 Z-0.9333 I-0.75 J0.0
G03 Y120.3022 Z-0.9667 I0.375 J-0.6495
G03 X100.8514 Y120.9518 Z-1.0 I0.375 J0.6495
G03 X99.7264 Y121.6013 Z-1.0333 I-0.75 J0.0
G03 Y120.3022 Z-1.0667 I0.375 J-0.6495
G03 X100.8514 Y120.9518 Z-1.1 I0.375 J0.6495
G03 X99.7264 Y121.6013 Z-1.1333 I-0.75 J0.0
G03 Y120.3022 Z-1.1667 I0.375 J-0.6495
G03 X100.8514 Y120.9518 Z-1.2 I0.375 J0.6495
G03 X99.7264 Y121.6013 I-0.75 J0.0
G03 Y120.3022 I0.375 J-0.6495
G03 X100.8514 Y120.9518 I0.375 J0.6495
G00 Z3.0
G00 X195.5528 Y120.901
G00 Z1.0
G01 Z0.0 F300.0
G03 X194.4278 Y121.5505 Z-0.0333 I-0.75 J0.0 F200.0
G03 Y120.2514 Z-0.0667 I0.375 J-0.6495
G03 X195.5528 Y120.901 Z-0.1 I0.375 J0.6495
G03 X194.4278 Y121.5505 Z-0.1333 I-0.75 J0.0
G03 Y120.2514 Z-0.1667 I0.375 J-0.6495
G03 X195.5528 Y120.901 Z-0.2 I0.375 J0.6495
G03 X194.4278 Y121.5505 Z-0.2333 I-0.75 J0.0
G03 Y120.2514 Z-0.2667 I0.375 J-0.6495
G03 X195.5528 Y120.901 Z-0.3 I0.375 J0.6495
G03 X194.4278 Y121.5505 Z-0.3333 I-0.75 J0.0
G03 Y120.2514 Z-0.3667 I0.375 J-0.6495
G03 X195.5528 Y120.901 Z-0.4 I0.375 J0.6495
G03 X194.4278 Y121.5505 Z-0.4333 I-0.75 J0.0
G03 Y120.2514 Z-0.4667 I0.375 J-0.6495
G03 X195.5528 Y120.901 Z-0.5 I0.375 J0.6495
G03 X194.4278 Y121.5505 Z-0.5333 I-0.75 J0.0
G03 Y120.2514 Z-0.5667 I0.375 J-0.6495
G03 X195.5528 Y120.901 Z-0.6 I0.375 J0.6495
G03 X194.4278 Y121.5505 Z-0.6333 I-0.75 J0.0
G03 Y120.2514 Z-0.6667 I0.375 J-0.6495
G03 X195.5528 Y120.901 Z-0.7 I0.375 J0.6495
G03 X194.4278 Y121.5505 Z-0.7333 I-0.75 J0.0
G03 Y120.2514 Z-0.7667 I0.375 J-0.6495
G03 X195.5528 Y120.901 Z-0.8 I0.375 J0.6495
G03 X194.4278 Y121.5505 Z-0.8333 I-0.75 J0.0
G03 Y120.2514 Z-0.8667 I0.375 J-0.6495
G03 X195.5528 Y120.901 Z-0.9 I0.375 J0.6495
G03 X194.4278 Y121.5505 Z-0.9333 I-0.75 J0.0
G03 Y120.2514 Z-0.9667 I0.375 J-0.6495
G03 X195.5528 Y120.901 Z-1.0 I0.375 J0.6495
G03 X194.4278 Y121.5505 Z-1.0333 I-0.75 J0.0
G03 Y120.2514 Z-1.0667 I0.375 J-0.6495
G03 X195.5528 Y120.901 Z-1.1 I0.375 J0.6495
G03 X194.4278 Y121.5505 Z-1.1333 I-0.75 J0.0
G03 Y120.2514 Z-1.1667 I0.375 J-0.6495
G03 X195.5528 Y120.901 Z-1.2 I0.375 J0.6495
G03 X194.4278 Y121.5505 I-0.75 J0.0
G03 Y120.2514 I0.375 J-0.6495
G03 X195.5528 Y120.901 I0.375 J0.6495
G00 Z3.0
G00 Y4.9017
G00 Z1.0
G01 Z0.0 F300.0
G03 X194.4278 Y5.5512 Z-0.0333 I-0.75 J0.0 F200.0
G03 Y4.2522 Z-0.0667 I0.375 J-0.6495
G03 X195.5528 Y4.9017 Z-0.1 I0.375 J0.6495
G03 X194.4278 Y5.5512 Z-0.1333 I-0.75 J0.0
G03 Y4.2522 Z-0.1667 I0.375 J-0.6495
G03 X195.5528 Y4.9017 Z-0.2 I0.375 J0.6495
G03 X194.4278 Y5.5512 Z-0.2333 I-0.75 J0.0
G03 Y4.2522 Z-0.2667 I0.375 J-0.6495
G03 X195.5528 Y4.9017 Z-0.3 I0.375 J0.6495
G03 X194.4278 Y5.5512 Z-0.3333 I-0.75 J0.0
G03 Y4.2522 Z-0.3667 I0.375 J-0.6495
G03 X195.5528 Y4.9017 Z-0.4 I0.375 J0.6495
G03 X194.4278 Y5.5512 Z-0.4333 I-0.75 J0.0
G03 Y4.2522 Z-0.4667 I0.375 J-0.6495
G03 X195.5528 Y4.9017 Z-0.5 I0.375 J0.6495
G03 X194.4278 Y5.5512 Z-0.5333 I-0.75 J0.0
G03 Y4.2522 Z-0.5667 I0.375 J-0.6495
G03 X195.5528 Y4.9017 Z-0.6 I0.375 J0.6495
G03 X194.4278 Y5.5512 Z-0.6333 I-0.75 J0.0
G03 Y4.2522 Z-0.6667 I0.375 J-0.6495
G03 X195.5528 Y4.9017 Z-0.7 I0.375 J0.6495
G03 X194.4278 Y5.5512 Z-0.7333 I-0.75 J0.0
G03 Y4.2522 Z-0.7667 I0.375 J-0.6495
G03 X195.5528 Y4.9017 Z-0.8 I0.375 J0.6495
G03 X194.4278 Y5.5512 Z-0.8333 I-0.75 J0.0
G03 Y4.2522 Z-0.8667 I0.375 J-0.6495
G03 X195.5528 Y4.9017 Z-0.9 I0.375 J0.6495
G03 X194.4278 Y5.5512 Z-0.9333 I-0.75 J0.0
G03 Y4.2522 Z-0.9667 I0.375 J-0.6495
G03 X195.5528 Y4.9017 Z-1.0 I0.375 J0.6495
G03 X194.4278 Y5.5512 Z-1.0333 I-0.75 J0.0
G03 Y4.2522 Z-1.0667 I0.375 J-0.6495
G03 X195.5528 Y4.9017 Z-1.1 I0.375 J0.6495
G03 X194.4278 Y5.5512 Z-1.1333 I-0.75 J0.0
G03 Y4.2522 Z-1.1667 I0.375 J-0.6495
G03 X195.5528 Y4.9017 Z-1.2 I0.375 J0.6495
G03 X194.4278 Y5.5512 I-0.75 J0.0
G03 Y4.2522 I0.375 J-0.6495
G03 X195.5528 Y4.9017 I0.375 J0.6495
G00 Z3.0
G00 X132.5023
G00 Z1.0
G01 Z0.0 F300.0
G03 X131.3773 Y5.5512 Z-0.0333 I-0.75 J0.0 F200.0
G03 Y4.2522 Z-0.0667 I0.375 J-0.6495
G03 X132.5023 Y4.9017 Z-0.1 I0.375 J0.6495
G03 X131.3773 Y5.5512 Z-0.1333 I-0.75 J0.0
G03 Y4.2522 Z-0.1667 I0.375 J-0.6495
G03 X132.5023 Y4.9017 Z-0.2 I0.375 J0.6495
G03 X131.3773 Y5.5512 Z-0.2333 I-0.75 J0.0
G03 Y4.2522 Z-0.2667 I0.375 J-0.6495
G03 X132.5023 Y4.9017 Z-0.3 I0.375 J0.6495
G03 X131.3773 Y5.5512 Z-0.3333 I-0.75 J0.0
G03 Y4.2522 Z-0.3667 I0.375 J-0.6495
G03 X132.5023 Y4.9017 Z-0.4 I0.375 J0.6495
G03 X131.3773 Y5.5512 Z-0.4333 I-0.75 J0.0
G03 Y4.2522 Z-0.4667 I0.375 J-0.6495
G03 X132.5023 Y4.9017 Z-0.5 I0.375 J0.6495
G03 X131.3773 Y5.5512 Z-0.5333 I-0.75 J0.0
G03 Y4.2522 Z-0.5667 I0.375 J-0.6495
G03 X132.5023 Y4.9017 Z-0.6 I0.375 J0.6495
G03 X131.3773 Y5.5512 Z-0.6333 I-0.75 J0.0
G03 Y4.2522 Z-0.6667 I0.375 J-0.6495
G03 X132.5023 Y4.9017 Z-0.7 I0.375 J0.6495
G03 X131.3773 Y5.5512 Z-0.7333 I-0.75 J0.0
G03 Y4.2522 Z-0.7667 I0.375 J-0.6495
G03 X132.5023 Y4.9017 Z-0.8 I0.375 J0.6495
G03 X131.3773 Y5.5512 Z-0.8333 I-0.75 J0.0
G03 Y4.2522 Z-0.8667 I0.375 J-0.6495
G03 X132.5023 Y4.9017 Z-0.9 I0.375 J0.6495
G03 X131.3773 Y5.5512 Z-0.9333 I-0.75 J0.0
G03 Y4.2522 Z-0.9667 I0.375 J-0.6495
G03 X132.5023 Y4.9017 Z-1.0 I0.375 J0.6495
G03 X131.3773 Y5.5512 Z-1.0333 I-0.75 J0.0
G03 Y4.2522 Z-1.0667 I0.375 J-0.6495
G03 X132.5023 Y4.9017 Z-1.1 I0.375 J0.6495
G03 X131.3773 Y5.5512 Z-1.1333 I-0.75 J0.0
G03 Y4.2522 Z-1.1667 I0.375 J-0.6495
G03 X132.5023 Y4.9017 Z-1.2 I0.375 J0.6495
G03 X131.3773 Y5.5512 I-0.75 J0.0
G03 Y4.2522 I0.375 J-0.6495
G03 X132.5023 Y4.9017 I0.375 J0.6495
G00 Z3.0
G00 X69.2513
G00 Z1.0
G01 Z0.0 F300.0
G03 X68.1263 Y5.5512 Z-0.0333 I-0.75 J0.0 F200.0
G03 Y4.2522 Z-0.0667 I0.375 J-0.6495
G03 X69.2513 Y4.9017 Z-0.1 I0.375 J0.6495
G03 X68.1263 Y5.5512 Z-0.1333 I-0.75 J0.0
G03 Y4.2522 Z-0.1667 I0.375 J-0.6495
G03 X69.2513 Y4.9017 Z-0.2 I0.375 J0.6495
G03 X68.1263 Y5.5512 Z-0.2333 I-0.75 J0.0
G03 Y4.2522 Z-0.2667 I0.375 J-0.6495
G03 X69.2513 Y4.9017 Z-0.3 I0.375 J0.6495
G03 X68.1263 Y5.5512 Z-0.3333 I-0.75 J0.0
G03 Y4.2522 Z-0.3667 I0.375 J-0.6495
G03 X69.2513 Y4.9017 Z-0.4 I0.375 J0.6495
G03 X68.1263 Y5.5512 Z-0.4333 I-0.75 J0.0
G03 Y4.2522 Z-0.4667 I0.375 J-0.6495
G03 X69.2513 Y4.9017 Z-0.5 I0.375 J0.6495
G03 X68.1263 Y5.5512 Z-0.5333 I-0.75 J0.0
G03 Y4.2522 Z-0.5667 I0.375 J-0.6495
G03 X69.2513 Y4.9017 Z-0.6 I0.375 J0.6495
G03 X68.1263 Y5.5512 Z-0.6333 I-0.75 J0.0
G03 Y4.2522 Z-0.6667 I0.375 J-0.6495
G03 X69.2513 Y4.9017 Z-0.7 I0.375 J0.6495
G03 X68.1263 Y5.5512 Z-0.7333 I-0.75 J0.0
G03 Y4.2522 Z-0.7667 I0.375 J-0.6495
G03 X69.2513 Y4.9017 Z-0.8 I0.375 J0.6495
G03 X68.1263 Y5.5512 Z-0.8333 I-0.75 J0.0
G03 Y4.2522 Z-0.8667 I0.375 J-0.6495
G03 X69.2513 Y4.9017 Z-0.9 I0.375 J0.6495
G03 X68.1263 Y5.5512 Z-0.9333 I-0.75 J0.0
G03 Y4.2522 Z-0.9667 I0.375 J-0.6495
G03 X69.2513 Y4.9017 Z-1.0 I0.375 J0.6495
G03 X68.1263 Y5.5512 Z-1.0333 I-0.75 J0.0
G03 Y4.2522 Z-1.0667 I0.375 J-0.6495
G03 X69.2513 Y4.9017 Z-1.1 I0.375 J0.6495
G03 X68.1263 Y5.5512 Z-1.1333 I-0.75 J0.0
G03 Y4.2522 Z-1.1667 I0.375 J-0.6495
G03 X69.2513 Y4.9017 Z-1.2 I0.375 J0.6495
G03 X68.1263 Y5.5512 I-0.75 J0.0
G03 Y4.2522 I0.375 J-0.6495
G03 X69.2513 Y4.9017 I0.375 J0.6495
G00 Z3.0
G00 X6.1526
G00 Z1.0
G01 Z0.0 F300.0
G03 X5.0276 Y5.5512 Z-0.0333 I-0.75 J0.0 F200.0
G03 Y4.2522 Z-0.0667 I0.375 J-0.6495
G03 X6.1526 Y4.9017 Z-0.1 I0.375 J0.6495
G03 X5.0276 Y5.5512 Z-0.1333 I-0.75 J0.0
G03 Y4.2522 Z-0.1667 I0.375 J-0.6495
G03 X6.1526 Y4.9017 Z-0.2 I0.375 J0.6495
G03 X5.0276 Y5.5512 Z-0.2333 I-0.75 J0.0
G03 Y4.2522 Z-0.2667 I0.375 J-0.6495
G03 X6.1526 Y4.9017 Z-0.3 I0.375 J0.6495
G03 X5.0276 Y5.5512 Z-0.3333 I-0.75 J0.0
G03 Y4.2522 Z-0.3667 I0.375 J-0.6495
G03 X6.1526 Y4.9017 Z-0.4 I0.375 J0.6495
G03 X5.0276 Y5.5512 Z-0.4333 I-0.75 J0.0
G03 Y4.2522 Z-0.4667 I0.375 J-0.6495
G03 X6.1526 Y4.9017 Z-0.5 I0.375 J0.6495
G03 X5.0276 Y5.5512 Z-0.5333 I-0.75 J0.0
G03 Y4.2522 Z-0.5667 I0.375 J-0.6495
G03 X6.1526 Y4.9017 Z-0.6 I0.375 J0.6495
G03 X5.0276 Y5.5512 Z-0.6333 I-0.75 J0.0
G03 Y4.2522 Z-0.6667 I0.375 J-0.6495
G03 X6.1526 Y4.9017 Z-0.7 I0.375 J0.6495
G03 X5.0276 Y5.5512 Z-0.7333 I-0.75 J0.0
G03 Y4.2522 Z-0.7667 I0.375 J-0.6495
G03 X6.1526 Y4.9017 Z-0.8 I0.375 J0.6495
G03 X5.0276 Y5.5512 Z-0.8333 I-0.75 J0.0
G03 Y4.2522 Z-0.8667 I0.375 J-0.6495
G03 X6.1526 Y4.9017 Z-0.9 I0.375 J0.6495
G03 X5.0276 Y5.5512 Z-0.9333 I-0.75 J0.0
G03 Y4.2522 Z-0.9667 I0.375 J-0.6495
G03 X6.1526 Y4.9017 Z-1.0 I0.375 J0.6495
G03 X5.0276 Y5.5512 Z-1.0333 I-0.75 J0.0
G03 Y4.2522 Z-1.0667 I0.375 J-0.6495
G03 X6.1526 Y4.9017 Z-1.1 I0.375 J0.6495
G03 X5.0276 Y5.5512 Z-1.1333 I-0.75 J0.0
G03 Y4.2522 Z-1.1667 I0.375 J-0.6495
G03 X6.1526 Y4.9017 Z-1.2 I0.375 J0.6495
G03 X5.0276 Y5.5512 I-0.75 J0.0
G03 Y4.2522 I0.375 J-0.6495
G03 X6.1526 Y4.9017 I0.375 J0.6495
M05
G53 G00 Z-1
M30
