( Made using CamBam - http://www.cambam.info )
( Rückplatte 10/4/2024 2:54:19 PM )
( T0 : 1.0 )
G21 G90 G40
G53 G00 Z-1
M00
( T0 : 1.0 )
G00 Z3.0
( Engrave1 )
G17
M03 S12000
G00 X134.1876 Y23.5337
G00 Z1.1
G01 Z0.0 F50.0
G01 X129.4818 F250.0
G01 Y39.4484
G01 X138.8936 Y29.5237
G01 Y39.4484
G01 X148.3053 Y29.5237
G01 Y39.4484
G01 X157.7171 Y29.5237
G01 Y35.9395
G01 X169.4818
G01 Y30.9772
G01 X162.4229
G01 Y17.5434
G01 X153.0112 Y27.4681
G01 Y17.5434
G01 X143.5994 Y27.4681
G01 Y17.5434
G01 X134.1876 Y27.4681
G01 Y23.5337
G01 Z-0.1 F50.0
G01 X129.4818 F250.0
G01 Y39.4484
G01 X138.8936 Y29.5237
G01 Y39.4484
G01 X148.3053 Y29.5237
G01 Y39.4484
G01 X157.7171 Y29.5237
G01 Y35.9395
G01 X169.4818
G01 Y30.9772
G01 X162.4229
G01 Y17.5434
G01 X153.0112 Y27.4681
G01 Y17.5434
G01 X143.5994 Y27.4681
G01 Y17.5434
G01 X134.1876 Y27.4681
G01 Y23.5337
G01 Z-0.2 F50.0
G01 X129.4818 F250.0
G01 Y39.4484
G01 X138.8936 Y29.5237
G01 Y39.4484
G01 X148.3053 Y29.5237
G01 Y39.4484
G01 X157.7171 Y29.5237
G01 Y35.9395
G01 X169.4818
G01 Y30.9772
G01 X162.4229
G01 Y17.5434
G01 X153.0112 Y27.4681
G01 Y17.5434
G01 X143.5994 Y27.4681
G01 Y17.5434
G01 X134.1876 Y27.4681
G01 Y23.5337
G01 Z-0.3 F50.0
G01 X129.4818 F250.0
G01 Y39.4484
G01 X138.8936 Y29.5237
G01 Y39.4484
G01 X148.3053 Y29.5237
G01 Y39.4484
G01 X157.7171 Y29.5237
G01 Y35.9395
G01 X169.4818
G01 Y30.9772
G01 X162.4229
G01 Y17.5434
G01 X153.0112 Y27.4681
G01 Y17.5434
G01 X143.5994 Y27.4681
G01 Y17.5434
G01 X134.1876 Y27.4681
G01 Y23.5337
G00 Z3.0
G00 X113.0908 Y53.9519
G00 Z1.1
G01 Z0.0 F50.0
G01 X112.6016 Y53.717 F250.0
G01 X111.5383 Y53.2062
G01 X112.6032 Y53.7137
G01 X113.1197 Y53.9598
G01 X114.1777 Y54.4817
G01 X115.2356 Y55.0035
G01 X115.2724 Y55.0216
G01 X116.3167 Y55.57
G01 X117.3612 Y56.1185
G01 X117.4329 Y56.1562
G01 X118.4569 Y56.7417
G01 X119.4808 Y57.3274
G01 X119.6016 Y57.3964
G01 X120.5982 Y58.0275
G01 X121.5948 Y58.6587
G01 X121.7781 Y58.7748
G01 X121.8015 Y58.7906
G01 X122.7735 Y59.459
G01 X123.7455 Y60.1274
G01 X123.9392 Y60.2606
G01 X124.8869 Y60.963
G01 X125.8345 Y61.6655
G01 X126.001 Y61.7889
G01 X126.9244 Y62.523
G01 X127.8479 Y63.2569
G01 X127.946 Y63.335
G01 X128.8441 Y64.0999
G01 X129.7342 Y64.858
G01 X130.6077 Y65.6507
G01 X131.352 Y66.3261
G01 X132.2015 Y67.1444
G01 X132.7857 Y67.7068
G01 X133.6114 Y68.5493
G01 X134.0219 Y68.9681
G01 X134.8225 Y69.8344
G01 X135.0471 Y70.0775
G01 X135.8198 Y70.9689
G01 X135.9121 Y71.0756
G01 X136.6574 Y71.9899
G01 X136.6677 Y72.0026
G01 X137.3648 Y72.8991
G01 X138.0547 Y73.8059
G01 X138.0757 Y73.8342
G01 X138.7535 Y74.7508
G01 X139.412 Y75.6727
G01 X140.0449 Y76.5973
G01 X140.6464 Y77.5223
G01 X141.2268 Y78.4621
G01 X141.7966 Y79.4311
G01 X142.3659 Y80.4434
G01 X142.9274 Y81.4808
G01 X142.9452 Y81.5137
G01 X143.4748 Y82.5678
G01 X143.5398 Y82.6971
G01 X144.0283 Y83.7709
G01 X144.1549 Y84.0491
G01 X144.5992 Y85.1417
G01 X144.7956 Y85.6247
G01 X145.1973 Y86.7339
G01 X145.4673 Y87.4795
G01 X145.8226 Y88.6044
G01 X146.1216 Y89.5514
G01 X146.4234 Y90.6919
G01 X146.7108 Y91.7784
G01 X146.9477 Y92.9341
G01 X147.1864 Y94.0983
G01 X147.1969 Y94.1494
G01 X147.3527 Y95.3187
G01 X147.5091 Y96.4922
G01 X147.604 Y97.668
G01 X147.6997 Y98.8558
G01 X147.754 Y100.0342
G01 X147.8092 Y101.2326
G01 X147.8434 Y102.4116
G01 X147.8776 Y103.5953
G01 Y103.615
G01 X147.8782
G01 Y103.6297
G01 X147.8763 Y103.6472
G01 X147.8724 Y103.667
G01 X147.8665 Y103.6894
G01 X147.8586 Y103.7142
G01 X147.8487 Y103.7414
G01 X147.8368 Y103.771
G01 X147.8229 Y103.8028
G01 X147.8071 Y103.8369
G01 X147.7894 Y103.8731
G01 X147.7689 Y103.9131
G01 X147.7442 Y103.9585
G01 X147.7147 Y104.0106
G01 X147.6792 Y104.0714
G01 X147.6385 Y104.1392
G01 X147.5935 Y104.2124
G01 X147.5447 Y104.2899
G01 X147.4932 Y104.37
G01 X147.4402 Y104.4506
G01 X147.3876 Y104.5294
G01 X147.3367 Y104.6046
G01 X147.2889 Y104.6737
G01 X147.2434 Y104.7383
G01 X147.1991 Y104.8001
G01 X147.1552 Y104.8605
G01 X147.1108 Y104.9212
G01 X147.0656 Y104.9819
G01 X147.02 Y105.0427
G01 X146.974 Y105.1032
G01 X146.9277 Y105.1635
G01 X146.8812 Y105.2234
G01 X146.8345 Y105.2828
G01 X146.7878 Y105.3416
G01 X146.7412 Y105.3996
G01 X146.6933 Y105.4582
G01 X146.6432 Y105.5189
G01 X146.5894 Y105.5827
G01 X146.5307 Y105.6511
G01 X146.4689 Y105.7221
G01 X146.4056 Y105.7937
G01 X146.3425 Y105.8638
G01 X146.2813 Y105.9303
G01 X146.223 Y105.9923
G01 X146.169 Y106.0485
G01 X146.1204 Y106.0978
G01 X146.0784 Y106.1392
G01 X146.0417 Y106.174
G01 X146.0091 Y106.2036
G01 X145.9794 Y106.2295
G01 X145.9513 Y106.253
G01 X145.9248 Y106.2738
G01 X145.9001 Y106.2922
G01 X145.8771 Y106.3082
G01 X145.8559 Y106.3214
G01 X145.8365 Y106.3321
G01 X145.8191 Y106.3402
G01 X145.8034 Y106.3457
G01 X145.8036
G01 X145.7755 Y106.3525
G01 X144.6287 Y106.6285
G01 X143.5025 Y106.8997
G01 X142.351 Y107.1561
G01 X141.1943 Y107.4135
G01 X141.1549 Y107.4215
G01 X139.9953 Y107.6377
G01 X138.8256 Y107.8558
G01 X137.6562 Y108.0111
G01 X136.4841 Y108.1668
G01 X135.3068 Y108.2398
G01 X134.1278 Y108.3129
G01 X132.9482 Y108.3189
G01 X131.8296 Y108.3246
G01 X131.7723 Y108.3227
G01 X130.5937 Y108.2725
G01 X129.6027 Y108.2302
G01 X128.4272 Y108.131
G01 X127.6379 Y108.0643
G01 X126.4673 Y107.9193
G01 X125.9505 Y107.8552
G01 X124.7867 Y107.6624
G01 X124.4855 Y107.6125
G01 X123.3301 Y107.3745
G01 X123.1884 Y107.3454
G01 X122.0408 Y107.0722
G01 X122.0045 Y107.0635
G01 X120.879 Y106.7762
G01 X119.7954 Y106.4773
G01 X118.737 Y106.1602
G01 X117.6873 Y105.8189
G01 X116.6298 Y105.4469
G01 X115.5685 Y105.0495
G01 X114.5071 Y104.6317
G01 X113.4497 Y104.1989
G01 X112.4 Y103.7561
G01 X111.3241 Y103.2726
G01 X111.3057 Y103.2644
G01 X110.2449 Y102.7485
G01 X110.114 Y102.6848
G01 X109.0702 Y102.1353
G01 X108.7725 Y101.9785
G01 X107.7454 Y101.3985
G01 X107.2288 Y101.1067
G01 X106.2189 Y100.4971
G01 X105.5179 Y100.0741
G01 X104.5265 Y99.4347
G01 X103.6745 Y98.8853
G01 X102.7037 Y98.215
G01 X101.7332 Y97.545
G01 X100.7858 Y96.8422
G01 X99.8385 Y96.1392
G01 X99.729 Y96.0581
G01 X98.8057 Y95.3239
G01 X97.8823 Y94.5897
G01 X97.7111 Y94.4536
G01 X96.8142 Y93.6874
G01 X95.9172 Y92.9213
G01 X95.7293 Y92.7608
G01 X94.8628 Y91.9603
G01 X93.9963 Y91.1599
G01 X93.8329 Y91.0089
G01 X93.0035 Y90.1702
G01 X92.1741 Y89.3314
G01 X92.0716 Y89.2277
G01 X91.2729 Y88.3596
G01 X90.4743 Y87.4914
G01 X90.414 Y87.4261
G01 X89.6378 Y86.5378
G01 X88.8615 Y85.6497
G01 X88.8288 Y85.6123
G01 X88.5726 Y85.3111
G01 X87.8063 Y84.4144
G01 X87.2861 Y83.8057
G01 X86.5217 Y82.9073
G01 X85.7889 Y82.0461
G01 X85.0304 Y81.1427
G01 X84.3417 Y80.3225
G01 X83.5933 Y79.4108
G01 X83.1796 Y78.9066
G01 X70.4508 Y60.949
G01 X70.3563 Y60.8118
G01 X70.304 Y60.7357
G01 X70.258 Y60.6688
G01 X70.2119 Y60.6019
G01 X70.171 Y60.5292
G01 X70.1303 Y60.4436
G01 X70.1049 Y60.3384
G01 X70.0962 Y60.2118
G01 X70.1052 Y60.0624
G01 X70.1317 Y59.8894
G01 X70.176 Y59.6928
G01 X70.2379 Y59.4743
G01 X70.317 Y59.2358
G01 X70.4123 Y58.9805
G01 X70.5225 Y58.7115
G01 X70.6478 Y58.428
G01 X70.7887 Y58.1293
G01 X70.9449 Y57.8157
G01 X71.1155 Y57.4873
G01 X71.3007 Y57.1445
G01 X71.5004 Y56.7876
G01 X71.714 Y56.4179
G01 X71.9404 Y56.0367
G01 X72.1796 Y55.6443
G01 X72.4314 Y55.2415
G01 X72.4323 Y55.24
G01 X72.4314 Y55.2415
G01 X72.4325 Y55.2401 F50.0
G01 X72.6988 Y55.4613 F250.0
G01 X73.6062 Y56.215
G01 X73.8771 Y56.4414
G01 X74.7824 Y57.1977
G01 X75.4638 Y57.7668
G01 X75.5438 Y57.8327
G01 X76.4552 Y58.5817
G01 X77.3664 Y59.3307
G01 X78.2777 Y60.0797
G01 X79.1731 Y60.807
G01 X80.0889 Y61.5506
G01 X81.0046 Y62.2942
G01 X81.8328 Y62.9626
G01 X82.7509 Y63.7034
G01 X83.6689 Y64.4442
G01 X84.6389 Y65.1154
G01 X85.5548 Y65.7491
G01 X86.601 Y66.2941
G01 X87.449 Y66.736
G01 X88.5736 Y67.0922
G01 X89.2911 Y67.3195
G01 X90.469 Y67.3837
G01 X91.0189 Y67.4138
G01 X92.1715 Y67.1626
G01 X92.5779 Y67.0742
G01 X93.6175 Y66.5167
G01 X93.913 Y66.3583
G01 X94.7567 Y65.5337
G01 X94.9702 Y65.3251
G01 X95.5484 Y64.297
G01 X95.6954 Y64.0356
G01 X95.9662 Y62.8875
G01 X96.0441 Y62.5573
G01 X95.9918 Y61.3787
G01 X95.9732 Y60.9583
G01 X95.6116 Y59.8354
G01 X95.4413 Y59.3065
G01 X94.8121 Y58.3086
G01 X94.4089 Y57.6692
G01 X93.6173 Y56.7946
G01 X92.9745 Y56.0847
G01 X92.08 Y55.3157
G01 X91.2356 Y54.5899
G01 X90.3699 Y53.9712
G01 X89.4101 Y53.2853
G01 X88.4504 Y52.5995
G01 X87.5105 Y51.9314
G01 X86.549 Y51.248
G01 X85.5875 Y50.5647
G01 X85.5028 Y50.5051
G01 X84.5379 Y49.8264
G01 X83.5731 Y49.1477
G01 X82.6083 Y48.4691
G01 X81.9146 Y47.9881
G01 X81.4166 Y47.6428
G01 X80.4471 Y46.9708
G01 X79.4777 Y46.2988
G01 X79.3484 Y46.2108
G01 X47.3564 Y25.0068
G01 X47.101 Y24.9981
G01 X46.7511 Y25.1099
G01 X46.2858 Y25.3703
G01 X45.7536 Y25.759
G01 X45.2046 Y26.2551
G01 X44.6897 Y26.8366
G01 X44.2606 Y27.48
G01 X43.9254 Y28.1312
G01 X43.6918 Y28.7361
G01 X43.5661 Y29.2427
G01 X43.5548 Y29.5996
G01 X43.6359 Y29.8346
G01 X43.7922 Y29.9766
G01 X43.9308 Y30.1026
G01 X72.4323 Y55.24
G01 X72.4325 Y55.2401
G00 Z3.0
G00 X70.4508 Y60.949
G00 Z1.0
G01 Z0.0 F50.0
G01 X70.2674 Y60.9601 F250.0
G01 X69.3123 Y60.9562
G01 X68.1327 Y60.9515
G01 X67.0354 Y60.8525
G01 X65.8605 Y60.7466
G01 X65.7205 Y60.7201
G01 X64.5614 Y60.5008
G01 X63.4023 Y60.2817
G01 X63.0577 Y60.1815
G01 X61.9251 Y59.8522
G01 X60.7924 Y59.5228
G01 X60.6763 Y59.4775
G01 X60.3624 Y59.3527
G01 X59.2662 Y58.9171
G01 X58.17 Y58.4813
G01 X57.4118 Y58.0977
G01 X56.3594 Y57.5651
G01 X55.3068 Y57.0325
G01 X55.1727 Y56.9646
G01 X54.8447 Y56.7566
G01 X53.8485 Y56.1249
G01 X53.2222 Y55.7277
G01 X52.226 Y55.0959
G01 X52.0849 Y54.9941
G01 X51.1282 Y54.3039
G01 X50.1715 Y53.6139
G01 X49.2149 Y52.9237
G01 X48.9554 Y52.7219
G01 X48.024 Y51.998
G01 X47.0927 Y51.2741
G01 X46.1614 Y50.55
G01 X45.8459 Y50.2961
G01 X44.9268 Y49.5565
G01 X44.0079 Y48.817
G01 X43.0889 Y48.0775
G01 X42.9459 Y48.0222
G01 X42.7163 Y48.1066
G01 X42.3939 Y48.3569
G01 X42.0093 Y48.7329
G01 X41.5932 Y49.1945
G01 X41.1768 Y49.7007
G01 X40.791 Y50.2108
G01 X40.4338 Y50.7206
G01 X40.103 Y51.2261
G01 X39.7963 Y51.7234
G01 X39.5114 Y52.2088
G01 X39.2644 Y52.6716
G01 X39.0713 Y53.1012
G01 X38.948 Y53.4867
G01 X38.9104 Y53.8176
G01 X38.9691 Y54.0484
G01 X39.5301 Y54.5513
G01 X40.4083 Y55.3388
G01 X41.2866 Y56.1262
G01 X42.1649 Y56.9137
G01 X43.0432 Y57.7011
G01 X43.5606 Y58.1565
G01 X44.4463 Y58.9357
G01 X45.3318 Y59.7149
G01 X46.2175 Y60.4941
G01 X47.1031 Y61.2734
G01 X48.0032 Y62.038
G01 X48.9022 Y62.8017
G01 X49.8011 Y63.5654
G01 X50.7003 Y64.3292
G01 X51.5302 Y64.9964
G01 X51.7895 Y65.2048
G01 X52.7089 Y65.9439
G01 X53.6283 Y66.6829
G01 X54.5477 Y67.4219
G01 X55.0741 Y67.8067
G01 X55.4478 Y68.0772
G01 X56.4035 Y68.7687
G01 X57.3591 Y69.4602
G01 X58.3148 Y70.1517
G01 X58.933 Y70.5827
G01 X59.7371 Y71.0888
G01 X60.7355 Y71.717
G01 X61.7338 Y72.3454
G01 X62.7323 Y72.9737
G01 X63.3733 Y73.3099
G01 X64.418 Y73.8577
G01 X65.4626 Y74.4055
G01 X66.5073 Y74.9535
G01 X67.018 Y75.1613
G01 X68.1106 Y75.6059
G01 X69.2032 Y76.0505
G01 X70.2958 Y76.4952
G01 X70.73 Y76.6168
G01 X71.8659 Y76.9351
G01 X73.0017 Y77.2534
G01 X74.1376 Y77.5717
G01 X74.554 Y77.6495
G01 X75.7135 Y77.8659
G01 X76.8732 Y78.0824
G01 X78.0328 Y78.2989
G01 X79.0804 Y78.4299
G01 X79.638 Y78.4998
G01 X80.8086 Y78.6463
G01 X81.979 Y78.7928
G01 X82.0052 Y78.7952
G01 X83.1796 Y78.9066
G01 Z-0.1 F50.0
G01 X82.0052 Y78.7952 F250.0
G01 X81.979 Y78.7928
G01 X80.8086 Y78.6463
G01 X79.638 Y78.4998
G01 X79.0804 Y78.4299
G01 X78.0328 Y78.2989
G01 X76.8732 Y78.0824
G01 X75.7135 Y77.8659
G01 X74.554 Y77.6495
G01 X74.1376 Y77.5717
G01 X73.0017 Y77.2534
G01 X71.8659 Y76.9351
G01 X70.73 Y76.6168
G01 X70.2958 Y76.4952
G01 X69.2032 Y76.0505
G01 X68.1106 Y75.6059
G01 X67.018 Y75.1613
G01 X66.5073 Y74.9535
G01 X65.4626 Y74.4055
G01 X64.418 Y73.8577
G01 X63.3733 Y73.3099
G01 X62.7323 Y72.9737
G01 X61.7338 Y72.3454
G01 X60.7355 Y71.717
G01 X59.7371 Y71.0888
G01 X58.933 Y70.5827
G01 X58.3148 Y70.1517
G01 X57.3591 Y69.4602
G01 X56.4035 Y68.7687
G01 X55.4478 Y68.0772
G01 X55.0741 Y67.8067
G01 X54.5477 Y67.4219
G01 X53.6283 Y66.6829
G01 X52.7089 Y65.9439
G01 X51.7895 Y65.2048
G01 X51.5302 Y64.9964
G01 X50.7003 Y64.3292
G01 X49.8011 Y63.5654
G01 X48.9022 Y62.8017
G01 X48.0032 Y62.038
G01 X47.1031 Y61.2734
G01 X46.2175 Y60.4941
G01 X45.3318 Y59.7149
G01 X44.4463 Y58.9357
G01 X43.5606 Y58.1565
G01 X43.0432 Y57.7011
G01 X42.1649 Y56.9137
G01 X41.2866 Y56.1262
G01 X40.4083 Y55.3388
G01 X39.5301 Y54.5513
G01 X38.9691 Y54.0484
G01 X38.9104 Y53.8176
G01 X38.948 Y53.4867
G01 X39.0713 Y53.1012
G01 X39.2644 Y52.6716
G01 X39.5114 Y52.2088
G01 X39.7963 Y51.7234
G01 X40.103 Y51.2261
G01 X40.4338 Y50.7206
G01 X40.791 Y50.2108
G01 X41.1768 Y49.7007
G01 X41.5932 Y49.1945
G01 X42.0093 Y48.7329
G01 X42.3939 Y48.3569
G01 X42.7163 Y48.1066
G01 X42.9459 Y48.0222
G01 X43.0889 Y48.0775
G01 X44.0079 Y48.817
G01 X44.9268 Y49.5565
G01 X45.8459 Y50.2961
G01 X46.1614 Y50.55
G01 X47.0927 Y51.2741
G01 X48.024 Y51.998
G01 X48.9554 Y52.7219
G01 X49.2149 Y52.9237
G01 X50.1715 Y53.6139
G01 X51.1282 Y54.3039
G01 X52.0849 Y54.9941
G01 X52.226 Y55.0959
G01 X53.2222 Y55.7277
G01 X53.8485 Y56.1249
G01 X54.8447 Y56.7566
G01 X55.1727 Y56.9646
G01 X55.3068 Y57.0325
G01 X56.3594 Y57.5651
G01 X57.4118 Y58.0977
G01 X58.17 Y58.4813
G01 X59.2662 Y58.9171
G01 X60.3624 Y59.3527
G01 X60.6763 Y59.4775
G01 X60.7924 Y59.5228
G01 X61.9251 Y59.8522
G01 X63.0577 Y60.1815
G01 X63.4023 Y60.2817
G01 X64.5614 Y60.5008
G01 X65.7205 Y60.7201
G01 X65.8605 Y60.7466
G01 X67.0354 Y60.8525
G01 X68.1327 Y60.9515
G01 X69.3123 Y60.9562
G01 X70.2674 Y60.9601
G01 X70.4508 Y60.949
G00 Z3.0
G00 X79.3484 Y46.2108
G00 Z1.0
G01 Z0.0 F50.0
G01 X79.5997 Y45.9378 F250.0
G01 X79.9247 Y45.592
G01 X80.2427 Y45.2611
G01 X80.5534 Y44.9453
G01 X80.856 Y44.6448
G01 X81.1509 Y44.3602
G01 X81.4379 Y44.0918
G01 X81.7181 Y43.8388
G01 X81.9919 Y43.6004
G01 X82.2561 Y43.3796
G01 X82.5072 Y43.1795
G01 X82.7432 Y43.0017
G01 X82.961 Y42.8478
G01 X83.1616 Y42.7176
G01 X83.3452 Y42.6106
G01 X83.5133 Y42.5254
G01 X83.6674 Y42.4602
G01 X83.8063 Y42.4156
G01 X83.9299 Y42.3925
G01 X84.038 Y42.39
G01 X84.1311 Y42.4073
G01 X84.212 Y42.4282
G01 X84.2885 Y42.4555
G01 X84.3649 Y42.4827
G01 X84.4517 Y42.5137
G01 X84.7003 Y42.6023
G01 X105.3347 Y50.2953
G01 X106.4085 Y50.7838
G01 X106.8726 Y50.995
G01 X107.9407 Y51.4957
G01 X108.9048 Y51.9478
G01 X109.9694 Y52.4558
G01 X110.9832 Y52.9396
G01 X111.5383 Y53.2062
G00 Z3.0
G00 X105.3347 Y50.2953
G00 Z1.0
G01 Z0.0 F50.0
G01 X105.1419 Y49.7672 F250.0
G01 X104.8496 Y48.9926
G01 X104.4677 Y48.0429
G01 X104.0274 Y46.9484
G01 X103.5873 Y45.854
G01 X103.3644 Y45.2996
G01 X103.0193 Y44.5699
G01 X102.515 Y43.5036
G01 X102.0107 Y42.4371
G01 X101.6669 Y41.7183
G01 X101.4393 Y41.3313
G01 X100.8414 Y40.3144
G01 X100.2434 Y39.2976
G01 X99.6455 Y38.2808
G01 X99.3166 Y37.8441
G01 X98.6069 Y36.9017
G01 X97.8973 Y35.9594
G01 X97.1876 Y35.0171
G01 X96.7027 Y34.4885
G01 X95.9051 Y33.6194
G01 X95.1075 Y32.7502
G01 X94.3099 Y31.8812
G01 X93.6197 Y31.2393
G01 X92.756 Y30.4359
G01 X91.8922 Y29.6325
G01 X91.0285 Y28.8292
G01 X90.0957 Y28.0641
G01 X89.1837 Y27.3158
G01 X88.2717 Y26.5677
G01 X87.3596 Y25.8196
G01 X86.8438 Y25.4233
G01 X86.5498 Y25.2074
G01 X85.5991 Y24.5089
G01 X84.7735 Y23.9025
G01 X83.8229 Y23.2041
G01 X82.8722 Y22.5058
G01 X81.9126 Y21.8322
G01 X80.9446 Y21.1582
G01 X79.9765 Y20.4841
G01 X79.0085 Y19.81
G01 X78.4425 Y19.4322
G01 X77.4614 Y18.7771
G01 X76.4804 Y18.1222
G01 X75.4993 Y17.4672
G01 X74.5182 Y16.8122
G01 X73.8949 Y16.4045
G01 X72.9078 Y15.7587
G01 X71.9206 Y15.113
G01 X70.9335 Y14.4672
G01 X69.9463 Y13.8214
G01 X69.7018 Y13.8322
G01 X69.3862 Y13.9605
G01 X69.0409 Y14.1837
G01 X68.672 Y14.4843
G01 X68.2857 Y14.8442
G01 X67.8878 Y15.2456
G01 X67.4843 Y15.6706
G01 X67.0795 Y16.1204
G01 X66.678 Y16.5959
G01 X66.2842 Y17.0981
G01 X65.903 Y17.6276
G01 X65.5657 Y18.1442
G01 X65.3039 Y18.6075
G01 X65.1484 Y18.9774
G01 X65.1303 Y19.2143
G01 X65.2255 Y19.3313
G01 X65.5486 Y19.568
G01 X66.5003 Y20.265
G01 X67.4521 Y20.962
G01 X68.4038 Y21.659
G01 X68.6619 Y21.8549
G01 X69.6017 Y22.5679
G01 X70.5414 Y23.2808
G01 X71.4812 Y23.9938
G01 X71.6124 Y24.101
G01 X72.5259 Y24.8474
G01 X73.4392 Y25.5938
G01 X74.3527 Y26.3402
G01 X74.7976 Y26.7507
G01 X75.6646 Y27.5506
G01 X76.5315 Y28.3506
G01 X76.9476 Y28.7409
G01 X77.5148 Y29.3736
G01 X78.3023 Y30.2519
G01 X79.0897 Y31.1301
G01 X79.4157 Y31.57
G01 X80.1179 Y32.5179
G01 X80.82 Y33.4657
G01 X81.0083 Y33.7784
G01 X81.6165 Y34.7891
G01 X82.2248 Y35.7999
G01 X82.286 Y35.9281
G01 X82.7941 Y36.9927
G01 X83.3021 Y38.0574
G01 X83.678 Y39.0941
G01 X84.0801 Y40.2031
G01 X84.328 Y41.1279
G01 X84.6333 Y42.2673
G01 X84.7003 Y42.6023
G01 Z-0.1 F50.0
G01 X84.6333 Y42.2673 F250.0
G01 X84.328 Y41.1279
G01 X84.0801 Y40.2031
G01 X83.678 Y39.0941
G01 X83.3021 Y38.0574
G01 X82.7941 Y36.9927
G01 X82.286 Y35.9281
G01 X82.2248 Y35.7999
G01 X81.6165 Y34.7891
G01 X81.0083 Y33.7784
G01 X80.82 Y33.4657
G01 X80.1179 Y32.5179
G01 X79.4157 Y31.57
G01 X79.0897 Y31.1301
G01 X78.3023 Y30.2519
G01 X77.5148 Y29.3736
G01 X76.9476 Y28.7409
G01 X76.5315 Y28.3506
G01 X75.6646 Y27.5506
G01 X74.7976 Y26.7507
G01 X74.3527 Y26.3402
G01 X73.4392 Y25.5938
G01 X72.5259 Y24.8474
G01 X71.6124 Y24.101
G01 X71.4812 Y23.9938
G01 X70.5414 Y23.2808
G01 X69.6017 Y22.5679
G01 X68.6619 Y21.8549
G01 X68.4038 Y21.659
G01 X67.4521 Y20.962
G01 X66.5003 Y20.265
G01 X65.5486 Y19.568
G01 X65.2255 Y19.3313
G01 X65.1303 Y19.2143
G01 X65.1484 Y18.9774
G01 X65.3039 Y18.6075
G01 X65.5657 Y18.1442
G01 X65.903 Y17.6276
G01 X66.2842 Y17.0981
G01 X66.678 Y16.5959
G01 X67.0795 Y16.1204
G01 X67.4843 Y15.6706
G01 X67.8878 Y15.2456
G01 X68.2857 Y14.8442
G01 X68.672 Y14.4843
G01 X69.0409 Y14.1837
G01 X69.3862 Y13.9605
G01 X69.7018 Y13.8322
G01 X69.9463 Y13.8214
G01 X70.9335 Y14.4672
G01 X71.9206 Y15.113
G01 X72.9078 Y15.7587
G01 X73.8949 Y16.4045
G01 X74.5182 Y16.8122
G01 X75.4993 Y17.4672
G01 X76.4804 Y18.1222
G01 X77.4614 Y18.7771
G01 X78.4425 Y19.4322
G01 X79.0085 Y19.81
G01 X79.9765 Y20.4841
G01 X80.9446 Y21.1582
G01 X81.9126 Y21.8322
G01 X82.8722 Y22.5058
G01 X83.8229 Y23.2041
G01 X84.7735 Y23.9025
G01 X85.5991 Y24.5089
G01 X86.5498 Y25.2074
G01 X86.8438 Y25.4233
G01 X87.3596 Y25.8196
G01 X88.2717 Y26.5677
G01 X89.1837 Y27.3158
G01 X90.0957 Y28.0641
G01 X91.0285 Y28.8292
G01 X91.8922 Y29.6325
G01 X92.756 Y30.4359
G01 X93.6197 Y31.2393
G01 X94.3099 Y31.8812
G01 X95.1075 Y32.7502
G01 X95.9051 Y33.6194
G01 X96.7027 Y34.4885
G01 X97.1876 Y35.0171
G01 X97.8973 Y35.9594
G01 X98.6069 Y36.9017
G01 X99.3166 Y37.8441
G01 X99.6455 Y38.2808
G01 X100.2434 Y39.2976
G01 X100.8414 Y40.3144
G01 X101.4393 Y41.3313
G01 X101.6669 Y41.7183
G01 X102.0107 Y42.4371
G01 X102.515 Y43.5036
G01 X103.0193 Y44.5699
G01 X103.3644 Y45.2996
G01 X103.5873 Y45.854
G01 X104.0274 Y46.9484
G01 X104.4677 Y48.0429
G01 X104.8496 Y48.9926
G01 X105.1419 Y49.7672
G01 X105.3347 Y50.2953
G00 Z3.0
G00 X111.5383 Y53.2062
G00 Z1.0
G01 Z-0.1 F50.0
G01 X110.9832 Y52.9396 F250.0
G01 X109.9694 Y52.4558
G01 X108.9048 Y51.9478
G01 X107.9407 Y51.4957
G01 X106.8726 Y50.995
G01 X106.4085 Y50.7838
G01 X105.3347 Y50.2953
G01 X84.7003 Y42.6023
G01 X84.4517 Y42.5137
G01 X84.3649 Y42.4827
G01 X84.2885 Y42.4555
G01 X84.212 Y42.4282
G01 X84.1311 Y42.4073
G01 X84.038 Y42.39
G01 X83.9299 Y42.3925
G01 X83.8063 Y42.4156
G01 X83.6674 Y42.4602
G01 X83.5133 Y42.5254
G01 X83.3452 Y42.6106
G01 X83.1616 Y42.7176
G01 X82.961 Y42.8478
G01 X82.7432 Y43.0017
G01 X82.5072 Y43.1795
G01 X82.2561 Y43.3796
G01 X81.9919 Y43.6004
G01 X81.7181 Y43.8388
G01 X81.4379 Y44.0918
G01 X81.1509 Y44.3602
G01 X80.856 Y44.6448
G01 X80.5534 Y44.9453
G01 X80.2427 Y45.2611
G01 X79.9247 Y45.592
G01 X79.5997 Y45.9378
G01 X79.3484 Y46.2108
G01 X47.3564 Y25.0068
G01 X47.101 Y24.9981
G01 X46.7511 Y25.1099
G01 X46.2858 Y25.3703
G01 X45.7536 Y25.759
G01 X45.2046 Y26.2551
G01 X44.6897 Y26.8366
G01 X44.2606 Y27.48
G01 X43.9254 Y28.1312
G01 X43.6918 Y28.7361
G01 X43.5661 Y29.2427
G01 X43.5548 Y29.5996
G01 X43.6359 Y29.8346
G01 X43.7922 Y29.9766
G01 X43.9308 Y30.1026
G01 X72.4323 Y55.24
G01 X72.6988 Y55.4613
G01 X73.6062 Y56.215
G01 X73.8771 Y56.4414
G01 X74.7824 Y57.1977
G01 X75.4638 Y57.7668
G01 X75.5438 Y57.8327
G01 X76.4552 Y58.5817
G01 X77.3664 Y59.3307
G01 X78.2777 Y60.0797
G01 X79.1731 Y60.807
G01 X80.0889 Y61.5506
G01 X81.0046 Y62.2942
G01 X81.8328 Y62.9626
G01 X82.7509 Y63.7034
G01 X83.6689 Y64.4442
G01 X84.6389 Y65.1154
G01 X85.5548 Y65.7491
G01 X86.601 Y66.2941
G01 X87.449 Y66.736
G01 X88.5736 Y67.0922
G01 X89.2911 Y67.3195
G01 X90.469 Y67.3837
G01 X91.0189 Y67.4138
G01 X92.1715 Y67.1626
G01 X92.5779 Y67.0742
G01 X93.6175 Y66.5167
G01 X93.913 Y66.3583
G01 X94.7567 Y65.5337
G01 X94.9702 Y65.3251
G01 X95.5484 Y64.297
G01 X95.6954 Y64.0356
G01 X95.9662 Y62.8875
G01 X96.0441 Y62.5573
G01 X95.9918 Y61.3787
G01 X95.9732 Y60.9583
G01 X95.6116 Y59.8354
G01 X95.4413 Y59.3065
G01 X94.8121 Y58.3086
G01 X94.4089 Y57.6692
G01 X93.6173 Y56.7946
G01 X92.9745 Y56.0847
G01 X92.08 Y55.3157
G01 X91.2356 Y54.5899
G01 X90.3699 Y53.9712
G01 X89.4101 Y53.2853
G01 X88.4504 Y52.5995
G01 X87.5105 Y51.9314
G01 X86.549 Y51.248
G01 X85.5875 Y50.5647
G01 X85.5028 Y50.5051
G01 X84.5379 Y49.8264
G01 X83.5731 Y49.1477
G01 X82.6083 Y48.4691
G01 X81.9146 Y47.9881
G01 X81.4166 Y47.6428
G01 X80.4471 Y46.9708
G01 X79.4777 Y46.2988
G01 X79.3484 Y46.2108
G00 Z3.0
G00 X84.7003 Y42.6023
G00 Z0.9
G01 Z-0.2 F50.0
G01 X84.6333 Y42.2673 F250.0
G01 X84.328 Y41.1279
G01 X84.0801 Y40.2031
G01 X83.678 Y39.0941
G01 X83.3021 Y38.0574
G01 X82.7941 Y36.9927
G01 X82.286 Y35.9281
G01 X82.2248 Y35.7999
G01 X81.6165 Y34.7891
G01 X81.0083 Y33.7784
G01 X80.82 Y33.4657
G01 X80.1179 Y32.5179
G01 X79.4157 Y31.57
G01 X79.0897 Y31.1301
G01 X78.3023 Y30.2519
G01 X77.5148 Y29.3736
G01 X76.9476 Y28.7409
G01 X76.5315 Y28.3506
G01 X75.6646 Y27.5506
G01 X74.7976 Y26.7507
G01 X74.3527 Y26.3402
G01 X73.4392 Y25.5938
G01 X72.5259 Y24.8474
G01 X71.6124 Y24.101
G01 X71.4812 Y23.9938
G01 X70.5414 Y23.2808
G01 X69.6017 Y22.5679
G01 X68.6619 Y21.8549
G01 X68.4038 Y21.659
G01 X67.4521 Y20.962
G01 X66.5003 Y20.265
G01 X65.5486 Y19.568
G01 X65.2255 Y19.3313
G01 X65.1303 Y19.2143
G01 X65.1484 Y18.9774
G01 X65.3039 Y18.6075
G01 X65.5657 Y18.1442
G01 X65.903 Y17.6276
G01 X66.2842 Y17.0981
G01 X66.678 Y16.5959
G01 X67.0795 Y16.1204
G01 X67.4843 Y15.6706
G01 X67.8878 Y15.2456
G01 X68.2857 Y14.8442
G01 X68.672 Y14.4843
G01 X69.0409 Y14.1837
G01 X69.3862 Y13.9605
G01 X69.7018 Y13.8322
G01 X69.9463 Y13.8214
G01 X70.9335 Y14.4672
G01 X71.9206 Y15.113
G01 X72.9078 Y15.7587
G01 X73.8949 Y16.4045
G01 X74.5182 Y16.8122
G01 X75.4993 Y17.4672
G01 X76.4804 Y18.1222
G01 X77.4614 Y18.7771
G01 X78.4425 Y19.4322
G01 X79.0085 Y19.81
G01 X79.9765 Y20.4841
G01 X80.9446 Y21.1582
G01 X81.9126 Y21.8322
G01 X82.8722 Y22.5058
G01 X83.8229 Y23.2041
G01 X84.7735 Y23.9025
G01 X85.5991 Y24.5089
G01 X86.5498 Y25.2074
G01 X86.8438 Y25.4233
G01 X87.3596 Y25.8196
G01 X88.2717 Y26.5677
G01 X89.1837 Y27.3158
G01 X90.0957 Y28.0641
G01 X91.0285 Y28.8292
G01 X91.8922 Y29.6325
G01 X92.756 Y30.4359
G01 X93.6197 Y31.2393
G01 X94.3099 Y31.8812
G01 X95.1075 Y32.7502
G01 X95.9051 Y33.6194
G01 X96.7027 Y34.4885
G01 X97.1876 Y35.0171
G01 X97.8973 Y35.9594
G01 X98.6069 Y36.9017
G01 X99.3166 Y37.8441
G01 X99.6455 Y38.2808
G01 X100.2434 Y39.2976
G01 X100.8414 Y40.3144
G01 X101.4393 Y41.3313
G01 X101.6669 Y41.7183
G01 X102.0107 Y42.4371
G01 X102.515 Y43.5036
G01 X103.0193 Y44.5699
G01 X103.3644 Y45.2996
G01 X103.5873 Y45.854
G01 X104.0274 Y46.9484
G01 X104.4677 Y48.0429
G01 X104.8496 Y48.9926
G01 X105.1419 Y49.7672
G01 X105.3347 Y50.2953
G00 Z3.0
G00 X122.5963 Y76.0146
G00 Z1.1
G01 Z0.0 F50.0
G01 X123.3638 Y75.5352 F250.0
G01 X124.1518 Y75.1052
G01 X124.9525 Y74.7215
G01 X125.7582 Y74.3818
G01 X126.5674 Y74.1083
G01 X127.3788 Y73.9234
G01 X128.1908 Y73.8493
G01 X129.0025 Y73.9082
G01 X129.816 Y74.089
G01 X130.6331 Y74.3815
G01 X131.456 Y74.7749
G01 X132.2867 Y75.2587
G01 X133.114 Y75.8259
G01 X133.9274 Y76.4693
G01 X134.7165 Y77.182
G01 X135.4708 Y77.9575
G01 X136.1701 Y78.7952
G01 X136.7938 Y79.6952
G01 X137.3216 Y80.6569
G01 X137.7328 Y81.6808
G01 X138.0415 Y82.7381
G01 X138.2618 Y83.8002
G01 X138.4075 Y84.8377
G01 X138.4923 Y85.8213
G01 X138.5191 Y86.7493
G01 X138.4906 Y87.6205
G01 X138.4093 Y88.4334
G01 X138.2782 Y89.1864
G01 X138.1027 Y89.8923
G01 X137.8884 Y90.5635
G01 X137.6405 Y91.2125
G01 X137.365 Y91.8519
G01 X137.0642 Y92.4796
G01 X136.7402 Y93.0934
G01 X136.3958 Y93.6916
G01 X136.0332 Y94.2719
G01 X135.6544 Y94.8367
G01 X135.2613 Y95.3885
G01 X134.8559 Y95.9296
G01 X134.44 Y96.4626
G01 X134.0108 Y96.9861
G01 X133.5655 Y97.4989
G01 X133.1012 Y97.9999
G01 X132.6152 Y98.4876
G01 X132.1087 Y98.9596
G01 X131.5832 Y99.4126
G01 X131.0398 Y99.8438
G01 X130.4801 Y100.2506
G01 X129.8905 Y100.6305
G01 X129.2574 Y100.9818
G01 X128.5672 Y101.3023
G01 X127.8064 Y101.59
G01 X126.9757 Y101.8419
G01 X126.0756 Y102.055
G01 X125.1068 Y102.2263
G01 X124.07 Y102.3528
G01 X122.9899 Y102.4136
G01 X121.8908 Y102.3882
G01 X120.7967 Y102.2556
G01 X119.7311 Y101.9951
G01 X118.6997 Y101.6265
G01 X117.7077 Y101.1695
G01 X116.7609 Y100.6439
G01 X115.8649 Y100.0691
G01 X115.0291 Y99.4534
G01 X114.2629 Y98.8047
G01 X113.576 Y98.1316
G01 X112.9784 Y97.4424
G01 X112.4798 Y96.7326
G01 X112.0897 Y95.9976
G01 X111.8179 Y95.2326
G01 X111.674 Y94.4331
G01 X111.6373 Y93.6056
G01 X111.6867 Y92.7573
G01 X111.8011 Y91.895
G01 X111.9593 Y91.0259
G01 X112.1661 Y90.1569
G01 X112.426 Y89.2944
G01 X112.7438 Y88.4454
G01 X113.1241 Y87.6167
G01 X113.5555 Y86.8031
G01 X114.0263 Y85.9994
G01 X114.5249 Y85.2006
G01 X115.0397 Y84.4012
G01 X115.5724 Y83.6059
G01 X116.1249 Y82.8191
G01 X116.699 Y82.0453
G01 X117.2965 Y81.2893
G01 X117.9126 Y80.5503
G01 X118.5424 Y79.8278
G01 X119.1812 Y79.1211
G01 X119.824 Y78.4296
G01 X120.4788 Y77.7634
G01 X121.1539 Y77.1323
G01 X121.8571 Y76.5461
G01 X122.5963 Y76.0146
G00 Z3.0
G00 X121.5471 Y74.6171
G00 Z1.1
G01 Z0.0 F50.0
G01 X121.6406 Y74.5468 F250.0
G01 X121.6687 Y74.5258
G01 X121.6969 Y74.505
G01 X121.7251 Y74.484
G01 X121.7533 Y74.463
G01 X122.5849 Y73.9213
G01 X123.4432 Y73.4312
G01 X124.3172 Y72.9916
G01 X125.1961 Y72.6016
G01 X126.0879 Y72.2885
G01 X127.0004 Y72.0795
G01 X127.9416 Y72.0017
G01 X128.9192 Y72.0818
G01 X129.9188 Y72.3039
G01 X130.9255 Y72.6526
G01 X131.925 Y73.1122
G01 X132.9029 Y73.6676
G01 X133.8556 Y74.3128
G01 X134.7793 Y75.0423
G01 X135.6532 Y75.8345
G01 X135.6708 Y75.8504
G01 X136.4923 Y76.6969
G01 X136.5265 Y76.7322
G01 X137.2843 Y77.6363
G01 X137.3236 Y77.6832
G01 X138.0025 Y78.6478
G01 X138.0388 Y78.6993
G01 X138.6201 Y79.7257
G01 X138.649 Y79.7768
G01 X139.1101 Y80.8625
G01 X139.131 Y80.912
G01 X139.4869 Y82.0366
G01 X139.4998 Y82.0777
G01 X139.7657 Y83.227
G01 X139.7702 Y83.2463
G01 X139.9565 Y84.3895
G01 X140.0731 Y85.4785
G01 X140.1229 Y86.5108
G01 X140.1084 Y87.4833
G01 X140.0322 Y88.3935
G01 X139.8973 Y89.2383
G01 X139.7075 Y90.0343
G01 X139.4668 Y90.7983
G01 X139.1796 Y91.5467
G01 X138.8498 Y92.2963
G01 X138.4874 Y93.0364
G01 X138.1026 Y93.7563
G01 X137.7055 Y94.4453
G01 X137.3062 Y95.0924
G01 X136.9017 Y95.7056
G01 X136.4893 Y96.2922
G01 X136.0661 Y96.8603
G01 X135.6289 Y97.4176
G01 X135.1712 Y97.9688
G01 X134.6862 Y98.5189
G01 X134.1672 Y99.0726
G01 X133.6077 Y99.6348
G01 X133.0153 Y100.1928
G01 X132.3978 Y100.734
G01 X131.7628 Y101.2459
G01 X131.118 Y101.7164
G01 X130.4461 Y102.1455
G01 X129.7302 Y102.5337
G01 X128.953 Y102.8814
G01 X128.0974 Y103.1889
G01 X127.1657 Y103.453
G01 X126.1596 Y103.6704
G01 X125.0813 Y103.8377
G01 X123.9325 Y103.9518
G01 X122.7535 Y103.9908
G01 X122.7369 Y103.9914
G01 X121.5585 Y103.9374
G01 X121.5178 Y103.9356
G01 X120.3499 Y103.7704
G01 X120.298 Y103.7631
G01 X119.156 Y103.4676
G01 X119.0992 Y103.453
G01 X117.9912 Y103.0483
G01 X117.9314 Y103.0263
G01 X116.8608 Y102.5309
G01 X116.8041 Y102.5047
G01 X115.772 Y101.9335
G01 X115.7277 Y101.9091
G01 X114.7336 Y101.2741
G01 X114.7123 Y101.2607
G01 X113.764 Y100.5612
G01 X112.8891 Y99.8125
G01 X112.094 Y99.0162
G01 X111.3856 Y98.1746
G01 X110.7822 Y97.2973
G01 X110.3028 Y96.3943
G01 X109.9662 Y95.4755
G01 X109.7917 Y94.5511
G01 X109.7513 Y93.6205
G01 X109.817 Y92.6827
G01 X109.9605 Y91.7371
G01 X110.1532 Y90.7833
G01 X110.3992 Y89.8312
G01 X110.7022 Y88.891
G01 X111.0661 Y87.9733
G01 X111.0799 Y87.942
G01 X111.0936 Y87.9108
G01 X111.1073 Y87.8795
G01 X111.1208 Y87.8484
G01 X111.5443 Y86.9779
G01 X112.0197 Y86.1299
G01 X112.5355 Y85.2936
G01 X113.0804 Y84.4584
G01 X113.643 Y83.6137
G01 X114.2244 Y82.7657
G01 X114.8256 Y81.9212
G01 X115.4477 Y81.0867
G01 X116.0917 Y80.2685
G01 X116.7509 Y79.4674
G01 X117.419 Y78.6841
G01 X118.0892 Y77.9193
G01 X118.7551 Y77.1736
G01 X119.4301 Y76.4554
G01 X120.1271 Y75.7727
G01 X120.8597 Y75.1338
G01 X120.8845 Y75.1147
G01 X120.9094 Y75.0956
G01 X120.9342 Y75.0764
G01 X120.9592 Y75.0573
G01 X121.5251 Y74.6335
G01 X121.5471 Y74.6171
G00 Z3.0
G00 X122.5669 Y76.0358
G00 Z1.0
G01 Z-0.1 F50.0
G01 X122.5963 Y76.0146 F250.0
G01 X123.3638 Y75.5352
G01 X124.1518 Y75.1052
G01 X124.9525 Y74.7215
G01 X125.7582 Y74.3818
G01 X126.5674 Y74.1083
G01 X127.3788 Y73.9234
G01 X128.1908 Y73.8493
G01 X129.0025 Y73.9082
G01 X129.816 Y74.089
G01 X130.6331 Y74.3815
G01 X131.456 Y74.7749
G01 X132.2867 Y75.2587
G01 X133.114 Y75.8259
G01 X133.9274 Y76.4693
G01 X134.7165 Y77.182
G01 X135.4708 Y77.9575
G01 X136.1701 Y78.7952
G01 X136.7938 Y79.6952
G01 X137.3216 Y80.6569
G01 X137.7328 Y81.6808
G01 X138.0415 Y82.7381
G01 X138.2618 Y83.8002
G01 X138.4075 Y84.8377
G01 X138.4923 Y85.8213
G01 X138.5191 Y86.7493
G01 X138.4906 Y87.6205
G01 X138.4093 Y88.4334
G01 X138.2782 Y89.1864
G01 X138.1027 Y89.8923
G01 X137.8884 Y90.5635
G01 X137.6405 Y91.2125
G01 X137.365 Y91.8519
G01 X137.0642 Y92.4796
G01 X136.7402 Y93.0934
G01 X136.3958 Y93.6916
G01 X136.0332 Y94.2719
G01 X135.6544 Y94.8367
G01 X135.2613 Y95.3885
G01 X134.8559 Y95.9296
G01 X134.44 Y96.4626
G01 X134.0108 Y96.9861
G01 X133.5655 Y97.4989
G01 X133.1012 Y97.9999
G01 X132.6152 Y98.4876
G01 X132.1087 Y98.9596
G01 X131.5832 Y99.4126
G01 X131.0398 Y99.8438
G01 X130.4801 Y100.2506
G01 X129.8905 Y100.6305
G01 X129.2574 Y100.9818
G01 X128.5672 Y101.3023
G01 X127.8064 Y101.59
G01 X126.9757 Y101.8419
G01 X126.0756 Y102.055
G01 X125.1068 Y102.2263
G01 X124.07 Y102.3528
G01 X122.9899 Y102.4136
G01 X121.8908 Y102.3882
G01 X120.7967 Y102.2556
G01 X119.7311 Y101.9951
G01 X118.6997 Y101.6265
G01 X117.7077 Y101.1695
G01 X116.7609 Y100.6439
G01 X115.8649 Y100.0691
G01 X115.0291 Y99.4534
G01 X114.2629 Y98.8047
G01 X113.576 Y98.1316
G01 X112.9784 Y97.4424
G01 X112.4798 Y96.7326
G01 X112.0897 Y95.9976
G01 X111.8179 Y95.2326
G01 X111.674 Y94.4331
G01 X111.6373 Y93.6056
G01 X111.6867 Y92.7573
G01 X111.8011 Y91.895
G01 X111.9593 Y91.0259
G01 X112.1661 Y90.1569
G01 X112.426 Y89.2944
G01 X112.7438 Y88.4454
G01 X113.1241 Y87.6167
G01 X113.5555 Y86.8031
G01 X114.0263 Y85.9994
G01 X114.5249 Y85.2006
G01 X115.0397 Y84.4012
G01 X115.5724 Y83.6059
G01 X116.1249 Y82.8191
G01 X116.699 Y82.0453
G01 X117.2965 Y81.2893
G01 X117.9126 Y80.5503
G01 X118.5424 Y79.8278
G01 X119.1812 Y79.1211
G01 X119.824 Y78.4296
G01 X120.4788 Y77.7634
G01 X121.1539 Y77.1323
G01 X121.8571 Y76.5461
G01 X122.5669 Y76.0358
G00 Z3.0
G00 X121.5199 Y74.6375
G00 Z1.0
G01 Z-0.1 F50.0
G01 X121.5251 Y74.6335 F250.0
G01 X121.6406 Y74.5468
G01 X121.6687 Y74.5258
G01 X121.6969 Y74.505
G01 X121.7251 Y74.484
G01 X121.7533 Y74.463
G01 X122.5849 Y73.9213
G01 X123.4432 Y73.4312
G01 X124.3172 Y72.9916
G01 X125.1961 Y72.6016
G01 X126.0879 Y72.2885
G01 X127.0004 Y72.0795
G01 X127.9416 Y72.0017
G01 X128.9192 Y72.0818
G01 X129.9188 Y72.3039
G01 X130.9255 Y72.6526
G01 X131.925 Y73.1122
G01 X132.9029 Y73.6676
G01 X133.8556 Y74.3128
G01 X134.7793 Y75.0423
G01 X135.6532 Y75.8345
G01 X135.6708 Y75.8504
G01 X136.4923 Y76.6969
G01 X136.5265 Y76.7322
G01 X137.2843 Y77.6363
G01 X137.3236 Y77.6832
G01 X138.0025 Y78.6478
G01 X138.0388 Y78.6993
G01 X138.6201 Y79.7257
G01 X138.649 Y79.7768
G01 X139.1101 Y80.8625
G01 X139.131 Y80.912
G01 X139.4869 Y82.0366
G01 X139.4998 Y82.0777
G01 X139.7657 Y83.227
G01 X139.7702 Y83.2463
G01 X139.9565 Y84.3895
G01 X140.0731 Y85.4785
G01 X140.1229 Y86.5108
G01 X140.1084 Y87.4833
G01 X140.0322 Y88.3935
G01 X139.8973 Y89.2383
G01 X139.7075 Y90.0343
G01 X139.4668 Y90.7983
G01 X139.1796 Y91.5467
G01 X138.8498 Y92.2963
G01 X138.4874 Y93.0364
G01 X138.1026 Y93.7563
G01 X137.7055 Y94.4453
G01 X137.3062 Y95.0924
G01 X136.9017 Y95.7056
G01 X136.4893 Y96.2922
G01 X136.0661 Y96.8603
G01 X135.6289 Y97.4176
G01 X135.1712 Y97.9688
G01 X134.6862 Y98.5189
G01 X134.1672 Y99.0726
G01 X133.6077 Y99.6348
G01 X133.0153 Y100.1928
G01 X132.3978 Y100.734
G01 X131.7628 Y101.2459
G01 X131.118 Y101.7164
G01 X130.4461 Y102.1455
G01 X129.7302 Y102.5337
G01 X128.953 Y102.8814
G01 X128.0974 Y103.1889
G01 X127.1657 Y103.453
G01 X126.1596 Y103.6704
G01 X125.0813 Y103.8377
G01 X123.9325 Y103.9518
G01 X122.7535 Y103.9908
G01 X122.7369 Y103.9914
G01 X121.5585 Y103.9374
G01 X121.5178 Y103.9356
G01 X120.3499 Y103.7704
G01 X120.298 Y103.7631
G01 X119.156 Y103.4676
G01 X119.0992 Y103.453
G01 X117.9912 Y103.0483
G01 X117.9314 Y103.0263
G01 X116.8608 Y102.5309
G01 X116.8041 Y102.5047
G01 X115.772 Y101.9335
G01 X115.7277 Y101.9091
G01 X114.7336 Y101.2741
G01 X114.7123 Y101.2607
G01 X113.764 Y100.5612
G01 X112.8891 Y99.8125
G01 X112.094 Y99.0162
G01 X111.3856 Y98.1746
G01 X110.7822 Y97.2973
G01 X110.3028 Y96.3943
G01 X109.9662 Y95.4755
G01 X109.7917 Y94.5511
G01 X109.7513 Y93.6205
G01 X109.817 Y92.6827
G01 X109.9605 Y91.7371
G01 X110.1532 Y90.7833
G01 X110.3992 Y89.8312
G01 X110.7022 Y88.891
G01 X111.0661 Y87.9733
G01 X111.0799 Y87.942
G01 X111.0936 Y87.9108
G01 X111.1073 Y87.8795
G01 X111.1208 Y87.8484
G01 X111.5443 Y86.9779
G01 X112.0197 Y86.1299
G01 X112.5355 Y85.2936
G01 X113.0804 Y84.4584
G01 X113.643 Y83.6137
G01 X114.2244 Y82.7657
G01 X114.8256 Y81.9212
G01 X115.4477 Y81.0867
G01 X116.0917 Y80.2685
G01 X116.7509 Y79.4674
G01 X117.419 Y78.6841
G01 X118.0892 Y77.9193
G01 X118.7551 Y77.1736
G01 X119.4301 Y76.4554
G01 X120.1271 Y75.7727
G01 X120.8597 Y75.1338
G01 X120.8845 Y75.1147
G01 X120.9094 Y75.0956
G01 X120.9342 Y75.0764
G01 X120.9592 Y75.0573
G01 X121.5199 Y74.6375
G00 Z3.0
G00 X122.5393 Y76.0556
G00 Z0.9
G01 Z-0.2 F50.0
G01 X122.5963 Y76.0146 F250.0
G01 X123.3638 Y75.5352
G01 X124.1518 Y75.1052
G01 X124.9525 Y74.7215
G01 X125.7582 Y74.3818
G01 X126.5674 Y74.1083
G01 X127.3788 Y73.9234
G01 X128.1908 Y73.8493
G01 X129.0025 Y73.9082
G01 X129.816 Y74.089
G01 X130.6331 Y74.3815
G01 X131.456 Y74.7749
G01 X132.2867 Y75.2587
G01 X133.114 Y75.8259
G01 X133.9274 Y76.4693
G01 X134.7165 Y77.182
G01 X135.4708 Y77.9575
G01 X136.1701 Y78.7952
G01 X136.7938 Y79.6952
G01 X137.3216 Y80.6569
G01 X137.7328 Y81.6808
G01 X138.0415 Y82.7381
G01 X138.2618 Y83.8002
G01 X138.4075 Y84.8377
G01 X138.4923 Y85.8213
G01 X138.5191 Y86.7493
G01 X138.4906 Y87.6205
G01 X138.4093 Y88.4334
G01 X138.2782 Y89.1864
G01 X138.1027 Y89.8923
G01 X137.8884 Y90.5635
G01 X137.6405 Y91.2125
G01 X137.365 Y91.8519
G01 X137.0642 Y92.4796
G01 X136.7402 Y93.0934
G01 X136.3958 Y93.6916
G01 X136.0332 Y94.2719
G01 X135.6544 Y94.8367
G01 X135.2613 Y95.3885
G01 X134.8559 Y95.9296
G01 X134.44 Y96.4626
G01 X134.0108 Y96.9861
G01 X133.5655 Y97.4989
G01 X133.1012 Y97.9999
G01 X132.6152 Y98.4876
G01 X132.1087 Y98.9596
G01 X131.5832 Y99.4126
G01 X131.0398 Y99.8438
G01 X130.4801 Y100.2506
G01 X129.8905 Y100.6305
G01 X129.2574 Y100.9818
G01 X128.5672 Y101.3023
G01 X127.8064 Y101.59
G01 X126.9757 Y101.8419
G01 X126.0756 Y102.055
G01 X125.1068 Y102.2263
G01 X124.07 Y102.3528
G01 X122.9899 Y102.4136
G01 X121.8908 Y102.3882
G01 X120.7967 Y102.2556
G01 X119.7311 Y101.9951
G01 X118.6997 Y101.6265
G01 X117.7077 Y101.1695
G01 X116.7609 Y100.6439
G01 X115.8649 Y100.0691
G01 X115.0291 Y99.4534
G01 X114.2629 Y98.8047
G01 X113.576 Y98.1316
G01 X112.9784 Y97.4424
G01 X112.4798 Y96.7326
G01 X112.0897 Y95.9976
G01 X111.8179 Y95.2326
G01 X111.674 Y94.4331
G01 X111.6373 Y93.6056
G01 X111.6867 Y92.7573
G01 X111.8011 Y91.895
G01 X111.9593 Y91.0259
G01 X112.1661 Y90.1569
G01 X112.426 Y89.2944
G01 X112.7438 Y88.4454
G01 X113.1241 Y87.6167
G01 X113.5555 Y86.8031
G01 X114.0263 Y85.9994
G01 X114.5249 Y85.2006
G01 X115.0397 Y84.4012
G01 X115.5724 Y83.6059
G01 X116.1249 Y82.8191
G01 X116.699 Y82.0453
G01 X117.2965 Y81.2893
G01 X117.9126 Y80.5503
G01 X118.5424 Y79.8278
G01 X119.1812 Y79.1211
G01 X119.824 Y78.4296
G01 X120.4788 Y77.7634
G01 X121.1539 Y77.1323
G01 X121.8571 Y76.5461
G01 X122.5393 Y76.0556
G00 Z3.0
G00 X121.4926 Y74.6579
G00 Z0.9
G01 Z-0.2 F50.0
G01 X121.5251 Y74.6335 F250.0
G01 X121.6406 Y74.5468
G01 X121.6687 Y74.5258
G01 X121.6969 Y74.505
G01 X121.7251 Y74.484
G01 X121.7533 Y74.463
G01 X122.5849 Y73.9213
G01 X123.4432 Y73.4312
G01 X124.3172 Y72.9916
G01 X125.1961 Y72.6016
G01 X126.0879 Y72.2885
G01 X127.0004 Y72.0795
G01 X127.9416 Y72.0017
G01 X128.9192 Y72.0818
G01 X129.9188 Y72.3039
G01 X130.9255 Y72.6526
G01 X131.925 Y73.1122
G01 X132.9029 Y73.6676
G01 X133.8556 Y74.3128
G01 X134.7793 Y75.0423
G01 X135.6532 Y75.8345
G01 X135.6708 Y75.8504
G01 X136.4923 Y76.6969
G01 X136.5265 Y76.7322
G01 X137.2843 Y77.6363
G01 X137.3236 Y77.6832
G01 X138.0025 Y78.6478
G01 X138.0388 Y78.6993
G01 X138.6201 Y79.7257
G01 X138.649 Y79.7768
G01 X139.1101 Y80.8625
G01 X139.131 Y80.912
G01 X139.4869 Y82.0366
G01 X139.4998 Y82.0777
G01 X139.7657 Y83.227
G01 X139.7702 Y83.2463
G01 X139.9565 Y84.3895
G01 X140.0731 Y85.4785
G01 X140.1229 Y86.5108
G01 X140.1084 Y87.4833
G01 X140.0322 Y88.3935
G01 X139.8973 Y89.2383
G01 X139.7075 Y90.0343
G01 X139.4668 Y90.7983
G01 X139.1796 Y91.5467
G01 X138.8498 Y92.2963
G01 X138.4874 Y93.0364
G01 X138.1026 Y93.7563
G01 X137.7055 Y94.4453
G01 X137.3062 Y95.0924
G01 X136.9017 Y95.7056
G01 X136.4893 Y96.2922
G01 X136.0661 Y96.8603
G01 X135.6289 Y97.4176
G01 X135.1712 Y97.9688
G01 X134.6862 Y98.5189
G01 X134.1672 Y99.0726
G01 X133.6077 Y99.6348
G01 X133.0153 Y100.1928
G01 X132.3978 Y100.734
G01 X131.7628 Y101.2459
G01 X131.118 Y101.7164
G01 X130.4461 Y102.1455
G01 X129.7302 Y102.5337
G01 X128.953 Y102.8814
G01 X128.0974 Y103.1889
G01 X127.1657 Y103.453
G01 X126.1596 Y103.6704
G01 X125.0813 Y103.8377
G01 X123.9325 Y103.9518
G01 X122.7535 Y103.9908
G01 X122.7369 Y103.9914
G01 X121.5585 Y103.9374
G01 X121.5178 Y103.9356
G01 X120.3499 Y103.7704
G01 X120.298 Y103.7631
G01 X119.156 Y103.4676
G01 X119.0992 Y103.453
G01 X117.9912 Y103.0483
G01 X117.9314 Y103.0263
G01 X116.8608 Y102.5309
G01 X116.8041 Y102.5047
G01 X115.772 Y101.9335
G01 X115.7277 Y101.9091
G01 X114.7336 Y101.2741
G01 X114.7123 Y101.2607
G01 X113.764 Y100.5612
G01 X112.8891 Y99.8125
G01 X112.094 Y99.0162
G01 X111.3856 Y98.1746
G01 X110.7822 Y97.2973
G01 X110.3028 Y96.3943
G01 X109.9662 Y95.4755
G01 X109.7917 Y94.5511
G01 X109.7513 Y93.6205
G01 X109.817 Y92.6827
G01 X109.9605 Y91.7371
G01 X110.1532 Y90.7833
G01 X110.3992 Y89.8312
G01 X110.7022 Y88.891
G01 X111.0661 Y87.9733
G01 X111.0799 Y87.942
G01 X111.0936 Y87.9108
G01 X111.1073 Y87.8795
G01 X111.1208 Y87.8484
G01 X111.5443 Y86.9779
G01 X112.0197 Y86.1299
G01 X112.5355 Y85.2936
G01 X113.0804 Y84.4584
G01 X113.643 Y83.6137
G01 X114.2244 Y82.7657
G01 X114.8256 Y81.9212
G01 X115.4477 Y81.0867
G01 X116.0917 Y80.2685
G01 X116.7509 Y79.4674
G01 X117.419 Y78.6841
G01 X118.0892 Y77.9193
G01 X118.7551 Y77.1736
G01 X119.4301 Y76.4554
G01 X120.1271 Y75.7727
G01 X120.8597 Y75.1338
G01 X120.8845 Y75.1147
G01 X120.9094 Y75.0956
G01 X120.9342 Y75.0764
G01 X120.9592 Y75.0573
G01 X121.4926 Y74.6579
G00 Z3.0
G00 X122.5117 Y76.0755
G00 Z0.8
G01 Z-0.3 F50.0
G01 X122.5963 Y76.0146 F250.0
G01 X123.3638 Y75.5352
G01 X124.1518 Y75.1052
G01 X124.9525 Y74.7215
G01 X125.7582 Y74.3818
G01 X126.5674 Y74.1083
G01 X127.3788 Y73.9234
G01 X128.1908 Y73.8493
G01 X129.0025 Y73.9082
G01 X129.816 Y74.089
G01 X130.6331 Y74.3815
G01 X131.456 Y74.7749
G01 X132.2867 Y75.2587
G01 X133.114 Y75.8259
G01 X133.9274 Y76.4693
G01 X134.7165 Y77.182
G01 X135.4708 Y77.9575
G01 X136.1701 Y78.7952
G01 X136.7938 Y79.6952
G01 X137.3216 Y80.6569
G01 X137.7328 Y81.6808
G01 X138.0415 Y82.7381
G01 X138.2618 Y83.8002
G01 X138.4075 Y84.8377
G01 X138.4923 Y85.8213
G01 X138.5191 Y86.7493
G01 X138.4906 Y87.6205
G01 X138.4093 Y88.4334
G01 X138.2782 Y89.1864
G01 X138.1027 Y89.8923
G01 X137.8884 Y90.5635
G01 X137.6405 Y91.2125
G01 X137.365 Y91.8519
G01 X137.0642 Y92.4796
G01 X136.7402 Y93.0934
G01 X136.3958 Y93.6916
G01 X136.0332 Y94.2719
G01 X135.6544 Y94.8367
G01 X135.2613 Y95.3885
G01 X134.8559 Y95.9296
G01 X134.44 Y96.4626
G01 X134.0108 Y96.9861
G01 X133.5655 Y97.4989
G01 X133.1012 Y97.9999
G01 X132.6152 Y98.4876
G01 X132.1087 Y98.9596
G01 X131.5832 Y99.4126
G01 X131.0398 Y99.8438
G01 X130.4801 Y100.2506
G01 X129.8905 Y100.6305
G01 X129.2574 Y100.9818
G01 X128.5672 Y101.3023
G01 X127.8064 Y101.59
G01 X126.9757 Y101.8419
G01 X126.0756 Y102.055
G01 X125.1068 Y102.2263
G01 X124.07 Y102.3528
G01 X122.9899 Y102.4136
G01 X121.8908 Y102.3882
G01 X120.7967 Y102.2556
G01 X119.7311 Y101.9951
G01 X118.6997 Y101.6265
G01 X117.7077 Y101.1695
G01 X116.7609 Y100.6439
G01 X115.8649 Y100.0691
G01 X115.0291 Y99.4534
G01 X114.2629 Y98.8047
G01 X113.576 Y98.1316
G01 X112.9784 Y97.4424
G01 X112.4798 Y96.7326
G01 X112.0897 Y95.9976
G01 X111.8179 Y95.2326
G01 X111.674 Y94.4331
G01 X111.6373 Y93.6056
G01 X111.6867 Y92.7573
G01 X111.8011 Y91.895
G01 X111.9593 Y91.0259
G01 X112.1661 Y90.1569
G01 X112.426 Y89.2944
G01 X112.7438 Y88.4454
G01 X113.1241 Y87.6167
G01 X113.5555 Y86.8031
G01 X114.0263 Y85.9994
G01 X114.5249 Y85.2006
G01 X115.0397 Y84.4012
G01 X115.5724 Y83.6059
G01 X116.1249 Y82.8191
G01 X116.699 Y82.0453
G01 X117.2965 Y81.2893
G01 X117.9126 Y80.5503
G01 X118.5424 Y79.8278
G01 X119.1812 Y79.1211
G01 X119.824 Y78.4296
G01 X120.4788 Y77.7634
G01 X121.1539 Y77.1323
G01 X121.8571 Y76.5461
G01 X122.5117 Y76.0755
G00 Z3.0
G00 X121.4654 Y74.6782
G00 Z0.8
G01 Z-0.3 F50.0
G01 X121.5251 Y74.6335 F250.0
G01 X121.6406 Y74.5468
G01 X121.6687 Y74.5258
G01 X121.6969 Y74.505
G01 X121.7251 Y74.484
G01 X121.7533 Y74.463
G01 X122.5849 Y73.9213
G01 X123.4432 Y73.4312
G01 X124.3172 Y72.9916
G01 X125.1961 Y72.6016
G01 X126.0879 Y72.2885
G01 X127.0004 Y72.0795
G01 X127.9416 Y72.0017
G01 X128.9192 Y72.0818
G01 X129.9188 Y72.3039
G01 X130.9255 Y72.6526
G01 X131.925 Y73.1122
G01 X132.9029 Y73.6676
G01 X133.8556 Y74.3128
G01 X134.7793 Y75.0423
G01 X135.6532 Y75.8345
G01 X135.6708 Y75.8504
G01 X136.4923 Y76.6969
G01 X136.5265 Y76.7322
G01 X137.2843 Y77.6363
G01 X137.3236 Y77.6832
G01 X138.0025 Y78.6478
G01 X138.0388 Y78.6993
G01 X138.6201 Y79.7257
G01 X138.649 Y79.7768
G01 X139.1101 Y80.8625
G01 X139.131 Y80.912
G01 X139.4869 Y82.0366
G01 X139.4998 Y82.0777
G01 X139.7657 Y83.227
G01 X139.7702 Y83.2463
G01 X139.9565 Y84.3895
G01 X140.0731 Y85.4785
G01 X140.1229 Y86.5108
G01 X140.1084 Y87.4833
G01 X140.0322 Y88.3935
G01 X139.8973 Y89.2383
G01 X139.7075 Y90.0343
G01 X139.4668 Y90.7983
G01 X139.1796 Y91.5467
G01 X138.8498 Y92.2963
G01 X138.4874 Y93.0364
G01 X138.1026 Y93.7563
G01 X137.7055 Y94.4453
G01 X137.3062 Y95.0924
G01 X136.9017 Y95.7056
G01 X136.4893 Y96.2922
G01 X136.0661 Y96.8603
G01 X135.6289 Y97.4176
G01 X135.1712 Y97.9688
G01 X134.6862 Y98.5189
G01 X134.1672 Y99.0726
G01 X133.6077 Y99.6348
G01 X133.0153 Y100.1928
G01 X132.3978 Y100.734
G01 X131.7628 Y101.2459
G01 X131.118 Y101.7164
G01 X130.4461 Y102.1455
G01 X129.7302 Y102.5337
G01 X128.953 Y102.8814
G01 X128.0974 Y103.1889
G01 X127.1657 Y103.453
G01 X126.1596 Y103.6704
G01 X125.0813 Y103.8377
G01 X123.9325 Y103.9518
G01 X122.7535 Y103.9908
G01 X122.7369 Y103.9914
G01 X121.5585 Y103.9374
G01 X121.5178 Y103.9356
G01 X120.3499 Y103.7704
G01 X120.298 Y103.7631
G01 X119.156 Y103.4676
G01 X119.0992 Y103.453
G01 X117.9912 Y103.0483
G01 X117.9314 Y103.0263
G01 X116.8608 Y102.5309
G01 X116.8041 Y102.5047
G01 X115.772 Y101.9335
G01 X115.7277 Y101.9091
G01 X114.7336 Y101.2741
G01 X114.7123 Y101.2607
G01 X113.764 Y100.5612
G01 X112.8891 Y99.8125
G01 X112.094 Y99.0162
G01 X111.3856 Y98.1746
G01 X110.7822 Y97.2973
G01 X110.3028 Y96.3943
G01 X109.9662 Y95.4755
G01 X109.7917 Y94.5511
G01 X109.7513 Y93.6205
G01 X109.817 Y92.6827
G01 X109.9605 Y91.7371
G01 X110.1532 Y90.7833
G01 X110.3992 Y89.8312
G01 X110.7022 Y88.891
G01 X111.0661 Y87.9733
G01 X111.0799 Y87.942
G01 X111.0936 Y87.9108
G01 X111.1073 Y87.8795
G01 X111.1208 Y87.8484
G01 X111.5443 Y86.9779
G01 X112.0197 Y86.1299
G01 X112.5355 Y85.2936
G01 X113.0804 Y84.4584
G01 X113.643 Y83.6137
G01 X114.2244 Y82.7657
G01 X114.8256 Y81.9212
G01 X115.4477 Y81.0867
G01 X116.0917 Y80.2685
G01 X116.7509 Y79.4674
G01 X117.419 Y78.6841
G01 X118.0892 Y77.9193
G01 X118.7551 Y77.1736
G01 X119.4301 Y76.4554
G01 X120.1271 Y75.7727
G01 X120.8597 Y75.1338
G01 X120.8845 Y75.1147
G01 X120.9094 Y75.0956
G01 X120.9342 Y75.0764
G01 X120.9592 Y75.0573
G01 X121.4654 Y74.6782
G00 Z3.0
G00 X147.8776 Y103.5953
G00 Z1.0
G01 Z0.0 F50.0
G01 X148.4196 Y104.0131 F250.0
G01 X149.3058 Y105.5799
G01 X158.8994 Y113.2158
G01 X158.9036 Y113.2202
G01 X158.9069 Y113.2258
G01 X158.9091 Y113.2327
G01 X158.9104 Y113.2408
G01 Y113.25
G01 X158.9092 Y113.2605
G01 X158.9076 Y113.2721
G01 X158.9051 Y113.2848
G01 X158.9016 Y113.2986
G01 X158.8971 Y113.3135
G01 X158.8918 Y113.3294
G01 X158.8854 Y113.3465
G01 X158.8782 Y113.3644
G01 X158.8695 Y113.3841
G01 X158.8591 Y113.4064
G01 X158.8462 Y113.432
G01 X158.8308 Y113.4615
G01 X158.8128 Y113.4944
G01 X158.7928 Y113.5299
G01 X158.7711 Y113.5673
G01 X158.7479 Y113.6059
G01 X158.7239 Y113.6445
G01 X158.7 Y113.6823
G01 X158.6767 Y113.7182
G01 X158.6549 Y113.7511
G01 X158.6339 Y113.7819
G01 X158.6135 Y113.8112
G01 X158.5931 Y113.8398
G01 X158.5723 Y113.8685
G01 X158.5513 Y113.8971
G01 X158.53 Y113.9258
G01 X158.5084 Y113.9542
G01 X158.4866 Y113.9827
G01 X158.4646 Y114.0107
G01 X158.4426 Y114.0386
G01 X158.4205 Y114.0661
G01 X158.3983 Y114.0932
G01 X158.3754 Y114.1206
G01 X158.3515 Y114.1486
G01 X158.3255 Y114.1782
G01 X158.2974 Y114.21
G01 X158.2674 Y114.2428
G01 X158.2367 Y114.2757
G01 X158.2059 Y114.3079
G01 X158.176 Y114.3383
G01 X158.1473 Y114.3666
G01 X158.1205 Y114.3921
G01 X158.0965 Y114.4145
G01 X158.0755 Y114.4332
G01 X158.0571 Y114.4487
G01 X158.0407 Y114.4619
G01 X158.0255 Y114.4733
G01 X158.0111 Y114.4834
G01 X157.9974 Y114.4925
G01 X157.9845 Y114.5003
G01 X157.9724 Y114.5069
G01 X157.961 Y114.5123
G01 X157.9507 Y114.5164
G01 X157.9411 Y114.5194
G01 X157.9324 Y114.521
G01 X157.9246 Y114.5215
G01 X157.9178 Y114.5207
G01 X157.9117 Y114.5186
G01 X157.9068 Y114.5153
G01 X148.0563 Y107.2171
G01 X146.3157 Y106.7672
G01 X145.7754 Y106.3525
G01 Z-0.1 F50.0
G01 X146.3157 Y106.7672 F250.0
G01 X148.0563 Y107.2171
G01 X157.9068 Y114.5153
G01 X157.9117 Y114.5186
G01 X157.9178 Y114.5207
G01 X157.9246 Y114.5215
G01 X157.9324 Y114.521
G01 X157.9411 Y114.5194
G01 X157.9507 Y114.5164
G01 X157.961 Y114.5123
G01 X157.9724 Y114.5069
G01 X157.9845 Y114.5003
G01 X157.9974 Y114.4925
G01 X158.0111 Y114.4834
G01 X158.0255 Y114.4733
G01 X158.0407 Y114.4619
G01 X158.0571 Y114.4487
G01 X158.0755 Y114.4332
G01 X158.0965 Y114.4145
G01 X158.1205 Y114.3921
G01 X158.1473 Y114.3666
G01 X158.176 Y114.3383
G01 X158.2059 Y114.3079
G01 X158.2367 Y114.2757
G01 X158.2674 Y114.2428
G01 X158.2974 Y114.21
G01 X158.3255 Y114.1782
G01 X158.3515 Y114.1486
G01 X158.3754 Y114.1206
G01 X158.3983 Y114.0932
G01 X158.4205 Y114.0661
G01 X158.4426 Y114.0386
G01 X158.4646 Y114.0107
G01 X158.4866 Y113.9827
G01 X158.5084 Y113.9542
G01 X158.53 Y113.9258
G01 X158.5513 Y113.8971
G01 X158.5723 Y113.8685
G01 X158.5931 Y113.8398
G01 X158.6135 Y113.8112
G01 X158.6339 Y113.7819
G01 X158.6549 Y113.7511
G01 X158.6767 Y113.7182
G01 X158.7 Y113.6823
G01 X158.7239 Y113.6445
G01 X158.7479 Y113.6059
G01 X158.7711 Y113.5673
G01 X158.7928 Y113.5299
G01 X158.8128 Y113.4944
G01 X158.8308 Y113.4615
G01 X158.8462 Y113.432
G01 X158.8591 Y113.4064
G01 X158.8695 Y113.3841
G01 X158.8782 Y113.3644
G01 X158.8854 Y113.3465
G01 X158.8918 Y113.3294
G01 X158.8971 Y113.3135
G01 X158.9016 Y113.2986
G01 X158.9051 Y113.2848
G01 X158.9076 Y113.2721
G01 X158.9092 Y113.2605
G01 X158.9104 Y113.25
G01 Y113.2408
G01 X158.9091 Y113.2327
G01 X158.9069 Y113.2258
G01 X158.9036 Y113.2202
G01 X158.8994 Y113.2158
G01 X149.3058 Y105.5799
G01 X148.4196 Y104.0131
G01 X147.8776 Y103.5953
G00 Z3.0
G00 X113.0908 Y53.9519
G00 Z1.0
G01 Z-0.1 F50.0
G01 X112.6016 Y53.717 F250.0
G01 X111.5383 Y53.2062
G01 X112.6032 Y53.7137
G01 X113.1197 Y53.9598
G01 X114.1777 Y54.4817
G01 X115.2356 Y55.0035
G01 X115.2724 Y55.0216
G01 X116.3167 Y55.57
G01 X117.3612 Y56.1185
G01 X117.4329 Y56.1562
G01 X118.4569 Y56.7417
G01 X119.4808 Y57.3274
G01 X119.6016 Y57.3964
G01 X120.5982 Y58.0275
G01 X121.5948 Y58.6587
G01 X121.7781 Y58.7748
G01 X121.8015 Y58.7906
G01 X122.7735 Y59.459
G01 X123.7455 Y60.1274
G01 X123.9392 Y60.2606
G01 X124.8869 Y60.963
G01 X125.8345 Y61.6655
G01 X126.001 Y61.7889
G01 X126.9244 Y62.523
G01 X127.8479 Y63.2569
G01 X127.946 Y63.335
G01 X128.8441 Y64.0999
G01 X129.7342 Y64.858
G01 X130.6077 Y65.6507
G01 X131.352 Y66.3261
G01 X132.2015 Y67.1444
G01 X132.7857 Y67.7068
G01 X133.6114 Y68.5493
G01 X134.0219 Y68.9681
G01 X134.8225 Y69.8344
G01 X135.0471 Y70.0775
G01 X135.8198 Y70.9689
G01 X135.9121 Y71.0756
G01 X136.6574 Y71.9899
G01 X136.6677 Y72.0026
G01 X137.3648 Y72.8991
G01 X138.0547 Y73.8059
G01 X138.0757 Y73.8342
G01 X138.7535 Y74.7508
G01 X139.412 Y75.6727
G01 X140.0449 Y76.5973
G01 X140.6464 Y77.5223
G01 X141.2268 Y78.4621
G01 X141.7966 Y79.4311
G01 X142.3659 Y80.4434
G01 X142.9274 Y81.4808
G01 X142.9452 Y81.5137
G01 X143.4748 Y82.5678
G01 X143.5398 Y82.6971
G01 X144.0283 Y83.7709
G01 X144.1549 Y84.0491
G01 X144.5992 Y85.1417
G01 X144.7956 Y85.6247
G01 X145.1973 Y86.7339
G01 X145.4673 Y87.4795
G01 X145.8226 Y88.6044
G01 X146.1216 Y89.5514
G01 X146.4234 Y90.6919
G01 X146.7108 Y91.7784
G01 X146.9477 Y92.9341
G01 X147.1864 Y94.0983
G01 X147.1969 Y94.1494
G01 X147.3527 Y95.3187
G01 X147.5091 Y96.4922
G01 X147.604 Y97.668
G01 X147.6997 Y98.8558
G01 X147.754 Y100.0342
G01 X147.8092 Y101.2326
G01 X147.8434 Y102.4116
G01 X147.8776 Y103.5953
G01 Y103.615
G01 X147.8782
G01 Y103.6297
G01 X147.8763 Y103.6472
G01 X147.8724 Y103.667
G01 X147.8665 Y103.6894
G01 X147.8586 Y103.7142
G01 X147.8487 Y103.7414
G01 X147.8368 Y103.771
G01 X147.8229 Y103.8028
G01 X147.8071 Y103.8369
G01 X147.7894 Y103.8731
G01 X147.7689 Y103.9131
G01 X147.7442 Y103.9585
G01 X147.7147 Y104.0106
G01 X147.6792 Y104.0714
G01 X147.6385 Y104.1392
G01 X147.5935 Y104.2124
G01 X147.5447 Y104.2899
G01 X147.4932 Y104.37
G01 X147.4402 Y104.4506
G01 X147.3876 Y104.5294
G01 X147.3367 Y104.6046
G01 X147.2889 Y104.6737
G01 X147.2434 Y104.7383
G01 X147.1991 Y104.8001
G01 X147.1552 Y104.8605
G01 X147.1108 Y104.9212
G01 X147.0656 Y104.9819
G01 X147.02 Y105.0427
G01 X146.974 Y105.1032
G01 X146.9277 Y105.1635
G01 X146.8812 Y105.2234
G01 X146.8345 Y105.2828
G01 X146.7878 Y105.3416
G01 X146.7412 Y105.3996
G01 X146.6933 Y105.4582
G01 X146.6432 Y105.5189
G01 X146.5894 Y105.5827
G01 X146.5307 Y105.6511
G01 X146.4689 Y105.7221
G01 X146.4056 Y105.7937
G01 X146.3425 Y105.8638
G01 X146.2813 Y105.9303
G01 X146.223 Y105.9923
G01 X146.169 Y106.0485
G01 X146.1204 Y106.0978
G01 X146.0784 Y106.1392
G01 X146.0417 Y106.174
G01 X146.0091 Y106.2036
G01 X145.9794 Y106.2295
G01 X145.9513 Y106.253
G01 X145.9248 Y106.2738
G01 X145.9001 Y106.2922
G01 X145.8771 Y106.3082
G01 X145.8559 Y106.3214
G01 X145.8365 Y106.3321
G01 X145.8191 Y106.3402
G01 X145.8034 Y106.3457
G01 X145.8036
G01 X145.7755 Y106.3525
G01 X144.6287 Y106.6285
G01 X143.5025 Y106.8997
G01 X142.351 Y107.1561
G01 X141.1943 Y107.4135
G01 X141.1549 Y107.4215
G01 X139.9953 Y107.6377
G01 X138.8256 Y107.8558
G01 X137.6562 Y108.0111
G01 X136.4841 Y108.1668
G01 X135.3068 Y108.2398
G01 X134.1278 Y108.3129
G01 X132.9482 Y108.3189
G01 X131.8296 Y108.3246
G01 X131.7723 Y108.3227
G01 X130.5937 Y108.2725
G01 X129.6027 Y108.2302
G01 X128.4272 Y108.131
G01 X127.6379 Y108.0643
G01 X126.4673 Y107.9193
G01 X125.9505 Y107.8552
G01 X124.7867 Y107.6624
G01 X124.4855 Y107.6125
G01 X123.3301 Y107.3745
G01 X123.1884 Y107.3454
G01 X122.0408 Y107.0722
G01 X122.0045 Y107.0635
G01 X120.879 Y106.7762
G01 X119.7954 Y106.4773
G01 X118.737 Y106.1602
G01 X117.6873 Y105.8189
G01 X116.6298 Y105.4469
G01 X115.5685 Y105.0495
G01 X114.5071 Y104.6317
G01 X113.4497 Y104.1989
G01 X112.4 Y103.7561
G01 X111.3241 Y103.2726
G01 X111.3057 Y103.2644
G01 X110.2449 Y102.7485
G01 X110.114 Y102.6848
G01 X109.0702 Y102.1353
G01 X108.7725 Y101.9785
G01 X107.7454 Y101.3985
G01 X107.2288 Y101.1067
G01 X106.2189 Y100.4971
G01 X105.5179 Y100.0741
G01 X104.5265 Y99.4347
G01 X103.6745 Y98.8853
G01 X102.7037 Y98.215
G01 X101.7332 Y97.545
G01 X100.7858 Y96.8422
G01 X99.8385 Y96.1392
G01 X99.729 Y96.0581
G01 X98.8057 Y95.3239
G01 X97.8823 Y94.5897
G01 X97.7111 Y94.4536
G01 X96.8142 Y93.6874
G01 X95.9172 Y92.9213
G01 X95.7293 Y92.7608
G01 X94.8628 Y91.9603
G01 X93.9963 Y91.1599
G01 X93.8329 Y91.0089
G01 X93.0035 Y90.1702
G01 X92.1741 Y89.3314
G01 X92.0716 Y89.2277
G01 X91.2729 Y88.3596
G01 X90.4743 Y87.4914
G01 X90.414 Y87.4261
G01 X89.6378 Y86.5378
G01 X88.8615 Y85.6497
G01 X88.8288 Y85.6123
G01 X88.5726 Y85.3111
G01 X87.8063 Y84.4144
G01 X87.2861 Y83.8057
G01 X86.5217 Y82.9073
G01 X85.7889 Y82.0461
G01 X85.0304 Y81.1427
G01 X84.3417 Y80.3225
G01 X83.5933 Y79.4108
G01 X83.1796 Y78.9066
G01 X70.4508 Y60.949
G01 X70.3563 Y60.8118
G01 X70.304 Y60.7357
G01 X70.258 Y60.6688
G01 X70.2119 Y60.6019
G01 X70.171 Y60.5292
G01 X70.1303 Y60.4436
G01 X70.1049 Y60.3384
G01 X70.0962 Y60.2118
G01 X70.1052 Y60.0624
G01 X70.1317 Y59.8894
G01 X70.176 Y59.6928
G01 X70.2379 Y59.4743
G01 X70.317 Y59.2358
G01 X70.4123 Y58.9805
G01 X70.5225 Y58.7115
G01 X70.6478 Y58.428
G01 X70.7887 Y58.1293
G01 X70.9449 Y57.8157
G01 X71.1155 Y57.4873
G01 X71.3007 Y57.1445
G01 X71.5004 Y56.7876
G01 X71.714 Y56.4179
G01 X71.9404 Y56.0367
G01 X72.1796 Y55.6443
G01 X72.4314 Y55.2415
G01 X72.4323 Y55.24
G01 X72.4314 Y55.2415
G01 Z-0.2 F50.0
G01 X72.4323 Y55.24 F250.0
G01 X72.4314 Y55.2415
G01 X72.1796 Y55.6443
G01 X71.9404 Y56.0367
G01 X71.714 Y56.4179
G01 X71.5004 Y56.7876
G01 X71.3007 Y57.1445
G01 X71.1155 Y57.4873
G01 X70.9449 Y57.8157
G01 X70.7887 Y58.1293
G01 X70.6478 Y58.428
G01 X70.5225 Y58.7115
G01 X70.4123 Y58.9805
G01 X70.317 Y59.2358
G01 X70.2379 Y59.4743
G01 X70.176 Y59.6928
G01 X70.1317 Y59.8894
G01 X70.1052 Y60.0624
G01 X70.0962 Y60.2118
G01 X70.1049 Y60.3384
G01 X70.1303 Y60.4436
G01 X70.171 Y60.5292
G01 X70.2119 Y60.6019
G01 X70.258 Y60.6688
G01 X70.304 Y60.7357
G01 X70.3563 Y60.8118
G01 X70.4508 Y60.949
G01 X83.1796 Y78.9066
G01 X83.5933 Y79.4108
G01 X84.3417 Y80.3225
G01 X85.0304 Y81.1427
G01 X85.7889 Y82.0461
G01 X86.5217 Y82.9073
G01 X87.2861 Y83.8057
G01 X87.8063 Y84.4144
G01 X88.5726 Y85.3111
G01 X88.8288 Y85.6123
G01 X88.8615 Y85.6497
G01 X89.6378 Y86.5378
G01 X90.414 Y87.4261
G01 X90.4743 Y87.4914
G01 X91.2729 Y88.3596
G01 X92.0716 Y89.2277
G01 X92.1741 Y89.3314
G01 X93.0035 Y90.1702
G01 X93.8329 Y91.0089
G01 X93.9963 Y91.1599
G01 X94.8628 Y91.9603
G01 X95.7293 Y92.7608
G01 X95.9172 Y92.9213
G01 X96.8142 Y93.6874
G01 X97.7111 Y94.4536
G01 X97.8823 Y94.5897
G01 X98.8057 Y95.3239
G01 X99.729 Y96.0581
G01 X99.8385 Y96.1392
G01 X100.7858 Y96.8422
G01 X101.7332 Y97.545
G01 X102.7037 Y98.215
G01 X103.6745 Y98.8853
G01 X104.5265 Y99.4347
G01 X105.5179 Y100.0741
G01 X106.2189 Y100.4971
G01 X107.2288 Y101.1067
G01 X107.7454 Y101.3985
G01 X108.7725 Y101.9785
G01 X109.0702 Y102.1353
G01 X110.114 Y102.6848
G01 X110.2449 Y102.7485
G01 X111.3057 Y103.2644
G01 X111.3241 Y103.2726
G01 X112.4 Y103.7561
G01 X113.4497 Y104.1989
G01 X114.5071 Y104.6317
G01 X115.5685 Y105.0495
G01 X116.6298 Y105.4469
G01 X117.6873 Y105.8189
G01 X118.737 Y106.1602
G01 X119.7954 Y106.4773
G01 X120.879 Y106.7762
G01 X122.0045 Y107.0635
G01 X122.0408 Y107.0722
G01 X123.1884 Y107.3454
G01 X123.3301 Y107.3745
G01 X124.4855 Y107.6125
G01 X124.7867 Y107.6624
G01 X125.9505 Y107.8552
G01 X126.4673 Y107.9193
G01 X127.6379 Y108.0643
G01 X128.4272 Y108.131
G01 X129.6027 Y108.2302
G01 X130.5937 Y108.2725
G01 X131.7723 Y108.3227
G01 X131.8296 Y108.3246
G01 X132.9482 Y108.3189
G01 X134.1278 Y108.3129
G01 X135.3068 Y108.2398
G01 X136.4841 Y108.1668
G01 X137.6562 Y108.0111
G01 X138.8256 Y107.8558
G01 X139.9953 Y107.6377
G01 X141.1549 Y107.4215
G01 X141.1943 Y107.4135
G01 X142.351 Y107.1561
G01 X143.5025 Y106.8997
G01 X144.6287 Y106.6285
G01 X145.7755 Y106.3525
G01 X145.8036 Y106.3457
G01 X145.8034
G01 X145.8191 Y106.3402
G01 X145.8365 Y106.3321
G01 X145.8559 Y106.3214
G01 X145.8771 Y106.3082
G01 X145.9001 Y106.2922
G01 X145.9248 Y106.2738
G01 X145.9513 Y106.253
G01 X145.9794 Y106.2295
G01 X146.0091 Y106.2036
G01 X146.0417 Y106.174
G01 X146.0784 Y106.1392
G01 X146.1204 Y106.0978
G01 X146.169 Y106.0485
G01 X146.223 Y105.9923
G01 X146.2813 Y105.9303
G01 X146.3425 Y105.8638
G01 X146.4056 Y105.7937
G01 X146.4689 Y105.7221
G01 X146.5307 Y105.6511
G01 X146.5894 Y105.5827
G01 X146.6432 Y105.5189
G01 X146.6933 Y105.4582
G01 X146.7412 Y105.3996
G01 X146.7878 Y105.3416
G01 X146.8345 Y105.2828
G01 X146.8812 Y105.2234
G01 X146.9277 Y105.1635
G01 X146.974 Y105.1032
G01 X147.02 Y105.0427
G01 X147.0656 Y104.9819
G01 X147.1108 Y104.9212
G01 X147.1552 Y104.8605
G01 X147.1991 Y104.8001
G01 X147.2434 Y104.7383
G01 X147.2889 Y104.6737
G01 X147.3367 Y104.6046
G01 X147.3876 Y104.5294
G01 X147.4402 Y104.4506
G01 X147.4932 Y104.37
G01 X147.5447 Y104.2899
G01 X147.5935 Y104.2124
G01 X147.6385 Y104.1392
G01 X147.6792 Y104.0714
G01 X147.7147 Y104.0106
G01 X147.7442 Y103.9585
G01 X147.7689 Y103.9131
G01 X147.7894 Y103.8731
G01 X147.8071 Y103.8369
G01 X147.8229 Y103.8028
G01 X147.8368 Y103.771
G01 X147.8487 Y103.7414
G01 X147.8586 Y103.7142
G01 X147.8665 Y103.6894
G01 X147.8724 Y103.667
G01 X147.8763 Y103.6472
G01 X147.8782 Y103.6297
G01 Y103.615
G01 X147.8776
G01 Y103.5953
G01 X147.8434 Y102.4116
G01 X147.8092 Y101.2326
G01 X147.754 Y100.0342
G01 X147.6997 Y98.8558
G01 X147.604 Y97.668
G01 X147.5091 Y96.4922
G01 X147.3527 Y95.3187
G01 X147.1969 Y94.1494
G01 X147.1864 Y94.0983
G01 X146.9477 Y92.9341
G01 X146.7108 Y91.7784
G01 X146.4234 Y90.6919
G01 X146.1216 Y89.5514
G01 X145.8226 Y88.6044
G01 X145.4673 Y87.4795
G01 X145.1973 Y86.7339
G01 X144.7956 Y85.6247
G01 X144.5992 Y85.1417
G01 X144.1549 Y84.0491
G01 X144.0283 Y83.7709
G01 X143.5398 Y82.6971
G01 X143.4748 Y82.5678
G01 X142.9452 Y81.5137
G01 X142.9274 Y81.4808
G01 X142.3659 Y80.4434
G01 X141.7966 Y79.4311
G01 X141.2268 Y78.4621
G01 X140.6464 Y77.5223
G01 X140.0449 Y76.5973
G01 X139.412 Y75.6727
G01 X138.7535 Y74.7508
G01 X138.0757 Y73.8342
G01 X138.0547 Y73.8059
G01 X137.3648 Y72.8991
G01 X136.6677 Y72.0026
G01 X136.6574 Y71.9899
G01 X135.9121 Y71.0756
G01 X135.8198 Y70.9689
G01 X135.0471 Y70.0775
G01 X134.8225 Y69.8344
G01 X134.0219 Y68.9681
G01 X133.6114 Y68.5493
G01 X132.7857 Y67.7068
G01 X132.2015 Y67.1444
G01 X131.352 Y66.3261
G01 X130.6077 Y65.6507
G01 X129.7342 Y64.858
G01 X128.8441 Y64.0999
G01 X127.946 Y63.335
G01 X127.8479 Y63.2569
G01 X126.9244 Y62.523
G01 X126.001 Y61.7889
G01 X125.8345 Y61.6655
G01 X124.8869 Y60.963
G01 X123.9392 Y60.2606
G01 X123.7455 Y60.1274
G01 X122.7735 Y59.459
G01 X121.8015 Y58.7906
G01 X121.7781 Y58.7748
G01 X121.5948 Y58.6587
G01 X120.5982 Y58.0275
G01 X119.6016 Y57.3964
G01 X119.4808 Y57.3274
G01 X118.4569 Y56.7417
G01 X117.4329 Y56.1562
G01 X117.3612 Y56.1185
G01 X116.3167 Y55.57
G01 X115.2724 Y55.0216
G01 X115.2356 Y55.0035
G01 X114.1777 Y54.4817
G01 X113.1197 Y53.9598
G01 X112.6032 Y53.7137
G01 X111.5383 Y53.2062
G01 X112.6016 Y53.717
G01 X113.0908 Y53.9519
G00 Z3.0
G00 X111.5383 Y53.2062
G00 Z0.8
G01 Z-0.2 F50.0
G01 X110.9832 Y52.9396 F250.0
G01 X109.9694 Y52.4558
G01 X108.9048 Y51.9478
G01 X107.9407 Y51.4957
G01 X106.8726 Y50.995
G01 X106.4085 Y50.7838
G01 X105.3347 Y50.2953
G01 X84.7003 Y42.6023
G01 X84.4517 Y42.5137
G01 X84.3649 Y42.4827
G01 X84.2885 Y42.4555
G01 X84.212 Y42.4282
G01 X84.1311 Y42.4073
G01 X84.038 Y42.39
G01 X83.9299 Y42.3925
G01 X83.8063 Y42.4156
G01 X83.6674 Y42.4602
G01 X83.5133 Y42.5254
G01 X83.3452 Y42.6106
G01 X83.1616 Y42.7176
G01 X82.961 Y42.8478
G01 X82.7432 Y43.0017
G01 X82.5072 Y43.1795
G01 X82.2561 Y43.3796
G01 X81.9919 Y43.6004
G01 X81.7181 Y43.8388
G01 X81.4379 Y44.0918
G01 X81.1509 Y44.3602
G01 X80.856 Y44.6448
G01 X80.5534 Y44.9453
G01 X80.2427 Y45.2611
G01 X79.9247 Y45.592
G01 X79.5997 Y45.9378
G01 X79.3484 Y46.2108
G01 X47.3564 Y25.0068
G01 X47.101 Y24.9981
G01 X46.7511 Y25.1099
G01 X46.2858 Y25.3703
G01 X45.7536 Y25.759
G01 X45.2046 Y26.2551
G01 X44.6897 Y26.8366
G01 X44.2606 Y27.48
G01 X43.9254 Y28.1312
G01 X43.6918 Y28.7361
G01 X43.5661 Y29.2427
G01 X43.5548 Y29.5996
G01 X43.6359 Y29.8346
G01 X43.7922 Y29.9766
G01 X43.9308 Y30.1026
G01 X72.4323 Y55.24
G01 X72.6988 Y55.4613
G01 X73.6062 Y56.215
G01 X73.8771 Y56.4414
G01 X74.7824 Y57.1977
G01 X75.4638 Y57.7668
G01 X75.5438 Y57.8327
G01 X76.4552 Y58.5817
G01 X77.3664 Y59.3307
G01 X78.2777 Y60.0797
G01 X79.1731 Y60.807
G01 X80.0889 Y61.5506
G01 X81.0046 Y62.2942
G01 X81.8328 Y62.9626
G01 X82.7509 Y63.7034
G01 X83.6689 Y64.4442
G01 X84.6389 Y65.1154
G01 X85.5548 Y65.7491
G01 X86.601 Y66.2941
G01 X87.449 Y66.736
G01 X88.5736 Y67.0922
G01 X89.2911 Y67.3195
G01 X90.469 Y67.3837
G01 X91.0189 Y67.4138
G01 X92.1715 Y67.1626
G01 X92.5779 Y67.0742
G01 X93.6175 Y66.5167
G01 X93.913 Y66.3583
G01 X94.7567 Y65.5337
G01 X94.9702 Y65.3251
G01 X95.5484 Y64.297
G01 X95.6954 Y64.0356
G01 X95.9662 Y62.8875
G01 X96.0441 Y62.5573
G01 X95.9918 Y61.3787
G01 X95.9732 Y60.9583
G01 X95.6116 Y59.8354
G01 X95.4413 Y59.3065
G01 X94.8121 Y58.3086
G01 X94.4089 Y57.6692
G01 X93.6173 Y56.7946
G01 X92.9745 Y56.0847
G01 X92.08 Y55.3157
G01 X91.2356 Y54.5899
G01 X90.3699 Y53.9712
G01 X89.4101 Y53.2853
G01 X88.4504 Y52.5995
G01 X87.5105 Y51.9314
G01 X86.549 Y51.248
G01 X85.5875 Y50.5647
G01 X85.5028 Y50.5051
G01 X84.5379 Y49.8264
G01 X83.5731 Y49.1477
G01 X82.6083 Y48.4691
G01 X81.9146 Y47.9881
G01 X81.4166 Y47.6428
G01 X80.4471 Y46.9708
G01 X79.4777 Y46.2988
G01 X79.3484 Y46.2108
G01 Z-0.3 F50.0
G01 X79.5997 Y45.9378 F250.0
G01 X79.9247 Y45.592
G01 X80.2427 Y45.2611
G01 X80.5534 Y44.9453
G01 X80.856 Y44.6448
G01 X81.1509 Y44.3602
G01 X81.4379 Y44.0918
G01 X81.7181 Y43.8388
G01 X81.9919 Y43.6004
G01 X82.2561 Y43.3796
G01 X82.5072 Y43.1795
G01 X82.7432 Y43.0017
G01 X82.961 Y42.8478
G01 X83.1616 Y42.7176
G01 X83.3452 Y42.6106
G01 X83.5133 Y42.5254
G01 X83.6674 Y42.4602
G01 X83.8063 Y42.4156
G01 X83.9299 Y42.3925
G01 X84.038 Y42.39
G01 X84.1311 Y42.4073
G01 X84.212 Y42.4282
G01 X84.2885 Y42.4555
G01 X84.3649 Y42.4827
G01 X84.4517 Y42.5137
G01 X84.7003 Y42.6023
G01 X105.3347 Y50.2953
G01 X106.4085 Y50.7838
G01 X106.8726 Y50.995
G01 X107.9407 Y51.4957
G01 X108.9048 Y51.9478
G01 X109.9694 Y52.4558
G01 X110.9832 Y52.9396
G01 X111.5383 Y53.2062
G00 Z3.0
G00 X105.3347 Y50.2953
G00 Z0.7
G01 Z-0.3 F50.0
G01 X105.1419 Y49.7672 F250.0
G01 X104.8496 Y48.9926
G01 X104.4677 Y48.0429
G01 X104.0274 Y46.9484
G01 X103.5873 Y45.854
G01 X103.3644 Y45.2996
G01 X103.0193 Y44.5699
G01 X102.515 Y43.5036
G01 X102.0107 Y42.4371
G01 X101.6669 Y41.7183
G01 X101.4393 Y41.3313
G01 X100.8414 Y40.3144
G01 X100.2434 Y39.2976
G01 X99.6455 Y38.2808
G01 X99.3166 Y37.8441
G01 X98.6069 Y36.9017
G01 X97.8973 Y35.9594
G01 X97.1876 Y35.0171
G01 X96.7027 Y34.4885
G01 X95.9051 Y33.6194
G01 X95.1075 Y32.7502
G01 X94.3099 Y31.8812
G01 X93.6197 Y31.2393
G01 X92.756 Y30.4359
G01 X91.8922 Y29.6325
G01 X91.0285 Y28.8292
G01 X90.0957 Y28.0641
G01 X89.1837 Y27.3158
G01 X88.2717 Y26.5677
G01 X87.3596 Y25.8196
G01 X86.8438 Y25.4233
G01 X86.5498 Y25.2074
G01 X85.5991 Y24.5089
G01 X84.7735 Y23.9025
G01 X83.8229 Y23.2041
G01 X82.8722 Y22.5058
G01 X81.9126 Y21.8322
G01 X80.9446 Y21.1582
G01 X79.9765 Y20.4841
G01 X79.0085 Y19.81
G01 X78.4425 Y19.4322
G01 X77.4614 Y18.7771
G01 X76.4804 Y18.1222
G01 X75.4993 Y17.4672
G01 X74.5182 Y16.8122
G01 X73.8949 Y16.4045
G01 X72.9078 Y15.7587
G01 X71.9206 Y15.113
G01 X70.9335 Y14.4672
G01 X69.9463 Y13.8214
G01 X69.7018 Y13.8322
G01 X69.3862 Y13.9605
G01 X69.0409 Y14.1837
G01 X68.672 Y14.4843
G01 X68.2857 Y14.8442
G01 X67.8878 Y15.2456
G01 X67.4843 Y15.6706
G01 X67.0795 Y16.1204
G01 X66.678 Y16.5959
G01 X66.2842 Y17.0981
G01 X65.903 Y17.6276
G01 X65.5657 Y18.1442
G01 X65.3039 Y18.6075
G01 X65.1484 Y18.9774
G01 X65.1303 Y19.2143
G01 X65.2255 Y19.3313
G01 X65.5486 Y19.568
G01 X66.5003 Y20.265
G01 X67.4521 Y20.962
G01 X68.4038 Y21.659
G01 X68.6619 Y21.8549
G01 X69.6017 Y22.5679
G01 X70.5414 Y23.2808
G01 X71.4812 Y23.9938
G01 X71.6124 Y24.101
G01 X72.5259 Y24.8474
G01 X73.4392 Y25.5938
G01 X74.3527 Y26.3402
G01 X74.7976 Y26.7507
G01 X75.6646 Y27.5506
G01 X76.5315 Y28.3506
G01 X76.9476 Y28.7409
G01 X77.5148 Y29.3736
G01 X78.3023 Y30.2519
G01 X79.0897 Y31.1301
G01 X79.4157 Y31.57
G01 X80.1179 Y32.5179
G01 X80.82 Y33.4657
G01 X81.0083 Y33.7784
G01 X81.6165 Y34.7891
G01 X82.2248 Y35.7999
G01 X82.286 Y35.9281
G01 X82.7941 Y36.9927
G01 X83.3021 Y38.0574
G01 X83.678 Y39.0941
G01 X84.0801 Y40.2031
G01 X84.328 Y41.1279
G01 X84.6333 Y42.2673
G01 X84.7003 Y42.6023
G00 Z3.0
G00 X81.2743 Y47.5443
G00 Z0.8
G01 Z-0.3 F50.0
G01 X80.4471 Y46.9708 F250.0
G01 X79.4777 Y46.2988
G01 X79.3484 Y46.2108
G01 X47.3564 Y25.0068
G01 X47.101 Y24.9981
G01 X46.7511 Y25.1099
G01 X46.2858 Y25.3703
G01 X45.7536 Y25.759
G01 X45.2046 Y26.2551
G01 X44.6897 Y26.8366
G01 X44.2606 Y27.48
G01 X43.9254 Y28.1312
G01 X43.6918 Y28.7361
G01 X43.5661 Y29.2427
G01 X43.5548 Y29.5996
G01 X43.6359 Y29.8346
G01 X43.7922 Y29.9766
G01 X43.9308 Y30.1026
G01 X72.4323 Y55.24
G01 X72.6988 Y55.4613
G01 X73.6062 Y56.215
G01 X73.8771 Y56.4414
G01 X74.7824 Y57.1977
G01 X75.4638 Y57.7668
G01 X75.5438 Y57.8327
G01 X76.4552 Y58.5817
G01 X77.3664 Y59.3307
G01 X78.2777 Y60.0797
G01 X79.1731 Y60.807
G01 X80.0889 Y61.5506
G01 X81.0046 Y62.2942
G01 X81.8328 Y62.9626
G01 X82.7509 Y63.7034
G01 X83.6689 Y64.4442
G01 X84.6389 Y65.1154
G01 X85.5548 Y65.7491
G01 X86.601 Y66.2941
G01 X87.449 Y66.736
G01 X88.5736 Y67.0922
G01 X89.2911 Y67.3195
G01 X90.469 Y67.3837
G01 X91.0189 Y67.4138
G01 X92.1715 Y67.1626
G01 X92.5779 Y67.0742
G01 X93.6175 Y66.5167
G01 X93.913 Y66.3583
G01 X94.7567 Y65.5337
G01 X94.9702 Y65.3251
G01 X95.5484 Y64.297
G01 X95.6954 Y64.0356
G01 X95.9662 Y62.8875
G01 X96.0441 Y62.5573
G01 X95.9918 Y61.3787
G01 X95.9732 Y60.9583
G01 X95.6116 Y59.8354
G01 X95.4413 Y59.3065
G01 X94.8121 Y58.3086
G01 X94.4089 Y57.6692
G01 X93.6173 Y56.7946
G01 X92.9745 Y56.0847
G01 X92.08 Y55.3157
G01 X91.2356 Y54.5899
G01 X90.3699 Y53.9712
G01 X89.4101 Y53.2853
G01 X88.4504 Y52.5995
G01 X87.5105 Y51.9314
G01 X86.549 Y51.248
G01 X85.5875 Y50.5647
G01 X85.5028 Y50.5051
G01 X84.5379 Y49.8264
G01 X83.5731 Y49.1477
G01 X82.6083 Y48.4691
G01 X81.9146 Y47.9881
G01 X81.4166 Y47.6428
G01 X81.2743 Y47.5443
G00 Z3.0
G00 X70.4508 Y60.949
G00 Z0.8
G01 Z-0.2 F50.0
G01 X70.2674 Y60.9601 F250.0
G01 X69.3123 Y60.9562
G01 X68.1327 Y60.9515
G01 X67.0354 Y60.8525
G01 X65.8605 Y60.7466
G01 X65.7205 Y60.7201
G01 X64.5614 Y60.5008
G01 X63.4023 Y60.2817
G01 X63.0577 Y60.1815
G01 X61.9251 Y59.8522
G01 X60.7924 Y59.5228
G01 X60.6763 Y59.4775
G01 X60.3624 Y59.3527
G01 X59.2662 Y58.9171
G01 X58.17 Y58.4813
G01 X57.4118 Y58.0977
G01 X56.3594 Y57.5651
G01 X55.3068 Y57.0325
G01 X55.1727 Y56.9646
G01 X54.8447 Y56.7566
G01 X53.8485 Y56.1249
G01 X53.2222 Y55.7277
G01 X52.226 Y55.0959
G01 X52.0849 Y54.9941
G01 X51.1282 Y54.3039
G01 X50.1715 Y53.6139
G01 X49.2149 Y52.9237
G01 X48.9554 Y52.7219
G01 X48.024 Y51.998
G01 X47.0927 Y51.2741
G01 X46.1614 Y50.55
G01 X45.8459 Y50.2961
G01 X44.9268 Y49.5565
G01 X44.0079 Y48.817
G01 X43.0889 Y48.0775
G01 X42.9459 Y48.0222
G01 X42.7163 Y48.1066
G01 X42.3939 Y48.3569
G01 X42.0093 Y48.7329
G01 X41.5932 Y49.1945
G01 X41.1768 Y49.7007
G01 X40.791 Y50.2108
G01 X40.4338 Y50.7206
G01 X40.103 Y51.2261
G01 X39.7963 Y51.7234
G01 X39.5114 Y52.2088
G01 X39.2644 Y52.6716
G01 X39.0713 Y53.1012
G01 X38.948 Y53.4867
G01 X38.9104 Y53.8176
G01 X38.9691 Y54.0484
G01 X39.5301 Y54.5513
G01 X40.4083 Y55.3388
G01 X41.2866 Y56.1262
G01 X42.1649 Y56.9137
G01 X43.0432 Y57.7011
G01 X43.5606 Y58.1565
G01 X44.4463 Y58.9357
G01 X45.3318 Y59.7149
G01 X46.2175 Y60.4941
G01 X47.1031 Y61.2734
G01 X48.0032 Y62.038
G01 X48.9022 Y62.8017
G01 X49.8011 Y63.5654
G01 X50.7003 Y64.3292
G01 X51.5302 Y64.9964
G01 X51.7895 Y65.2048
G01 X52.7089 Y65.9439
G01 X53.6283 Y66.6829
G01 X54.5477 Y67.4219
G01 X55.0741 Y67.8067
G01 X55.4478 Y68.0772
G01 X56.4035 Y68.7687
G01 X57.3591 Y69.4602
G01 X58.3148 Y70.1517
G01 X58.933 Y70.5827
G01 X59.7371 Y71.0888
G01 X60.7355 Y71.717
G01 X61.7338 Y72.3454
G01 X62.7323 Y72.9737
G01 X63.3733 Y73.3099
G01 X64.418 Y73.8577
G01 X65.4626 Y74.4055
G01 X66.5073 Y74.9535
G01 X67.018 Y75.1613
G01 X68.1106 Y75.6059
G01 X69.2032 Y76.0505
G01 X70.2958 Y76.4952
G01 X70.73 Y76.6168
G01 X71.8659 Y76.9351
G01 X73.0017 Y77.2534
G01 X74.1376 Y77.5717
G01 X74.554 Y77.6495
G01 X75.7135 Y77.8659
G01 X76.8732 Y78.0824
G01 X78.0328 Y78.2989
G01 X79.0804 Y78.4299
G01 X79.638 Y78.4998
G01 X80.8086 Y78.6463
G01 X81.979 Y78.7928
G01 X82.0052 Y78.7952
G01 X83.1796 Y78.9066
G01 Z-0.3 F50.0
G01 X82.0052 Y78.7952 F250.0
G01 X81.979 Y78.7928
G01 X80.8086 Y78.6463
G01 X79.638 Y78.4998
G01 X79.0804 Y78.4299
G01 X78.0328 Y78.2989
G01 X76.8732 Y78.0824
G01 X75.7135 Y77.8659
G01 X74.554 Y77.6495
G01 X74.1376 Y77.5717
G01 X73.0017 Y77.2534
G01 X71.8659 Y76.9351
G01 X70.73 Y76.6168
G01 X70.2958 Y76.4952
G01 X69.2032 Y76.0505
G01 X68.1106 Y75.6059
G01 X67.018 Y75.1613
G01 X66.5073 Y74.9535
G01 X65.4626 Y74.4055
G01 X64.418 Y73.8577
G01 X63.3733 Y73.3099
G01 X62.7323 Y72.9737
G01 X61.7338 Y72.3454
G01 X60.7355 Y71.717
G01 X59.7371 Y71.0888
G01 X58.933 Y70.5827
G01 X58.3148 Y70.1517
G01 X57.3591 Y69.4602
G01 X56.4035 Y68.7687
G01 X55.4478 Y68.0772
G01 X55.0741 Y67.8067
G01 X54.5477 Y67.4219
G01 X53.6283 Y66.6829
G01 X52.7089 Y65.9439
G01 X51.7895 Y65.2048
G01 X51.5302 Y64.9964
G01 X50.7003 Y64.3292
G01 X49.8011 Y63.5654
G01 X48.9022 Y62.8017
G01 X48.0032 Y62.038
G01 X47.1031 Y61.2734
G01 X46.2175 Y60.4941
G01 X45.3318 Y59.7149
G01 X44.4463 Y58.9357
G01 X43.5606 Y58.1565
G01 X43.0432 Y57.7011
G01 X42.1649 Y56.9137
G01 X41.2866 Y56.1262
G01 X40.4083 Y55.3388
G01 X39.5301 Y54.5513
G01 X38.9691 Y54.0484
G01 X38.9104 Y53.8176
G01 X38.948 Y53.4867
G01 X39.0713 Y53.1012
G01 X39.2644 Y52.6716
G01 X39.5114 Y52.2088
G01 X39.7963 Y51.7234
G01 X40.103 Y51.2261
G01 X40.4338 Y50.7206
G01 X40.791 Y50.2108
G01 X41.1768 Y49.7007
G01 X41.5932 Y49.1945
G01 X42.0093 Y48.7329
G01 X42.3939 Y48.3569
G01 X42.7163 Y48.1066
G01 X42.9459 Y48.0222
G01 X43.0889 Y48.0775
G01 X44.0079 Y48.817
G01 X44.9268 Y49.5565
G01 X45.8459 Y50.2961
G01 X46.1614 Y50.55
G01 X47.0927 Y51.2741
G01 X48.024 Y51.998
G01 X48.9554 Y52.7219
G01 X49.2149 Y52.9237
G01 X50.1715 Y53.6139
G01 X51.1282 Y54.3039
G01 X52.0849 Y54.9941
G01 X52.226 Y55.0959
G01 X53.2222 Y55.7277
G01 X53.8485 Y56.1249
G01 X54.8447 Y56.7566
G01 X55.1727 Y56.9646
G01 X55.3068 Y57.0325
G01 X56.3594 Y57.5651
G01 X57.4118 Y58.0977
G01 X58.17 Y58.4813
G01 X59.2662 Y58.9171
G01 X60.3624 Y59.3527
G01 X60.6763 Y59.4775
G01 X60.7924 Y59.5228
G01 X61.9251 Y59.8522
G01 X63.0577 Y60.1815
G01 X63.4023 Y60.2817
G01 X64.5614 Y60.5008
G01 X65.7205 Y60.7201
G01 X65.8605 Y60.7466
G01 X67.0354 Y60.8525
G01 X68.1327 Y60.9515
G01 X69.3123 Y60.9562
G01 X70.2674 Y60.9601
G01 X70.4508 Y60.949
G00 Z3.0
G00 X145.7754 Y106.3525
G00 Z0.9
G01 Z-0.2 F50.0
G01 X146.3157 Y106.7672 F250.0
G01 X148.0563 Y107.2171
G01 X157.9068 Y114.5153
G01 X157.9117 Y114.5186
G01 X157.9178 Y114.5207
G01 X157.9246 Y114.5215
G01 X157.9324 Y114.521
G01 X157.9411 Y114.5194
G01 X157.9507 Y114.5164
G01 X157.961 Y114.5123
G01 X157.9724 Y114.5069
G01 X157.9845 Y114.5003
G01 X157.9974 Y114.4925
G01 X158.0111 Y114.4834
G01 X158.0255 Y114.4733
G01 X158.0407 Y114.4619
G01 X158.0571 Y114.4487
G01 X158.0755 Y114.4332
G01 X158.0965 Y114.4145
G01 X158.1205 Y114.3921
G01 X158.1473 Y114.3666
G01 X158.176 Y114.3383
G01 X158.2059 Y114.3079
G01 X158.2367 Y114.2757
G01 X158.2674 Y114.2428
G01 X158.2974 Y114.21
G01 X158.3255 Y114.1782
G01 X158.3515 Y114.1486
G01 X158.3754 Y114.1206
G01 X158.3983 Y114.0932
G01 X158.4205 Y114.0661
G01 X158.4426 Y114.0386
G01 X158.4646 Y114.0107
G01 X158.4866 Y113.9827
G01 X158.5084 Y113.9542
G01 X158.53 Y113.9258
G01 X158.5513 Y113.8971
G01 X158.5723 Y113.8685
G01 X158.5931 Y113.8398
G01 X158.6135 Y113.8112
G01 X158.6339 Y113.7819
G01 X158.6549 Y113.7511
G01 X158.6767 Y113.7182
G01 X158.7 Y113.6823
G01 X158.7239 Y113.6445
G01 X158.7479 Y113.6059
G01 X158.7711 Y113.5673
G01 X158.7928 Y113.5299
G01 X158.8128 Y113.4944
G01 X158.8308 Y113.4615
G01 X158.8462 Y113.432
G01 X158.8591 Y113.4064
G01 X158.8695 Y113.3841
G01 X158.8782 Y113.3644
G01 X158.8854 Y113.3465
G01 X158.8918 Y113.3294
G01 X158.8971 Y113.3135
G01 X158.9016 Y113.2986
G01 X158.9051 Y113.2848
G01 X158.9076 Y113.2721
G01 X158.9092 Y113.2605
G01 X158.9104 Y113.25
G01 Y113.2408
G01 X158.9091 Y113.2327
G01 X158.9069 Y113.2258
G01 X158.9036 Y113.2202
G01 X158.8994 Y113.2158
G01 X149.3058 Y105.5799
G01 X148.4196 Y104.0131
G01 X147.8776 Y103.5953
G01 Z-0.3 F50.0
G01 X148.4196 Y104.0131 F250.0
G01 X149.3058 Y105.5799
G01 X158.8994 Y113.2158
G01 X158.9036 Y113.2202
G01 X158.9069 Y113.2258
G01 X158.9091 Y113.2327
G01 X158.9104 Y113.2408
G01 Y113.25
G01 X158.9092 Y113.2605
G01 X158.9076 Y113.2721
G01 X158.9051 Y113.2848
G01 X158.9016 Y113.2986
G01 X158.8971 Y113.3135
G01 X158.8918 Y113.3294
G01 X158.8854 Y113.3465
G01 X158.8782 Y113.3644
G01 X158.8695 Y113.3841
G01 X158.8591 Y113.4064
G01 X158.8462 Y113.432
G01 X158.8308 Y113.4615
G01 X158.8128 Y113.4944
G01 X158.7928 Y113.5299
G01 X158.7711 Y113.5673
G01 X158.7479 Y113.6059
G01 X158.7239 Y113.6445
G01 X158.7 Y113.6823
G01 X158.6767 Y113.7182
G01 X158.6549 Y113.7511
G01 X158.6339 Y113.7819
G01 X158.6135 Y113.8112
G01 X158.5931 Y113.8398
G01 X158.5723 Y113.8685
G01 X158.5513 Y113.8971
G01 X158.53 Y113.9258
G01 X158.5084 Y113.9542
G01 X158.4866 Y113.9827
G01 X158.4646 Y114.0107
G01 X158.4426 Y114.0386
G01 X158.4205 Y114.0661
G01 X158.3983 Y114.0932
G01 X158.3754 Y114.1206
G01 X158.3515 Y114.1486
G01 X158.3255 Y114.1782
G01 X158.2974 Y114.21
G01 X158.2674 Y114.2428
G01 X158.2367 Y114.2757
G01 X158.2059 Y114.3079
G01 X158.176 Y114.3383
G01 X158.1473 Y114.3666
G01 X158.1205 Y114.3921
G01 X158.0965 Y114.4145
G01 X158.0755 Y114.4332
G01 X158.0571 Y114.4487
G01 X158.0407 Y114.4619
G01 X158.0255 Y114.4733
G01 X158.0111 Y114.4834
G01 X157.9974 Y114.4925
G01 X157.9845 Y114.5003
G01 X157.9724 Y114.5069
G01 X157.961 Y114.5123
G01 X157.9507 Y114.5164
G01 X157.9411 Y114.5194
G01 X157.9324 Y114.521
G01 X157.9246 Y114.5215
G01 X157.9178 Y114.5207
G01 X157.9117 Y114.5186
G01 X157.9068 Y114.5153
G01 X148.0563 Y107.2171
G01 X146.3157 Y106.7672
G01 X145.7754 Y106.3525
G00 Z3.0
G00 X113.0908 Y53.9519
G00 Z0.8
G01 Z-0.3 F50.0
G01 X112.6016 Y53.717 F250.0
G01 X111.5383 Y53.2062
G01 X112.6032 Y53.7137
G01 X113.1197 Y53.9598
G01 X114.1777 Y54.4817
G01 X115.2356 Y55.0035
G01 X115.2724 Y55.0216
G01 X116.3167 Y55.57
G01 X117.3612 Y56.1185
G01 X117.4329 Y56.1562
G01 X118.4569 Y56.7417
G01 X119.4808 Y57.3274
G01 X119.6016 Y57.3964
G01 X120.5982 Y58.0275
G01 X121.5948 Y58.6587
G01 X121.7781 Y58.7748
G01 X121.8015 Y58.7906
G01 X122.7735 Y59.459
G01 X123.7455 Y60.1274
G01 X123.9392 Y60.2606
G01 X124.8869 Y60.963
G01 X125.8345 Y61.6655
G01 X126.001 Y61.7889
G01 X126.9244 Y62.523
G01 X127.8479 Y63.2569
G01 X127.946 Y63.335
G01 X128.8441 Y64.0999
G01 X129.7342 Y64.858
G01 X130.6077 Y65.6507
G01 X131.352 Y66.3261
G01 X132.2015 Y67.1444
G01 X132.7857 Y67.7068
G01 X133.6114 Y68.5493
G01 X134.0219 Y68.9681
G01 X134.8225 Y69.8344
G01 X135.0471 Y70.0775
G01 X135.8198 Y70.9689
G01 X135.9121 Y71.0756
G01 X136.6574 Y71.9899
G01 X136.6677 Y72.0026
G01 X137.3648 Y72.8991
G01 X138.0547 Y73.8059
G01 X138.0757 Y73.8342
G01 X138.7535 Y74.7508
G01 X139.412 Y75.6727
G01 X140.0449 Y76.5973
G01 X140.6464 Y77.5223
G01 X141.2268 Y78.4621
G01 X141.7966 Y79.4311
G01 X142.3659 Y80.4434
G01 X142.9274 Y81.4808
G01 X142.9452 Y81.5137
G01 X143.4748 Y82.5678
G01 X143.5398 Y82.6971
G01 X144.0283 Y83.7709
G01 X144.1549 Y84.0491
G01 X144.5992 Y85.1417
G01 X144.7956 Y85.6247
G01 X145.1973 Y86.7339
G01 X145.4673 Y87.4795
G01 X145.8226 Y88.6044
G01 X146.1216 Y89.5514
G01 X146.4234 Y90.6919
G01 X146.7108 Y91.7784
G01 X146.9477 Y92.9341
G01 X147.1864 Y94.0983
G01 X147.1969 Y94.1494
G01 X147.3527 Y95.3187
G01 X147.5091 Y96.4922
G01 X147.604 Y97.668
G01 X147.6997 Y98.8558
G01 X147.754 Y100.0342
G01 X147.8092 Y101.2326
G01 X147.8434 Y102.4116
G01 X147.8776 Y103.5953
G01 Y103.615
G01 X147.8782
G01 Y103.6297
G01 X147.8763 Y103.6472
G01 X147.8724 Y103.667
G01 X147.8665 Y103.6894
G01 X147.8586 Y103.7142
G01 X147.8487 Y103.7414
G01 X147.8368 Y103.771
G01 X147.8229 Y103.8028
G01 X147.8071 Y103.8369
G01 X147.7894 Y103.8731
G01 X147.7689 Y103.9131
G01 X147.7442 Y103.9585
G01 X147.7147 Y104.0106
G01 X147.6792 Y104.0714
G01 X147.6385 Y104.1392
G01 X147.5935 Y104.2124
G01 X147.5447 Y104.2899
G01 X147.4932 Y104.37
G01 X147.4402 Y104.4506
G01 X147.3876 Y104.5294
G01 X147.3367 Y104.6046
G01 X147.2889 Y104.6737
G01 X147.2434 Y104.7383
G01 X147.1991 Y104.8001
G01 X147.1552 Y104.8605
G01 X147.1108 Y104.9212
G01 X147.0656 Y104.9819
G01 X147.02 Y105.0427
G01 X146.974 Y105.1032
G01 X146.9277 Y105.1635
G01 X146.8812 Y105.2234
G01 X146.8345 Y105.2828
G01 X146.7878 Y105.3416
G01 X146.7412 Y105.3996
G01 X146.6933 Y105.4582
G01 X146.6432 Y105.5189
G01 X146.5894 Y105.5827
G01 X146.5307 Y105.6511
G01 X146.4689 Y105.7221
G01 X146.4056 Y105.7937
G01 X146.3425 Y105.8638
G01 X146.2813 Y105.9303
G01 X146.223 Y105.9923
G01 X146.169 Y106.0485
G01 X146.1204 Y106.0978
G01 X146.0784 Y106.1392
G01 X146.0417 Y106.174
G01 X146.0091 Y106.2036
G01 X145.9794 Y106.2295
G01 X145.9513 Y106.253
G01 X145.9248 Y106.2738
G01 X145.9001 Y106.2922
G01 X145.8771 Y106.3082
G01 X145.8559 Y106.3214
G01 X145.8365 Y106.3321
G01 X145.8191 Y106.3402
G01 X145.8034 Y106.3457
G01 X145.8036
G01 X145.7755 Y106.3525
G01 X144.6287 Y106.6285
G01 X143.5025 Y106.8997
G01 X142.351 Y107.1561
G01 X141.1943 Y107.4135
G01 X141.1549 Y107.4215
G01 X139.9953 Y107.6377
G01 X138.8256 Y107.8558
G01 X137.6562 Y108.0111
G01 X136.4841 Y108.1668
G01 X135.3068 Y108.2398
G01 X134.1278 Y108.3129
G01 X132.9482 Y108.3189
G01 X131.8296 Y108.3246
G01 X131.7723 Y108.3227
G01 X130.5937 Y108.2725
G01 X129.6027 Y108.2302
G01 X128.4272 Y108.131
G01 X127.6379 Y108.0643
G01 X126.4673 Y107.9193
G01 X125.9505 Y107.8552
G01 X124.7867 Y107.6624
G01 X124.4855 Y107.6125
G01 X123.3301 Y107.3745
G01 X123.1884 Y107.3454
G01 X122.0408 Y107.0722
G01 X122.0045 Y107.0635
G01 X120.879 Y106.7762
G01 X119.7954 Y106.4773
G01 X118.737 Y106.1602
G01 X117.6873 Y105.8189
G01 X116.6298 Y105.4469
G01 X115.5685 Y105.0495
G01 X114.5071 Y104.6317
G01 X113.4497 Y104.1989
G01 X112.4 Y103.7561
G01 X111.3241 Y103.2726
G01 X111.3057 Y103.2644
G01 X110.2449 Y102.7485
G01 X110.114 Y102.6848
G01 X109.0702 Y102.1353
G01 X108.7725 Y101.9785
G01 X107.7454 Y101.3985
G01 X107.2288 Y101.1067
G01 X106.2189 Y100.4971
G01 X105.5179 Y100.0741
G01 X104.5265 Y99.4347
G01 X103.6745 Y98.8853
G01 X102.7037 Y98.215
G01 X101.7332 Y97.545
G01 X100.7858 Y96.8422
G01 X99.8385 Y96.1392
G01 X99.729 Y96.0581
G01 X98.8057 Y95.3239
G01 X97.8823 Y94.5897
G01 X97.7111 Y94.4536
G01 X96.8142 Y93.6874
G01 X95.9172 Y92.9213
G01 X95.7293 Y92.7608
G01 X94.8628 Y91.9603
G01 X93.9963 Y91.1599
G01 X93.8329 Y91.0089
G01 X93.0035 Y90.1702
G01 X92.1741 Y89.3314
G01 X92.0716 Y89.2277
G01 X91.2729 Y88.3596
G01 X90.4743 Y87.4914
G01 X90.414 Y87.4261
G01 X89.6378 Y86.5378
G01 X88.8615 Y85.6497
G01 X88.8288 Y85.6123
G01 X88.5726 Y85.3111
G01 X87.8063 Y84.4144
G01 X87.2861 Y83.8057
G01 X86.5217 Y82.9073
G01 X85.7889 Y82.0461
G01 X85.0304 Y81.1427
G01 X84.3417 Y80.3225
G01 X83.5933 Y79.4108
G01 X83.1796 Y78.9066
G01 X70.4508 Y60.949
G01 X70.3563 Y60.8118
G01 X70.304 Y60.7357
G01 X70.258 Y60.6688
G01 X70.2119 Y60.6019
G01 X70.171 Y60.5292
G01 X70.1303 Y60.4436
G01 X70.1049 Y60.3384
G01 X70.0962 Y60.2118
G01 X70.1052 Y60.0624
G01 X70.1317 Y59.8894
G01 X70.176 Y59.6928
G01 X70.2379 Y59.4743
G01 X70.317 Y59.2358
G01 X70.4123 Y58.9805
G01 X70.5225 Y58.7115
G01 X70.6478 Y58.428
G01 X70.7887 Y58.1293
G01 X70.9449 Y57.8157
G01 X71.1155 Y57.4873
G01 X71.3007 Y57.1445
G01 X71.5004 Y56.7876
G01 X71.714 Y56.4179
G01 X71.9404 Y56.0367
G01 X72.1796 Y55.6443
G01 X72.4314 Y55.2415
G01 X72.4323 Y55.24
G01 X72.4314 Y55.2415
( Engrave2 )
S12000
G00 Z3.0
G00 X168.5744 Y18.3779
G00 Z1.1
G01 Z0.0 F50.0
G02 X168.6455 Y18.4168 I112.2628 J-205.1486 F250.0
G02 X168.7329 Y18.4645 I19.4168 J-35.5112
G01 X168.7331 Y18.4646
G03 X168.7479 Y18.4709 I-0.948 J2.244
G03 X168.7639 Y18.4778 I-1.0485 J2.4367
G03 X168.7797 Y18.4848 I-0.9183 J2.0962
G02 X168.8068 Y18.4969 I2.4252 J-5.424
G02 X168.8175 Y18.5015 I0.2785 J-0.6312
G03 X168.8296 Y18.5058 I-0.2814 J0.8048
G03 X168.8428 Y18.5107 I-0.5615 J1.532
G03 X168.8566 Y18.516 I-0.6074 J1.6137
G03 X168.8707 Y18.5215 I-0.4911 J1.2717
G02 X168.8749 Y18.5231 I0.1716 J-0.4299
G02 X168.879 Y18.5247 I0.1897 J-0.489
G03 X168.883 Y18.5261 I-0.2851 J0.8407
G03 X168.8916 Y18.5291 I-0.5698 J1.6545
G03 X168.9007 Y18.5323 I-0.6122 J1.7477
G03 X168.9099 Y18.5356 I-0.4879 J1.3702
G02 X168.917 Y18.5381 I0.143 J-0.3931
G02 X168.9268 Y18.5414 I0.2364 J-0.6878
G02 X168.9387 Y18.5452 I0.2923 J-0.8919
G02 X168.9535 Y18.5498 I0.4527 J-1.4458
G03 X168.9657 Y18.5536 I-0.2465 J0.8166
G03 X168.9705 Y18.5551 I-0.4145 J1.3022
G03 X169.019 Y18.5681 I-0.1157 J0.5294
G03 X169.0218 Y18.569 I-0.161 J0.5062
G03 X169.0313 Y18.5714 I-0.1506 J0.6115
G03 X169.0494 Y18.5764 I-0.1773 J0.6743
G03 X169.0603 Y18.5797 I-0.1402 J0.4804
G03 X169.076 Y18.5833 I-0.4269 J1.9362
G03 X169.0892 Y18.5863 I-0.4419 J1.9295
G03 X169.1029 Y18.5897 I-0.1339 J0.5666
G02 X169.1344 Y18.596 I2.0668 J-10.2508
G02 X169.178 Y18.6045 I1.1191 J-5.6397
G02 X169.2131 Y18.611 I0.5557 J-2.9187
G02 X169.2446 Y18.6164 I0.6281 J-3.5284
G02 X169.256 Y18.6182 I0.0716 J-0.4239
G02 X169.2651 Y18.6193 I0.0443 J-0.3133
G02 X169.2908 Y18.6221 I0.2358 J-2.1088
G03 X169.3077 Y18.6239 I-0.1187 J1.1928
G03 X169.3266 Y18.6262 I-0.1037 J0.9113
G03 X169.339 Y18.628 I-0.1629 J1.207
G03 X169.3592 Y18.6313 I-0.0726 J0.4993
G02 X169.4211 Y18.6346 I1.15 J-21.0605
G02 X169.5202 Y18.6388 I0.2819 J-5.4564
G02 X169.5868 Y18.6398 I0.0604 J-1.8047
G02 X170.0995 Y18.587 I-0.0089 J-2.599
G02 X170.6235 Y18.4297 I-0.6141 J-2.9979
G02 X171.1286 Y18.1742 I-1.2093 J-3.0183
G02 X171.5931 Y17.8291 I-1.8274 J-2.945
G02 X171.6167 Y17.8083 I-5.6178 J-6.3721
G02 X171.6365 Y17.7906 I-3.2423 J-3.6503
G02 X171.6432 Y17.7846 I-6.2653 J-6.977
G03 X171.6468 Y17.7809 I0.4149 J0.4164
G03 X171.6626 Y17.7656 I7.4294 J7.5882
G03 X171.6817 Y17.747 I4.7856 J4.9082
G03 X171.7028 Y17.7266 I7.4994 J7.7518
G02 X171.7345 Y17.6961 I-15.7704 J-16.3898
G02 X171.7464 Y17.6845 I-0.9242 J-0.9568
G02 X171.7488 Y17.682 I-0.1039 J-0.1049
G01 X171.7491 Y17.6817
G03 X171.7607 Y17.6693 I0.5172 J0.4702
G03 X171.7682 Y17.6614 I1.3965 J1.3328
G03 X171.7767 Y17.6526 I1.5084 J1.4559
G03 X171.7853 Y17.6439 I1.5297 J1.4939
G02 X171.7898 Y17.6393 I-0.8098 J-0.7999
G02 X171.7943 Y17.6347 I-0.7845 J-0.7661
G02 X171.7958 Y17.6331 I-0.6695 J-0.6463
G03 X171.7985 Y17.6302 I0.7378 J0.6765
G03 X171.8034 Y17.6249 I1.235 J1.1414
G03 X171.8084 Y17.6195 I1.2559 J1.1708
G03 X171.8138 Y17.6139 I0.8616 J0.8101
G02 X171.8154 Y17.6121 I-0.15 J-0.1429
G02 X171.8195 Y17.6077 I-0.6178 J-0.5751
G02 X171.8252 Y17.6015 I-1.0239 J-0.9396
G02 X171.8331 Y17.5928 I-2.4861 J-2.2543
G03 X171.8368 Y17.5887 I2.6149 J2.3543
G03 X171.8411 Y17.5839 I6.1994 J5.5991
G03 X171.8456 Y17.579 I6.4892 J5.8698
G03 X171.8496 Y17.5745 I4.0857 J3.7014
G01 X171.8502 Y17.5739
G02 X171.8527 Y17.571 I-0.5005 J-0.4455
G02 X171.8553 Y17.568 I-0.5014 J-0.4411
G01 X171.8558 Y17.5675
G03 X171.8611 Y17.5613 I1.2425 J1.0587
G03 X171.8665 Y17.555 I2.1361 J1.8386
G03 X171.8719 Y17.5488 I2.1318 J1.8458
G03 X171.8773 Y17.5426 I1.2369 J1.0774
G02 X171.8794 Y17.5402 I-0.4808 J-0.423
G02 X171.8829 Y17.5362 I-1.3722 J-1.1952
G02 X171.8864 Y17.5322 I-1.3746 J-1.1902
G02 X171.8884 Y17.5298 I-0.4793 J-0.4125
G03 X171.8929 Y17.5245 I1.9551 J1.6659
G03 X171.8976 Y17.519 I3.1173 J2.6705
G03 X171.9023 Y17.5137 I3.0188 J2.5955
G03 X171.9059 Y17.5095 I1.4662 J1.2651
G02 X171.9079 Y17.507 I-0.5556 J-0.4672
G02 X171.911 Y17.5033 I-0.6441 J-0.5367
G02 X171.9133 Y17.5005 I-0.378 J-0.3113
G03 X171.9207 Y17.4915 I1.0411 J0.8447
G03 X171.9279 Y17.4828 I1.3742 J1.135
G03 X171.9349 Y17.4744 I1.3069 J1.0934
G03 X171.9404 Y17.468 I0.7001 J0.5934
G01 X171.9408 Y17.4676
G02 X171.9433 Y17.4644 I-0.3119 J-0.2523
G02 X171.9447 Y17.4626 I-0.1422 J-0.1127
G03 X171.9507 Y17.4549 I3.2411 J2.5028
G03 X171.9569 Y17.4469 I4.1767 J3.2412
G03 X171.9628 Y17.4394 I3.8446 J2.9952
G03 X171.9681 Y17.4326 I1.3594 J1.0633
G02 X171.9695 Y17.4308 I-0.2291 J-0.1811
G02 X171.9742 Y17.4248 I-2.1835 J-1.6977
G02 X171.9794 Y17.418 I-2.4686 J-1.9085
G02 X171.9842 Y17.4118 I-1.9377 J-1.4896
G03 X171.9922 Y17.4014 I1.4876 J1.1361
G03 X172.0003 Y17.391 I1.9297 J1.4952
G03 X172.008 Y17.3812 I1.8057 J1.4147
G03 X172.0152 Y17.3723 I0.828 J0.656
G02 X172.0165 Y17.3705 I-0.301 J-0.2317
G02 X172.0192 Y17.3669 I-0.3437 J-0.2614
G02 X172.02 Y17.3658 I-0.0767 J-0.0571
G02 X172.0397 Y17.3385 I-21.639 J-15.6248
G02 X172.0513 Y17.3223 I-3.6094 J-2.5993
G02 X172.0603 Y17.3097 I-2.1069 J-1.5031
G02 X172.0712 Y17.2941 I-3.7861 J-2.6669
G02 X172.1307 Y17.2044 I-1.8806 J-1.3132
G02 X172.1942 Y17.0995 I-2.7627 J-1.7422
G02 X172.2525 Y16.9943 I-2.747 J-1.5915
G02 X172.2963 Y16.906 I-1.6577 J-0.8782
G02 X172.3101 Y16.876 I-5.1132 J-2.3737
G02 X172.3221 Y16.8496 I-3.4482 J-1.5763
G02 X172.3273 Y16.8379 I-4.7903 J-2.1457
G03 X172.331 Y16.8287 I0.5439 J0.2089
G03 X172.3362 Y16.8158 I1.7367 J0.7014
G03 X172.3425 Y16.8007 I1.7533 J0.7232
G03 X172.349 Y16.7856 I2.1009 J0.8879
G02 X172.3522 Y16.778 I-0.7939 J-0.3423
G02 X172.3545 Y16.7725 I-0.6356 J-0.2669
G03 X172.3567 Y16.7663 I0.6284 J0.2253
G03 X172.3612 Y16.7545 I1.3581 J0.5021
G03 X172.3661 Y16.7416 I1.4619 J0.5551
G03 X172.3712 Y16.7287 I1.3975 J0.5448
G02 X172.3728 Y16.7247 I-0.411 J-0.1646
G02 X172.3743 Y16.7209 I-0.4691 J-0.1826
G03 X172.3749 Y16.7191 I1.0192 J0.3442
G03 X172.3775 Y16.7114 I2.0526 J0.6972
G03 X172.3803 Y16.7034 I2.1551 J0.7411
G03 X172.3831 Y16.6953 I1.5777 J0.5491
G01 X172.3852 Y16.6895
G01 X172.3877 Y16.6825
G01 X172.3894 Y16.6775
G03 X172.3927 Y16.6682 I0.7178 J0.2483
G01 X172.3928 Y16.6678
G02 X172.3943 Y16.6635 I-0.7958 J-0.2739
G02 X172.3957 Y16.6594 I-0.7729 J-0.2614
G01 X172.396 Y16.6586
G03 X172.3994 Y16.6482 I1.0249 J0.3293
G03 X172.4025 Y16.6387 I1.8232 J0.6064
G03 X172.4058 Y16.6291 I1.8716 J0.6332
G03 X172.408 Y16.6227 I1.2852 J0.4422
G02 X172.4096 Y16.6177 I-0.9509 J-0.3016
G02 X172.4124 Y16.6084 I-1.1266 J-0.3509
G02 X172.4151 Y16.5995 I-1.0172 J-0.3076
G03 X172.4197 Y16.5839 I2.7455 J0.8043
G03 X172.4244 Y16.5684 I2.6668 J0.7977
G03 X172.4286 Y16.5547 I2.4365 J0.7443
G03 X172.43 Y16.5503 I0.7432 J0.2316
G02 X172.4317 Y16.5439 I-2.602 J-0.6881
G02 X172.4365 Y16.5253 I-2.3932 J-0.6266
G02 X172.4419 Y16.5039 I-3.4871 J-0.884
G02 X172.4861 Y16.2705 I-2.101 J-0.519
G02 X172.5005 Y16.0584 I-1.635 J-0.2177
G02 X172.4877 Y15.8579 I-1.5019 J-0.0051
G02 X172.4488 Y15.6655 I-1.4123 J0.1854
G02 X172.4085 Y15.5416 I-1.3617 J0.3745
G02 X172.3596 Y15.4292 I-1.1541 J0.4354
G02 X172.3 Y15.3225 I-1.1 J0.5452
G02 X172.2264 Y15.2165 I-1.1717 J0.7341
G02 X172.2028 Y15.1872 I-0.5847 J0.4474
G02 X172.1576 Y15.1353 I-2.1261 J1.8063
G02 X172.1172 Y15.0909 I-2.3013 J2.0549
G03 X172.1061 Y15.081 I0.4088 J-0.4672
G03 X172.0944 Y15.07 I0.5006 J-0.5453
G03 X172.083 Y15.0588 I0.5116 J-0.5335
G03 X172.082 Y15.0578 I0.4352 J-0.4346
G02 X172.076 Y15.0527 I-1.5374 J1.7923
G03 X172.0698 Y15.0474 I1.0587 J-1.2425
G03 X172.0636 Y15.042 I1.8386 J-2.1361
G03 X172.0573 Y15.0366 I1.8458 J-2.1318
G03 X172.0512 Y15.0312 I1.0774 J-1.2369
G02 X172.0488 Y15.0291 I-0.423 J0.4808
G02 X172.0447 Y15.0256 I-1.1952 J1.3722
G02 X172.0407 Y15.0221 I-1.1902 J1.3746
G02 X172.0383 Y15.02 I-0.4125 J0.4793
G03 X172.033 Y15.0155 I1.7172 J-2.0153
G03 X172.0273 Y15.0106 I3.1326 J-3.657
G03 X172.0216 Y15.0057 I3.131 J-3.6435
G03 X172.0169 Y15.0017 I1.6816 J-1.9506
G02 X172.0082 Y14.9947 I-0.5595 J0.6884
G02 X171.9983 Y14.987 I-0.5858 J0.7395
G02 X171.9933 Y14.9832 I-0.1824 J0.2367
G03 X171.9873 Y14.9787 I31.9487 J-43.289
G03 X171.9798 Y14.9732 I76.9012 J-104.167
G03 X171.9721 Y14.9675 I78.8452 J-106.784
G03 X171.9654 Y14.9626 I44.0301 J-59.6233
G02 X171.9396 Y14.9442 I-0.5364 J0.7261
G02 X171.9178 Y14.9299 I-0.358 J0.5221
G02 X171.8843 Y14.9097 I-0.6465 J1.0315
G02 X171.8217 Y14.8737 I-3.0973 J5.3139
G02 X171.7584 Y14.8382 I-3.3607 J5.9246
G02 X171.7247 Y14.8203 I-0.5908 J1.0679
G02 X171.7006 Y14.8085 I-0.3125 J0.609
G02 X171.6654 Y14.7927 I-0.5924 J1.2752
G02 X171.6547 Y14.7882 I-0.3273 J0.7585
G02 X171.6416 Y14.7828 I-0.4817 J1.1605
G02 X171.6296 Y14.7781 I-0.4147 J1.0319
G02 X171.6273 Y14.7772 I-0.0367 J0.0946
G03 X171.6125 Y14.7718 I0.4675 J-1.2954
G03 X171.598 Y14.7663 I0.9248 J-2.4736
G03 X171.5798 Y14.7593 I1.8444 J-4.8465
G03 X171.559 Y14.7513 I9.8769 J-25.6619
G03 X171.5506 Y14.7487 I0.1643 J-0.536
G03 X171.5363 Y14.7439 I0.2891 J-0.8925
G03 X171.5256 Y14.7402 I0.3199 J-0.9364
G03 X171.507 Y14.7348 I0.1867 J-0.6788
G03 X171.4881 Y14.7287 I0.2019 J-0.6622
G03 X171.4423 Y14.7156 I0.1242 J-0.5184
G03 X171.4355 Y14.7137 I0.1775 J-0.6717
G03 X171.4196 Y14.7091 I0.1538 J-0.5587
G01 X171.4195
G02 X171.4082 Y14.7063 I-0.2584 J1.0168
G02 X171.3948 Y14.7031 I-0.3501 J1.4453
G03 X171.3758 Y14.6987 I1.5916 J-6.8466
G03 X171.3579 Y14.6944 I1.1422 J-4.8521
G03 X171.3431 Y14.6909 I1.3468 J-5.6284
G03 X171.3414 Y14.6905 I0.1496 J-0.6179
G02 X171.335 Y14.6892 I-1.2052 J6.1025
G02 X171.3146 Y14.6852 I-0.7576 J3.8572
G02 X171.2906 Y14.6807 I-1.2337 J6.4616
G02 X170.7312 Y14.647 I-0.4142 J2.2143
G02 X170.1279 Y14.7519 I0.1837 J2.8439
G02 X169.53 Y14.9928 I0.8626 J3.0024
G02 X168.9732 Y15.3604 I1.6103 J3.0446
G02 X168.9227 Y15.4022 I1.9941 J2.4633
G02 X168.87 Y15.4475 I2.418 J2.8637
G02 X168.8194 Y15.4927 I2.3757 J2.7101
G02 X168.7759 Y15.5333 I1.6808 J1.8461
G02 X168.7449 Y15.5634 I1.7896 J1.8739
G02 X168.7037 Y15.6044 I4.4021 J4.4582
G02 X168.6704 Y15.6382 I7.0986 J7.0568
G03 X168.6621 Y15.6476 I-0.5007 J-0.4295
G03 X168.6514 Y15.6595 I-0.8037 J-0.7165
G03 X168.64 Y15.6716 I-0.8339 J-0.7659
G03 X168.6278 Y15.6844 I-0.7118 J-0.6732
G01 X168.6274 Y15.6848
G02 X168.6265 Y15.6857 I0.1502 J0.1426
G03 X168.6207 Y15.6924 I-0.613 J-0.5249
G03 X168.6123 Y15.7019 I-1.3434 J-1.1762
G03 X168.6032 Y15.7121 I-1.4407 J-1.2796
G03 X168.5941 Y15.7222 I-1.2411 J-1.118
G02 X168.5909 Y15.7256 I0.3356 J0.3073
G02 X168.5865 Y15.7306 I0.6219 J0.5579
G02 X168.5834 Y15.7341 I0.5487 J0.4845
G03 X168.5755 Y15.7436 I-1.8277 J-1.5282
G03 X168.5666 Y15.754 I-1.8147 J-1.5334
G03 X168.5568 Y15.7654 I-2.5918 J-2.2157
G03 X168.545 Y15.779 I-8.2574 J-7.123
G02 X168.5432 Y15.7812 I0.3667 J0.3072
G02 X168.5407 Y15.7842 I0.3971 J0.3286
G02 X168.5401 Y15.785 I0.0701 J0.0571
G03 X168.5348 Y15.7916 I-2.0856 J-1.6614
G03 X168.529 Y15.7988 I-4.1494 J-3.3269
G03 X168.5232 Y15.8061 I-4.2064 J-3.3847
G03 X168.5177 Y15.8128 I-2.4167 J-1.9515
G02 X168.4932 Y15.843 I22.2547 J18.0736
G02 X168.4824 Y15.8565 I1.7466 J1.4146
G02 X168.4763 Y15.8643 I0.6239 J0.4974
G02 X168.4675 Y15.8757 I1.3547 J1.0526
G03 X168.4612 Y15.884 I-4.0747 J-3.1117
G03 X168.4546 Y15.8925 I-4.9096 J-3.7651
G03 X168.4485 Y15.9004 I-4.4623 J-3.4345
G03 X168.4432 Y15.9073 I-1.3785 J-1.0649
G02 X168.4381 Y15.9139 I0.3141 J0.2452
G02 X168.4286 Y15.9269 I1.0355 J0.774
G02 X168.4176 Y15.9421 I1.3103 J0.9542
G02 X168.4059 Y15.9588 I1.6233 J1.1537
G03 X168.397 Y15.9714 I-5.4826 J-3.8125
G03 X168.3881 Y15.9841 I-5.6547 J-3.9516
G03 X168.3802 Y15.9954 I-5.0772 J-3.565
G03 X168.3732 Y16.0052 I-1.1764 J-0.8299
G02 X168.3325 Y16.067 I0.7469 J0.5364
G02 X168.2537 Y16.2018 I5.1449 J3.1003
G02 X168.1785 Y16.3383 I5.2513 J2.9811
G02 X168.1485 Y16.4006 I0.7222 J0.3857
G03 X168.1438 Y16.4114 I-1.3501 J-0.5803
G03 X168.1385 Y16.4235 I-5.2625 J-2.3123
G03 X168.1325 Y16.437 I-5.8351 J-2.5799
G03 X168.1266 Y16.4503 I-5.4128 J-2.4082
G02 X168.1234 Y16.4574 I0.6789 J0.304
G02 X168.1216 Y16.4616 I0.535 J0.233
G03 X168.1177 Y16.4718 I-0.5863 J-0.2176
G03 X168.1124 Y16.4852 I-1.4159 J-0.5537
G03 X168.1064 Y16.5001 I-1.514 J-0.6086
G03 X168.1001 Y16.5149 I-1.5804 J-0.6534
G02 X168.0976 Y16.5209 I0.6215 J0.2638
G02 X168.0959 Y16.5252 I0.5508 J0.2275
G03 X168.0955 Y16.5264 I-0.7886 J-0.2784
G03 X168.0921 Y16.5357 I-1.7969 J-0.6375
G03 X168.0885 Y16.5456 I-1.9378 J-0.6988
G03 X168.0849 Y16.5555 I-1.6702 J-0.612
G01 X168.082 Y16.5632
G01 X168.0786 Y16.5724
G03 X168.0773 Y16.5756 I-0.4684 J-0.1748
G02 X168.0764 Y16.5783 I0.1887 J0.0719
G03 X168.0751 Y16.5815 I-0.4697 J-0.1715
G01 X168.0723 Y16.5892
G02 X168.0712 Y16.5923 I0.3436 J0.1282
G02 X168.0697 Y16.5965 I0.5747 J0.2087
G02 X168.069 Y16.5982 I0.4796 J0.1702
G03 X168.0657 Y16.6083 I-0.7794 J-0.2556
G03 X168.0623 Y16.6181 I-1.5235 J-0.5217
G03 X168.0586 Y16.6285 I-1.6156 J-0.5649
G03 X168.0548 Y16.639 I-1.3145 J-0.4691
G02 X168.0537 Y16.6419 I0.4024 J0.1473
G02 X168.0493 Y16.6566 I3.8187 J1.1725
G03 X168.0464 Y16.6659 I-0.9919 J-0.3004
G03 X168.0437 Y16.6744 I-1.3997 J-0.4383
G03 X168.041 Y16.6827 I-1.3731 J-0.4391
G03 X168.0405 Y16.6843 I-0.8604 J-0.2809
G02 X168.0401 Y16.6856 I0.2802 J0.0786
G02 X168.0395 Y16.688 I0.1941 J0.0535
G03 X168.0356 Y16.7025 I-1.1462 J-0.301
G03 X168.0317 Y16.7163 I-1.3565 J-0.3747
G03 X168.0278 Y16.7296 I-1.2764 J-0.3667
G03 X168.0244 Y16.7408 I-0.7001 J-0.209
G02 X168.024 Y16.7422 I0.6174 J0.1715
G02 X168.022 Y16.7496 I0.7502 J0.2066
G02 X168.0201 Y16.757 I0.7434 J0.1968
G03 X168.016 Y16.7727 I-2.0175 J-0.5128
G03 X168.0128 Y16.7846 I-1.7682 J-0.4641
G03 X168.0091 Y16.8025 I-0.5735 J-0.112
G03 X168.0015 Y16.832 I-0.5809 J-0.1325
G03 X167.9992 Y16.84 I-0.5782 J-0.1634
G02 X167.9866 Y16.9114 I8.119 J1.4747
G02 X167.9725 Y16.997 I5.2672 J0.909
G02 X167.9663 Y17.0435 I1.0899 J0.1699
G02 X167.9563 Y17.2829 I1.6846 J0.1897
G02 X167.9802 Y17.5046 I1.435 J-0.0421
G02 X168.0364 Y17.7125 I1.3339 J-0.2494
G02 X168.1239 Y17.906 I1.239 J-0.4434
G02 X168.1492 Y17.9494 I0.9394 J-0.5196
G02 X168.1806 Y17.9982 I1.2503 J-0.77
G02 X168.2143 Y18.0463 I1.2435 J-0.8353
G02 X168.2467 Y18.0887 I0.9785 J-0.7146
G03 X168.2519 Y18.0952 I-1.1155 J0.8926
G03 X168.257 Y18.1017 I-1.8892 J1.4937
G03 X168.262 Y18.1081 I-1.8963 J1.4888
G03 X168.2671 Y18.1147 I-1.1393 J0.8882
G02 X168.2791 Y18.1287 I0.1439 J-0.1108
G02 X168.336 Y18.1867 I1.653 J-1.5644
G02 X168.3972 Y18.2448 I1.6219 J-1.6486
G02 X168.4345 Y18.2766 I0.4844 J-0.5297
G03 X168.4416 Y18.2823 I-1.754 J2.2026
G03 X168.4491 Y18.2883 I-2.478 J3.091
G03 X168.4562 Y18.294 I-2.3446 J2.9101
G03 X168.4629 Y18.2995 I-1.0003 J1.2354
G02 X168.4721 Y18.3068 I0.2216 J-0.2707
G02 X168.486 Y18.3171 I0.3928 J-0.514
G02 X168.5051 Y18.3306 I0.5894 J-0.8157
G02 X168.5335 Y18.3498 I1.3865 J-2.0154
G03 X168.5521 Y18.3624 I-1.1571 J1.7336
G03 X168.5711 Y18.3756 I-0.7683 J1.1246
G03 X168.5744 Y18.3779 I-1.8522 J2.6148
G01 Z-0.1 F50.0
G02 X168.6455 Y18.4168 I112.2628 J-205.1486 F250.0
G02 X168.7329 Y18.4645 I19.4168 J-35.5112
G01 X168.7331 Y18.4646
G03 X168.7479 Y18.4709 I-0.948 J2.244
G03 X168.7639 Y18.4778 I-1.0485 J2.4367
G03 X168.7797 Y18.4848 I-0.9183 J2.0962
G02 X168.8068 Y18.4969 I2.4252 J-5.424
G02 X168.8175 Y18.5015 I0.2785 J-0.6312
G03 X168.8296 Y18.5058 I-0.2814 J0.8048
G03 X168.8428 Y18.5107 I-0.5615 J1.532
G03 X168.8566 Y18.516 I-0.6074 J1.6137
G03 X168.8707 Y18.5215 I-0.4911 J1.2717
G02 X168.8749 Y18.5231 I0.1716 J-0.4299
G02 X168.879 Y18.5247 I0.1897 J-0.489
G03 X168.883 Y18.5261 I-0.2851 J0.8407
G03 X168.8916 Y18.5291 I-0.5698 J1.6545
G03 X168.9007 Y18.5323 I-0.6122 J1.7477
G03 X168.9099 Y18.5356 I-0.4879 J1.3702
G02 X168.917 Y18.5381 I0.143 J-0.3931
G02 X168.9268 Y18.5414 I0.2364 J-0.6878
G02 X168.9387 Y18.5452 I0.2923 J-0.8919
G02 X168.9535 Y18.5498 I0.4527 J-1.4458
G03 X168.9657 Y18.5536 I-0.2465 J0.8166
G03 X168.9705 Y18.5551 I-0.4145 J1.3022
G03 X169.019 Y18.5681 I-0.1157 J0.5294
G03 X169.0218 Y18.569 I-0.161 J0.5062
G03 X169.0313 Y18.5714 I-0.1506 J0.6115
G03 X169.0494 Y18.5764 I-0.1773 J0.6743
G03 X169.0603 Y18.5797 I-0.1402 J0.4804
G03 X169.076 Y18.5833 I-0.4269 J1.9362
G03 X169.0892 Y18.5863 I-0.4419 J1.9295
G03 X169.1029 Y18.5897 I-0.1339 J0.5666
G02 X169.1344 Y18.596 I2.0668 J-10.2508
G02 X169.178 Y18.6045 I1.1191 J-5.6397
G02 X169.2131 Y18.611 I0.5557 J-2.9187
G02 X169.2446 Y18.6164 I0.6281 J-3.5284
G02 X169.256 Y18.6182 I0.0716 J-0.4239
G02 X169.2651 Y18.6193 I0.0443 J-0.3133
G02 X169.2908 Y18.6221 I0.2358 J-2.1088
G03 X169.3077 Y18.6239 I-0.1187 J1.1928
G03 X169.3266 Y18.6262 I-0.1037 J0.9113
G03 X169.339 Y18.628 I-0.1629 J1.207
G03 X169.3592 Y18.6313 I-0.0726 J0.4993
G02 X169.4211 Y18.6346 I1.15 J-21.0605
G02 X169.5202 Y18.6388 I0.2819 J-5.4564
G02 X169.5868 Y18.6398 I0.0604 J-1.8047
G02 X170.0995 Y18.587 I-0.0089 J-2.599
G02 X170.6235 Y18.4297 I-0.6141 J-2.9979
G02 X171.1286 Y18.1742 I-1.2093 J-3.0183
G02 X171.5931 Y17.8291 I-1.8274 J-2.945
G02 X171.6167 Y17.8083 I-5.6178 J-6.3721
G02 X171.6365 Y17.7906 I-3.2423 J-3.6503
G02 X171.6432 Y17.7846 I-6.2653 J-6.977
G03 X171.6468 Y17.7809 I0.4149 J0.4164
G03 X171.6626 Y17.7656 I7.4294 J7.5882
G03 X171.6817 Y17.747 I4.7856 J4.9082
G03 X171.7028 Y17.7266 I7.4994 J7.7518
G02 X171.7345 Y17.6961 I-15.7704 J-16.3898
G02 X171.7464 Y17.6845 I-0.9242 J-0.9568
G02 X171.7488 Y17.682 I-0.1039 J-0.1049
G01 X171.7491 Y17.6817
G03 X171.7607 Y17.6693 I0.5172 J0.4702
G03 X171.7682 Y17.6614 I1.3965 J1.3328
G03 X171.7767 Y17.6526 I1.5084 J1.4559
G03 X171.7853 Y17.6439 I1.5297 J1.4939
G02 X171.7898 Y17.6393 I-0.8098 J-0.7999
G02 X171.7943 Y17.6347 I-0.7845 J-0.7661
G02 X171.7958 Y17.6331 I-0.6695 J-0.6463
G03 X171.7985 Y17.6302 I0.7378 J0.6765
G03 X171.8034 Y17.6249 I1.235 J1.1414
G03 X171.8084 Y17.6195 I1.2559 J1.1708
G03 X171.8138 Y17.6139 I0.8616 J0.8101
G02 X171.8154 Y17.6121 I-0.15 J-0.1429
G02 X171.8195 Y17.6077 I-0.6178 J-0.5751
G02 X171.8252 Y17.6015 I-1.0239 J-0.9396
G02 X171.8331 Y17.5928 I-2.4861 J-2.2543
G03 X171.8368 Y17.5887 I2.6149 J2.3543
G03 X171.8411 Y17.5839 I6.1994 J5.5991
G03 X171.8456 Y17.579 I6.4892 J5.8698
G03 X171.8496 Y17.5745 I4.0857 J3.7014
G01 X171.8502 Y17.5739
G02 X171.8527 Y17.571 I-0.5005 J-0.4455
G02 X171.8553 Y17.568 I-0.5014 J-0.4411
G01 X171.8558 Y17.5675
G03 X171.8611 Y17.5613 I1.2425 J1.0587
G03 X171.8665 Y17.555 I2.1361 J1.8386
G03 X171.8719 Y17.5488 I2.1318 J1.8458
G03 X171.8773 Y17.5426 I1.2369 J1.0774
G02 X171.8794 Y17.5402 I-0.4808 J-0.423
G02 X171.8829 Y17.5362 I-1.3722 J-1.1952
G02 X171.8864 Y17.5322 I-1.3746 J-1.1902
G02 X171.8884 Y17.5298 I-0.4793 J-0.4125
G03 X171.8929 Y17.5245 I1.9551 J1.6659
G03 X171.8976 Y17.519 I3.1173 J2.6705
G03 X171.9023 Y17.5137 I3.0188 J2.5955
G03 X171.9059 Y17.5095 I1.4662 J1.2651
G02 X171.9079 Y17.507 I-0.5556 J-0.4672
G02 X171.911 Y17.5033 I-0.6441 J-0.5367
G02 X171.9133 Y17.5005 I-0.378 J-0.3113
G03 X171.9207 Y17.4915 I1.0411 J0.8447
G03 X171.9279 Y17.4828 I1.3742 J1.135
G03 X171.9349 Y17.4744 I1.3069 J1.0934
G03 X171.9404 Y17.468 I0.7001 J0.5934
G01 X171.9408 Y17.4676
G02 X171.9433 Y17.4644 I-0.3119 J-0.2523
G02 X171.9447 Y17.4626 I-0.1422 J-0.1127
G03 X171.9507 Y17.4549 I3.2411 J2.5028
G03 X171.9569 Y17.4469 I4.1767 J3.2412
G03 X171.9628 Y17.4394 I3.8446 J2.9952
G03 X171.9681 Y17.4326 I1.3594 J1.0633
G02 X171.9695 Y17.4308 I-0.2291 J-0.1811
G02 X171.9742 Y17.4248 I-2.1835 J-1.6977
G02 X171.9794 Y17.418 I-2.4686 J-1.9085
G02 X171.9842 Y17.4118 I-1.9377 J-1.4896
G03 X171.9922 Y17.4014 I1.4876 J1.1361
G03 X172.0003 Y17.391 I1.9297 J1.4952
G03 X172.008 Y17.3812 I1.8057 J1.4147
G03 X172.0152 Y17.3723 I0.828 J0.656
G02 X172.0165 Y17.3705 I-0.301 J-0.2317
G02 X172.0192 Y17.3669 I-0.3437 J-0.2614
G02 X172.02 Y17.3658 I-0.0767 J-0.0571
G02 X172.0397 Y17.3385 I-21.639 J-15.6248
G02 X172.0513 Y17.3223 I-3.6094 J-2.5993
G02 X172.0603 Y17.3097 I-2.1069 J-1.5031
G02 X172.0712 Y17.2941 I-3.7861 J-2.6669
G02 X172.1307 Y17.2044 I-1.8806 J-1.3132
G02 X172.1942 Y17.0995 I-2.7627 J-1.7422
G02 X172.2525 Y16.9943 I-2.747 J-1.5915
G02 X172.2963 Y16.906 I-1.6577 J-0.8782
G02 X172.3101 Y16.876 I-5.1132 J-2.3737
G02 X172.3221 Y16.8496 I-3.4482 J-1.5763
G02 X172.3273 Y16.8379 I-4.7903 J-2.1457
G03 X172.331 Y16.8287 I0.5439 J0.2089
G03 X172.3362 Y16.8158 I1.7367 J0.7014
G03 X172.3425 Y16.8007 I1.7533 J0.7232
G03 X172.349 Y16.7856 I2.1009 J0.8879
G02 X172.3522 Y16.778 I-0.7939 J-0.3423
G02 X172.3545 Y16.7725 I-0.6356 J-0.2669
G03 X172.3567 Y16.7663 I0.6284 J0.2253
G03 X172.3612 Y16.7545 I1.3581 J0.5021
G03 X172.3661 Y16.7416 I1.4619 J0.5551
G03 X172.3712 Y16.7287 I1.3975 J0.5448
G02 X172.3728 Y16.7247 I-0.411 J-0.1646
G02 X172.3743 Y16.7209 I-0.4691 J-0.1826
G03 X172.3749 Y16.7191 I1.0192 J0.3442
G03 X172.3775 Y16.7114 I2.0526 J0.6972
G03 X172.3803 Y16.7034 I2.1551 J0.7411
G03 X172.3831 Y16.6953 I1.5777 J0.5491
G01 X172.3852 Y16.6895
G01 X172.3877 Y16.6825
G01 X172.3894 Y16.6775
