( Made using CamBam - http://www.cambam.info )
( Rückplatte 10/4/2024 3:59:30 PM )
( T0 : 1.0 )
G21 G90 G40
G53 G00 Z-1
M00
( T0 : 1.0 )
G00 Z3.0
( Drill2 )
G17
M03 S20000
G00 X5.4026 Y120.901
G00 Z3.0
G00 X6.0026 Y120.901
G00 Z2.0
G01 Z1.0 F300.0
G02 X5.1026 Y120.3813 Z0.9833 I-0.6 J0.0 F100.0
G02 Y121.4206 Z0.9667 I0.3 J0.5196
G02 X6.0026 Y120.901 Z0.95 I0.3 J-0.5196
G02 X5.1026 Y120.3813 Z0.9333 I-0.6 J0.0
G02 Y121.4206 Z0.9167 I0.3 J0.5196
G02 X6.0026 Y120.901 Z0.9 I0.3 J-0.5196
G02 X5.1026 Y120.3813 Z0.8833 I-0.6 J0.0
G02 Y121.4206 Z0.8667 I0.3 J0.5196
G02 X6.0026 Y120.901 Z0.85 I0.3 J-0.5196
G02 X5.1026 Y120.3813 Z0.8333 I-0.6 J0.0
G02 Y121.4206 Z0.8167 I0.3 J0.5196
G02 X6.0026 Y120.901 Z0.8 I0.3 J-0.5196
G02 X5.1026 Y120.3813 Z0.7833 I-0.6 J0.0
G02 Y121.4206 Z0.7667 I0.3 J0.5196
G02 X6.0026 Y120.901 Z0.75 I0.3 J-0.5196
G02 X5.1026 Y120.3813 Z0.7333 I-0.6 J0.0
G02 Y121.4206 Z0.7167 I0.3 J0.5196
G02 X6.0026 Y120.901 Z0.7 I0.3 J-0.5196
G02 X5.1026 Y120.3813 Z0.6833 I-0.6 J0.0
G02 Y121.4206 Z0.6667 I0.3 J0.5196
G02 X6.0026 Y120.901 Z0.65 I0.3 J-0.5196
G02 X5.1026 Y120.3813 Z0.6333 I-0.6 J0.0
G02 Y121.4206 Z0.6167 I0.3 J0.5196
G02 X6.0026 Y120.901 Z0.6 I0.3 J-0.5196
G02 X5.1026 Y120.3813 Z0.5833 I-0.6 J0.0
G02 Y121.4206 Z0.5667 I0.3 J0.5196
G02 X6.0026 Y120.901 Z0.55 I0.3 J-0.5196
G02 X5.1026 Y120.3813 Z0.5333 I-0.6 J0.0
G02 Y121.4206 Z0.5167 I0.3 J0.5196
G02 X6.0026 Y120.901 Z0.5 I0.3 J-0.5196
G02 X5.1026 Y120.3813 Z0.4833 I-0.6 J0.0
G02 Y121.4206 Z0.4667 I0.3 J0.5196
G02 X6.0026 Y120.901 Z0.45 I0.3 J-0.5196
G02 X5.1026 Y120.3813 Z0.4333 I-0.6 J0.0
G02 Y121.4206 Z0.4167 I0.3 J0.5196
G02 X6.0026 Y120.901 Z0.4 I0.3 J-0.5196
G02 X5.1026 Y120.3813 Z0.3833 I-0.6 J0.0
G02 Y121.4206 Z0.3667 I0.3 J0.5196
G02 X6.0026 Y120.901 Z0.35 I0.3 J-0.5196
G02 X5.1026 Y120.3813 Z0.3333 I-0.6 J0.0
G02 Y121.4206 Z0.3167 I0.3 J0.5196
G02 X6.0026 Y120.901 Z0.3 I0.3 J-0.5196
G02 X5.1026 Y120.3813 Z0.2833 I-0.6 J0.0
G02 Y121.4206 Z0.2667 I0.3 J0.5196
G02 X6.0026 Y120.901 Z0.25 I0.3 J-0.5196
G02 X5.1026 Y120.3813 Z0.2333 I-0.6 J0.0
G02 Y121.4206 Z0.2167 I0.3 J0.5196
G02 X6.0026 Y120.901 Z0.2 I0.3 J-0.5196
G02 X5.1026 Y120.3813 Z0.1833 I-0.6 J0.0
G02 Y121.4206 Z0.1667 I0.3 J0.5196
G02 X6.0026 Y120.901 Z0.15 I0.3 J-0.5196
G02 X5.1026 Y120.3813 Z0.1333 I-0.6 J0.0
G02 Y121.4206 Z0.1167 I0.3 J0.5196
G02 X6.0026 Y120.901 Z0.1 I0.3 J-0.5196
G02 X5.1026 Y120.3813 Z0.0833 I-0.6 J0.0
G02 Y121.4206 Z0.0667 I0.3 J0.5196
G02 X6.0026 Y120.901 Z0.05 I0.3 J-0.5196
G02 X5.1026 Y120.3813 Z0.0333 I-0.6 J0.0
G02 Y121.4206 Z0.0167 I0.3 J0.5196
G02 X6.0026 Y120.901 Z0.0 I0.3 J-0.5196
G02 X5.1026 Y120.3813 Z-0.0167 I-0.6 J0.0
G02 Y121.4206 Z-0.0333 I0.3 J0.5196
G02 X6.0026 Y120.901 Z-0.05 I0.3 J-0.5196
G02 X5.1026 Y120.3813 Z-0.0667 I-0.6 J0.0
G02 Y121.4206 Z-0.0833 I0.3 J0.5196
G02 X6.0026 Y120.901 Z-0.1 I0.3 J-0.5196
G02 X5.1026 Y120.3813 Z-0.1167 I-0.6 J0.0
G02 Y121.4206 Z-0.1333 I0.3 J0.5196
G02 X6.0026 Y120.901 Z-0.15 I0.3 J-0.5196
G02 X5.1026 Y120.3813 Z-0.1667 I-0.6 J0.0
G02 Y121.4206 Z-0.1833 I0.3 J0.5196
G02 X6.0026 Y120.901 Z-0.2 I0.3 J-0.5196
G02 X5.1026 Y120.3813 Z-0.2167 I-0.6 J0.0
G02 Y121.4206 Z-0.2333 I0.3 J0.5196
G02 X6.0026 Y120.901 Z-0.25 I0.3 J-0.5196
G02 X5.1026 Y120.3813 Z-0.2667 I-0.6 J0.0
G02 Y121.4206 Z-0.2833 I0.3 J0.5196
G02 X6.0026 Y120.901 Z-0.3 I0.3 J-0.5196
G02 X5.1026 Y120.3813 Z-0.3167 I-0.6 J0.0
G02 Y121.4206 Z-0.3333 I0.3 J0.5196
G02 X6.0026 Y120.901 Z-0.35 I0.3 J-0.5196
G02 X5.1026 Y120.3813 Z-0.3667 I-0.6 J0.0
G02 Y121.4206 Z-0.3833 I0.3 J0.5196
G02 X6.0026 Y120.901 Z-0.4 I0.3 J-0.5196
G02 X5.1026 Y120.3813 Z-0.4167 I-0.6 J0.0
G02 Y121.4206 Z-0.4333 I0.3 J0.5196
G02 X6.0026 Y120.901 Z-0.45 I0.3 J-0.5196
G02 X5.1026 Y120.3813 Z-0.4667 I-0.6 J0.0
G02 Y121.4206 Z-0.4833 I0.3 J0.5196
G02 X6.0026 Y120.901 Z-0.5 I0.3 J-0.5196
G02 X5.1026 Y120.3813 Z-0.5167 I-0.6 J0.0
G02 Y121.4206 Z-0.5333 I0.3 J0.5196
G02 X6.0026 Y120.901 Z-0.55 I0.3 J-0.5196
G02 X5.1026 Y120.3813 Z-0.5667 I-0.6 J0.0
G02 Y121.4206 Z-0.5833 I0.3 J0.5196
G02 X6.0026 Y120.901 Z-0.6 I0.3 J-0.5196
G02 X5.1026 Y120.3813 Z-0.6167 I-0.6 J0.0
G02 Y121.4206 Z-0.6333 I0.3 J0.5196
G02 X6.0026 Y120.901 Z-0.65 I0.3 J-0.5196
G02 X5.1026 Y120.3813 Z-0.6667 I-0.6 J0.0
G02 Y121.4206 Z-0.6833 I0.3 J0.5196
G02 X6.0026 Y120.901 Z-0.7 I0.3 J-0.5196
G02 X5.1026 Y120.3813 Z-0.7167 I-0.6 J0.0
G02 Y121.4206 Z-0.7333 I0.3 J0.5196
G02 X6.0026 Y120.901 Z-0.75 I0.3 J-0.5196
G02 X5.1026 Y120.3813 Z-0.7667 I-0.6 J0.0
G02 Y121.4206 Z-0.7833 I0.3 J0.5196
G02 X6.0026 Y120.901 Z-0.8 I0.3 J-0.5196
G02 X5.1026 Y120.3813 Z-0.8167 I-0.6 J0.0
G02 Y121.4206 Z-0.8333 I0.3 J0.5196
G02 X6.0026 Y120.901 Z-0.85 I0.3 J-0.5196
G02 X5.1026 Y120.3813 Z-0.8667 I-0.6 J0.0
G02 Y121.4206 Z-0.8833 I0.3 J0.5196
G02 X6.0026 Y120.901 Z-0.9 I0.3 J-0.5196
G02 X5.1026 Y120.3813 Z-0.9167 I-0.6 J0.0
G02 Y121.4206 Z-0.9333 I0.3 J0.5196
G02 X6.0026 Y120.901 Z-0.95 I0.3 J-0.5196
G02 X5.1026 Y120.3813 Z-0.9667 I-0.6 J0.0
G02 Y121.4206 Z-0.9833 I0.3 J0.5196
G02 X6.0026 Y120.901 Z-1.0 I0.3 J-0.5196
G02 X5.1026 Y120.3813 Z-1.0167 I-0.6 J0.0
G02 Y121.4206 Z-1.0333 I0.3 J0.5196
G02 X6.0026 Y120.901 Z-1.05 I0.3 J-0.5196
G02 X5.1026 Y120.3813 Z-1.0667 I-0.6 J0.0
G02 Y121.4206 Z-1.0833 I0.3 J0.5196
G02 X6.0026 Y120.901 Z-1.1 I0.3 J-0.5196
G02 X5.1026 Y120.3813 Z-1.1167 I-0.6 J0.0
G02 Y121.4206 Z-1.1333 I0.3 J0.5196
G02 X6.0026 Y120.901 Z-1.15 I0.3 J-0.5196
G02 X5.1026 Y120.3813 Z-1.1667 I-0.6 J0.0
G02 Y121.4206 Z-1.1833 I0.3 J0.5196
G02 X6.0026 Y120.901 Z-1.2 I0.3 J-0.5196
G02 X5.1026 Y120.3813 Z-1.2167 I-0.6 J0.0
G02 Y121.4206 Z-1.2333 I0.3 J0.5196
G02 X6.0026 Y120.901 Z-1.25 I0.3 J-0.5196
G02 X5.1026 Y120.3813 Z-1.2667 I-0.6 J0.0
G02 Y121.4206 Z-1.2833 I0.3 J0.5196
G02 X6.0026 Y120.901 Z-1.3 I0.3 J-0.5196
G02 X5.1026 Y120.3813 Z-1.3167 I-0.6 J0.0
G02 Y121.4206 Z-1.3333 I0.3 J0.5196
G02 X6.0026 Y120.901 Z-1.35 I0.3 J-0.5196
G02 X5.1026 Y120.3813 Z-1.3667 I-0.6 J0.0
G02 Y121.4206 Z-1.3833 I0.3 J0.5196
G02 X6.0026 Y120.901 Z-1.4 I0.3 J-0.5196
G02 X5.1026 Y120.3813 Z-1.4167 I-0.6 J0.0
G02 Y121.4206 Z-1.4333 I0.3 J0.5196
G02 X6.0026 Y120.901 Z-1.45 I0.3 J-0.5196
G02 X5.1026 Y120.3813 Z-1.4667 I-0.6 J0.0
G02 Y121.4206 Z-1.4833 I0.3 J0.5196
G02 X6.0026 Y120.901 Z-1.5 I0.3 J-0.5196
G02 X5.1026 Y120.3813 I-0.6 J0.0
G02 Y121.4206 I0.3 J0.5196
G02 X6.0026 Y120.901 I0.3 J-0.5196
G00 Z3.0
G00 X100.7014 Y120.9518
G00 Z2.0
G01 Z1.0 F300.0
G02 X99.8014 Y120.4321 Z0.9833 I-0.6 J0.0 F100.0
G02 Y121.4714 Z0.9667 I0.3 J0.5196
G02 X100.7014 Y120.9518 Z0.95 I0.3 J-0.5196
G02 X99.8014 Y120.4321 Z0.9333 I-0.6 J0.0
G02 Y121.4714 Z0.9167 I0.3 J0.5196
G02 X100.7014 Y120.9518 Z0.9 I0.3 J-0.5196
G02 X99.8014 Y120.4321 Z0.8833 I-0.6 J0.0
G02 Y121.4714 Z0.8667 I0.3 J0.5196
G02 X100.7014 Y120.9518 Z0.85 I0.3 J-0.5196
G02 X99.8014 Y120.4321 Z0.8333 I-0.6 J0.0
G02 Y121.4714 Z0.8167 I0.3 J0.5196
G02 X100.7014 Y120.9518 Z0.8 I0.3 J-0.5196
G02 X99.8014 Y120.4321 Z0.7833 I-0.6 J0.0
G02 Y121.4714 Z0.7667 I0.3 J0.5196
G02 X100.7014 Y120.9518 Z0.75 I0.3 J-0.5196
G02 X99.8014 Y120.4321 Z0.7333 I-0.6 J0.0
G02 Y121.4714 Z0.7167 I0.3 J0.5196
G02 X100.7014 Y120.9518 Z0.7 I0.3 J-0.5196
G02 X99.8014 Y120.4321 Z0.6833 I-0.6 J0.0
G02 Y121.4714 Z0.6667 I0.3 J0.5196
G02 X100.7014 Y120.9518 Z0.65 I0.3 J-0.5196
G02 X99.8014 Y120.4321 Z0.6333 I-0.6 J0.0
G02 Y121.4714 Z0.6167 I0.3 J0.5196
G02 X100.7014 Y120.9518 Z0.6 I0.3 J-0.5196
G02 X99.8014 Y120.4321 Z0.5833 I-0.6 J0.0
G02 Y121.4714 Z0.5667 I0.3 J0.5196
G02 X100.7014 Y120.9518 Z0.55 I0.3 J-0.5196
G02 X99.8014 Y120.4321 Z0.5333 I-0.6 J0.0
G02 Y121.4714 Z0.5167 I0.3 J0.5196
G02 X100.7014 Y120.9518 Z0.5 I0.3 J-0.5196
G02 X99.8014 Y120.4321 Z0.4833 I-0.6 J0.0
G02 Y121.4714 Z0.4667 I0.3 J0.5196
G02 X100.7014 Y120.9518 Z0.45 I0.3 J-0.5196
G02 X99.8014 Y120.4321 Z0.4333 I-0.6 J0.0
G02 Y121.4714 Z0.4167 I0.3 J0.5196
G02 X100.7014 Y120.9518 Z0.4 I0.3 J-0.5196
G02 X99.8014 Y120.4321 Z0.3833 I-0.6 J0.0
G02 Y121.4714 Z0.3667 I0.3 J0.5196
G02 X100.7014 Y120.9518 Z0.35 I0.3 J-0.5196
G02 X99.8014 Y120.4321 Z0.3333 I-0.6 J0.0
G02 Y121.4714 Z0.3167 I0.3 J0.5196
G02 X100.7014 Y120.9518 Z0.3 I0.3 J-0.5196
G02 X99.8014 Y120.4321 Z0.2833 I-0.6 J0.0
G02 Y121.4714 Z0.2667 I0.3 J0.5196
G02 X100.7014 Y120.9518 Z0.25 I0.3 J-0.5196
G02 X99.8014 Y120.4321 Z0.2333 I-0.6 J0.0
G02 Y121.4714 Z0.2167 I0.3 J0.5196
G02 X100.7014 Y120.9518 Z0.2 I0.3 J-0.5196
G02 X99.8014 Y120.4321 Z0.1833 I-0.6 J0.0
G02 Y121.4714 Z0.1667 I0.3 J0.5196
G02 X100.7014 Y120.9518 Z0.15 I0.3 J-0.5196
G02 X99.8014 Y120.4321 Z0.1333 I-0.6 J0.0
G02 Y121.4714 Z0.1167 I0.3 J0.5196
G02 X100.7014 Y120.9518 Z0.1 I0.3 J-0.5196
G02 X99.8014 Y120.4321 Z0.0833 I-0.6 J0.0
G02 Y121.4714 Z0.0667 I0.3 J0.5196
G02 X100.7014 Y120.9518 Z0.05 I0.3 J-0.5196
G02 X99.8014 Y120.4321 Z0.0333 I-0.6 J0.0
G02 Y121.4714 Z0.0167 I0.3 J0.5196
G02 X100.7014 Y120.9518 Z0.0 I0.3 J-0.5196
G02 X99.8014 Y120.4321 Z-0.0167 I-0.6 J0.0
G02 Y121.4714 Z-0.0333 I0.3 J0.5196
G02 X100.7014 Y120.9518 Z-0.05 I0.3 J-0.5196
G02 X99.8014 Y120.4321 Z-0.0667 I-0.6 J0.0
G02 Y121.4714 Z-0.0833 I0.3 J0.5196
G02 X100.7014 Y120.9518 Z-0.1 I0.3 J-0.5196
G02 X99.8014 Y120.4321 Z-0.1167 I-0.6 J0.0
G02 Y121.4714 Z-0.1333 I0.3 J0.5196
G02 X100.7014 Y120.9518 Z-0.15 I0.3 J-0.5196
G02 X99.8014 Y120.4321 Z-0.1667 I-0.6 J0.0
G02 Y121.4714 Z-0.1833 I0.3 J0.5196
G02 X100.7014 Y120.9518 Z-0.2 I0.3 J-0.5196
G02 X99.8014 Y120.4321 Z-0.2167 I-0.6 J0.0
G02 Y121.4714 Z-0.2333 I0.3 J0.5196
G02 X100.7014 Y120.9518 Z-0.25 I0.3 J-0.5196
G02 X99.8014 Y120.4321 Z-0.2667 I-0.6 J0.0
G02 Y121.4714 Z-0.2833 I0.3 J0.5196
G02 X100.7014 Y120.9518 Z-0.3 I0.3 J-0.5196
G02 X99.8014 Y120.4321 Z-0.3167 I-0.6 J0.0
G02 Y121.4714 Z-0.3333 I0.3 J0.5196
G02 X100.7014 Y120.9518 Z-0.35 I0.3 J-0.5196
G02 X99.8014 Y120.4321 Z-0.3667 I-0.6 J0.0
G02 Y121.4714 Z-0.3833 I0.3 J0.5196
G02 X100.7014 Y120.9518 Z-0.4 I0.3 J-0.5196
G02 X99.8014 Y120.4321 Z-0.4167 I-0.6 J0.0
G02 Y121.4714 Z-0.4333 I0.3 J0.5196
G02 X100.7014 Y120.9518 Z-0.45 I0.3 J-0.5196
G02 X99.8014 Y120.4321 Z-0.4667 I-0.6 J0.0
G02 Y121.4714 Z-0.4833 I0.3 J0.5196
G02 X100.7014 Y120.9518 Z-0.5 I0.3 J-0.5196
G02 X99.8014 Y120.4321 Z-0.5167 I-0.6 J0.0
G02 Y121.4714 Z-0.5333 I0.3 J0.5196
G02 X100.7014 Y120.9518 Z-0.55 I0.3 J-0.5196
G02 X99.8014 Y120.4321 Z-0.5667 I-0.6 J0.0
G02 Y121.4714 Z-0.5833 I0.3 J0.5196
G02 X100.7014 Y120.9518 Z-0.6 I0.3 J-0.5196
G02 X99.8014 Y120.4321 Z-0.6167 I-0.6 J0.0
G02 Y121.4714 Z-0.6333 I0.3 J0.5196
G02 X100.7014 Y120.9518 Z-0.65 I0.3 J-0.5196
G02 X99.8014 Y120.4321 Z-0.6667 I-0.6 J0.0
G02 Y121.4714 Z-0.6833 I0.3 J0.5196
G02 X100.7014 Y120.9518 Z-0.7 I0.3 J-0.5196
G02 X99.8014 Y120.4321 Z-0.7167 I-0.6 J0.0
G02 Y121.4714 Z-0.7333 I0.3 J0.5196
G02 X100.7014 Y120.9518 Z-0.75 I0.3 J-0.5196
G02 X99.8014 Y120.4321 Z-0.7667 I-0.6 J0.0
G02 Y121.4714 Z-0.7833 I0.3 J0.5196
G02 X100.7014 Y120.9518 Z-0.8 I0.3 J-0.5196
G02 X99.8014 Y120.4321 Z-0.8167 I-0.6 J0.0
G02 Y121.4714 Z-0.8333 I0.3 J0.5196
G02 X100.7014 Y120.9518 Z-0.85 I0.3 J-0.5196
G02 X99.8014 Y120.4321 Z-0.8667 I-0.6 J0.0
G02 Y121.4714 Z-0.8833 I0.3 J0.5196
G02 X100.7014 Y120.9518 Z-0.9 I0.3 J-0.5196
G02 X99.8014 Y120.4321 Z-0.9167 I-0.6 J0.0
G02 Y121.4714 Z-0.9333 I0.3 J0.5196
G02 X100.7014 Y120.9518 Z-0.95 I0.3 J-0.5196
G02 X99.8014 Y120.4321 Z-0.9667 I-0.6 J0.0
G02 Y121.4714 Z-0.9833 I0.3 J0.5196
G02 X100.7014 Y120.9518 Z-1.0 I0.3 J-0.5196
G02 X99.8014 Y120.4321 Z-1.0167 I-0.6 J0.0
G02 Y121.4714 Z-1.0333 I0.3 J0.5196
G02 X100.7014 Y120.9518 Z-1.05 I0.3 J-0.5196
G02 X99.8014 Y120.4321 Z-1.0667 I-0.6 J0.0
G02 Y121.4714 Z-1.0833 I0.3 J0.5196
G02 X100.7014 Y120.9518 Z-1.1 I0.3 J-0.5196
G02 X99.8014 Y120.4321 Z-1.1167 I-0.6 J0.0
G02 Y121.4714 Z-1.1333 I0.3 J0.5196
G02 X100.7014 Y120.9518 Z-1.15 I0.3 J-0.5196
G02 X99.8014 Y120.4321 Z-1.1667 I-0.6 J0.0
G02 Y121.4714 Z-1.1833 I0.3 J0.5196
G02 X100.7014 Y120.9518 Z-1.2 I0.3 J-0.5196
G02 X99.8014 Y120.4321 Z-1.2167 I-0.6 J0.0
G02 Y121.4714 Z-1.2333 I0.3 J0.5196
G02 X100.7014 Y120.9518 Z-1.25 I0.3 J-0.5196
G02 X99.8014 Y120.4321 Z-1.2667 I-0.6 J0.0
G02 Y121.4714 Z-1.2833 I0.3 J0.5196
G02 X100.7014 Y120.9518 Z-1.3 I0.3 J-0.5196
G02 X99.8014 Y120.4321 Z-1.3167 I-0.6 J0.0
G02 Y121.4714 Z-1.3333 I0.3 J0.5196
G02 X100.7014 Y120.9518 Z-1.35 I0.3 J-0.5196
G02 X99.8014 Y120.4321 Z-1.3667 I-0.6 J0.0
G02 Y121.4714 Z-1.3833 I0.3 J0.5196
G02 X100.7014 Y120.9518 Z-1.4 I0.3 J-0.5196
G02 X99.8014 Y120.4321 Z-1.4167 I-0.6 J0.0
G02 Y121.4714 Z-1.4333 I0.3 J0.5196
G02 X100.7014 Y120.9518 Z-1.45 I0.3 J-0.5196
G02 X99.8014 Y120.4321 Z-1.4667 I-0.6 J0.0
G02 Y121.4714 Z-1.4833 I0.3 J0.5196
G02 X100.7014 Y120.9518 Z-1.5 I0.3 J-0.5196
G02 X99.8014 Y120.4321 I-0.6 J0.0
G02 Y121.4714 I0.3 J0.5196
G02 X100.7014 Y120.9518 I0.3 J-0.5196
G00 Z3.0
G00 X195.4028 Y120.901
G00 Z2.0
G01 Z1.0 F300.0
G02 X194.5028 Y120.3813 Z0.9833 I-0.6 J0.0 F100.0
G02 Y121.4206 Z0.9667 I0.3 J0.5196
G02 X195.4028 Y120.901 Z0.95 I0.3 J-0.5196
G02 X194.5028 Y120.3813 Z0.9333 I-0.6 J0.0
G02 Y121.4206 Z0.9167 I0.3 J0.5196
G02 X195.4028 Y120.901 Z0.9 I0.3 J-0.5196
G02 X194.5028 Y120.3813 Z0.8833 I-0.6 J0.0
G02 Y121.4206 Z0.8667 I0.3 J0.5196
G02 X195.4028 Y120.901 Z0.85 I0.3 J-0.5196
G02 X194.5028 Y120.3813 Z0.8333 I-0.6 J0.0
G02 Y121.4206 Z0.8167 I0.3 J0.5196
G02 X195.4028 Y120.901 Z0.8 I0.3 J-0.5196
G02 X194.5028 Y120.3813 Z0.7833 I-0.6 J0.0
G02 Y121.4206 Z0.7667 I0.3 J0.5196
G02 X195.4028 Y120.901 Z0.75 I0.3 J-0.5196
G02 X194.5028 Y120.3813 Z0.7333 I-0.6 J0.0
G02 Y121.4206 Z0.7167 I0.3 J0.5196
G02 X195.4028 Y120.901 Z0.7 I0.3 J-0.5196
G02 X194.5028 Y120.3813 Z0.6833 I-0.6 J0.0
G02 Y121.4206 Z0.6667 I0.3 J0.5196
G02 X195.4028 Y120.901 Z0.65 I0.3 J-0.5196
G02 X194.5028 Y120.3813 Z0.6333 I-0.6 J0.0
G02 Y121.4206 Z0.6167 I0.3 J0.5196
G02 X195.4028 Y120.901 Z0.6 I0.3 J-0.5196
G02 X194.5028 Y120.3813 Z0.5833 I-0.6 J0.0
G02 Y121.4206 Z0.5667 I0.3 J0.5196
G02 X195.4028 Y120.901 Z0.55 I0.3 J-0.5196
G02 X194.5028 Y120.3813 Z0.5333 I-0.6 J0.0
G02 Y121.4206 Z0.5167 I0.3 J0.5196
G02 X195.4028 Y120.901 Z0.5 I0.3 J-0.5196
G02 X194.5028 Y120.3813 Z0.4833 I-0.6 J0.0
G02 Y121.4206 Z0.4667 I0.3 J0.5196
G02 X195.4028 Y120.901 Z0.45 I0.3 J-0.5196
G02 X194.5028 Y120.3813 Z0.4333 I-0.6 J0.0
G02 Y121.4206 Z0.4167 I0.3 J0.5196
G02 X195.4028 Y120.901 Z0.4 I0.3 J-0.5196
G02 X194.5028 Y120.3813 Z0.3833 I-0.6 J0.0
G02 Y121.4206 Z0.3667 I0.3 J0.5196
G02 X195.4028 Y120.901 Z0.35 I0.3 J-0.5196
G02 X194.5028 Y120.3813 Z0.3333 I-0.6 J0.0
G02 Y121.4206 Z0.3167 I0.3 J0.5196
G02 X195.4028 Y120.901 Z0.3 I0.3 J-0.5196
G02 X194.5028 Y120.3813 Z0.2833 I-0.6 J0.0
G02 Y121.4206 Z0.2667 I0.3 J0.5196
G02 X195.4028 Y120.901 Z0.25 I0.3 J-0.5196
G02 X194.5028 Y120.3813 Z0.2333 I-0.6 J0.0
G02 Y121.4206 Z0.2167 I0.3 J0.5196
G02 X195.4028 Y120.901 Z0.2 I0.3 J-0.5196
G02 X194.5028 Y120.3813 Z0.1833 I-0.6 J0.0
G02 Y121.4206 Z0.1667 I0.3 J0.5196
G02 X195.4028 Y120.901 Z0.15 I0.3 J-0.5196
G02 X194.5028 Y120.3813 Z0.1333 I-0.6 J0.0
G02 Y121.4206 Z0.1167 I0.3 J0.5196
G02 X195.4028 Y120.901 Z0.1 I0.3 J-0.5196
G02 X194.5028 Y120.3813 Z0.0833 I-0.6 J0.0
G02 Y121.4206 Z0.0667 I0.3 J0.5196
G02 X195.4028 Y120.901 Z0.05 I0.3 J-0.5196
G02 X194.5028 Y120.3813 Z0.0333 I-0.6 J0.0
G02 Y121.4206 Z0.0167 I0.3 J0.5196
G02 X195.4028 Y120.901 Z0.0 I0.3 J-0.5196
G02 X194.5028 Y120.3813 Z-0.0167 I-0.6 J0.0
G02 Y121.4206 Z-0.0333 I0.3 J0.5196
G02 X195.4028 Y120.901 Z-0.05 I0.3 J-0.5196
G02 X194.5028 Y120.3813 Z-0.0667 I-0.6 J0.0
G02 Y121.4206 Z-0.0833 I0.3 J0.5196
G02 X195.4028 Y120.901 Z-0.1 I0.3 J-0.5196
G02 X194.5028 Y120.3813 Z-0.1167 I-0.6 J0.0
G02 Y121.4206 Z-0.1333 I0.3 J0.5196
G02 X195.4028 Y120.901 Z-0.15 I0.3 J-0.5196
G02 X194.5028 Y120.3813 Z-0.1667 I-0.6 J0.0
G02 Y121.4206 Z-0.1833 I0.3 J0.5196
G02 X195.4028 Y120.901 Z-0.2 I0.3 J-0.5196
G02 X194.5028 Y120.3813 Z-0.2167 I-0.6 J0.0
G02 Y121.4206 Z-0.2333 I0.3 J0.5196
G02 X195.4028 Y120.901 Z-0.25 I0.3 J-0.5196
G02 X194.5028 Y120.3813 Z-0.2667 I-0.6 J0.0
G02 Y121.4206 Z-0.2833 I0.3 J0.5196
G02 X195.4028 Y120.901 Z-0.3 I0.3 J-0.5196
G02 X194.5028 Y120.3813 Z-0.3167 I-0.6 J0.0
G02 Y121.4206 Z-0.3333 I0.3 J0.5196
G02 X195.4028 Y120.901 Z-0.35 I0.3 J-0.5196
G02 X194.5028 Y120.3813 Z-0.3667 I-0.6 J0.0
G02 Y121.4206 Z-0.3833 I0.3 J0.5196
G02 X195.4028 Y120.901 Z-0.4 I0.3 J-0.5196
G02 X194.5028 Y120.3813 Z-0.4167 I-0.6 J0.0
G02 Y121.4206 Z-0.4333 I0.3 J0.5196
G02 X195.4028 Y120.901 Z-0.45 I0.3 J-0.5196
G02 X194.5028 Y120.3813 Z-0.4667 I-0.6 J0.0
G02 Y121.4206 Z-0.4833 I0.3 J0.5196
G02 X195.4028 Y120.901 Z-0.5 I0.3 J-0.5196
G02 X194.5028 Y120.3813 Z-0.5167 I-0.6 J0.0
G02 Y121.4206 Z-0.5333 I0.3 J0.5196
G02 X195.4028 Y120.901 Z-0.55 I0.3 J-0.5196
G02 X194.5028 Y120.3813 Z-0.5667 I-0.6 J0.0
G02 Y121.4206 Z-0.5833 I0.3 J0.5196
G02 X195.4028 Y120.901 Z-0.6 I0.3 J-0.5196
G02 X194.5028 Y120.3813 Z-0.6167 I-0.6 J0.0
G02 Y121.4206 Z-0.6333 I0.3 J0.5196
G02 X195.4028 Y120.901 Z-0.65 I0.3 J-0.5196
G02 X194.5028 Y120.3813 Z-0.6667 I-0.6 J0.0
G02 Y121.4206 Z-0.6833 I0.3 J0.5196
G02 X195.4028 Y120.901 Z-0.7 I0.3 J-0.5196
G02 X194.5028 Y120.3813 Z-0.7167 I-0.6 J0.0
G02 Y121.4206 Z-0.7333 I0.3 J0.5196
G02 X195.4028 Y120.901 Z-0.75 I0.3 J-0.5196
G02 X194.5028 Y120.3813 Z-0.7667 I-0.6 J0.0
G02 Y121.4206 Z-0.7833 I0.3 J0.5196
G02 X195.4028 Y120.901 Z-0.8 I0.3 J-0.5196
G02 X194.5028 Y120.3813 Z-0.8167 I-0.6 J0.0
G02 Y121.4206 Z-0.8333 I0.3 J0.5196
G02 X195.4028 Y120.901 Z-0.85 I0.3 J-0.5196
G02 X194.5028 Y120.3813 Z-0.8667 I-0.6 J0.0
G02 Y121.4206 Z-0.8833 I0.3 J0.5196
G02 X195.4028 Y120.901 Z-0.9 I0.3 J-0.5196
G02 X194.5028 Y120.3813 Z-0.9167 I-0.6 J0.0
G02 Y121.4206 Z-0.9333 I0.3 J0.5196
G02 X195.4028 Y120.901 Z-0.95 I0.3 J-0.5196
G02 X194.5028 Y120.3813 Z-0.9667 I-0.6 J0.0
G02 Y121.4206 Z-0.9833 I0.3 J0.5196
G02 X195.4028 Y120.901 Z-1.0 I0.3 J-0.5196
G02 X194.5028 Y120.3813 Z-1.0167 I-0.6 J0.0
G02 Y121.4206 Z-1.0333 I0.3 J0.5196
G02 X195.4028 Y120.901 Z-1.05 I0.3 J-0.5196
G02 X194.5028 Y120.3813 Z-1.0667 I-0.6 J0.0
G02 Y121.4206 Z-1.0833 I0.3 J0.5196
G02 X195.4028 Y120.901 Z-1.1 I0.3 J-0.5196
G02 X194.5028 Y120.3813 Z-1.1167 I-0.6 J0.0
G02 Y121.4206 Z-1.1333 I0.3 J0.5196
G02 X195.4028 Y120.901 Z-1.15 I0.3 J-0.5196
G02 X194.5028 Y120.3813 Z-1.1667 I-0.6 J0.0
G02 Y121.4206 Z-1.1833 I0.3 J0.5196
G02 X195.4028 Y120.901 Z-1.2 I0.3 J-0.5196
G02 X194.5028 Y120.3813 Z-1.2167 I-0.6 J0.0
G02 Y121.4206 Z-1.2333 I0.3 J0.5196
G02 X195.4028 Y120.901 Z-1.25 I0.3 J-0.5196
G02 X194.5028 Y120.3813 Z-1.2667 I-0.6 J0.0
G02 Y121.4206 Z-1.2833 I0.3 J0.5196
G02 X195.4028 Y120.901 Z-1.3 I0.3 J-0.5196
G02 X194.5028 Y120.3813 Z-1.3167 I-0.6 J0.0
G02 Y121.4206 Z-1.3333 I0.3 J0.5196
G02 X195.4028 Y120.901 Z-1.35 I0.3 J-0.5196
G02 X194.5028 Y120.3813 Z-1.3667 I-0.6 J0.0
G02 Y121.4206 Z-1.3833 I0.3 J0.5196
G02 X195.4028 Y120.901 Z-1.4 I0.3 J-0.5196
G02 X194.5028 Y120.3813 Z-1.4167 I-0.6 J0.0
G02 Y121.4206 Z-1.4333 I0.3 J0.5196
G02 X195.4028 Y120.901 Z-1.45 I0.3 J-0.5196
G02 X194.5028 Y120.3813 Z-1.4667 I-0.6 J0.0
G02 Y121.4206 Z-1.4833 I0.3 J0.5196
G02 X195.4028 Y120.901 Z-1.5 I0.3 J-0.5196
G02 X194.5028 Y120.3813 I-0.6 J0.0
G02 Y121.4206 I0.3 J0.5196
G02 X195.4028 Y120.901 I0.3 J-0.5196
G00 Z3.0
G00 Y4.9017
G00 Z2.0
G01 Z1.0 F300.0
G02 X194.5028 Y4.3821 Z0.9833 I-0.6 J0.0 F100.0
G02 Y5.4213 Z0.9667 I0.3 J0.5196
G02 X195.4028 Y4.9017 Z0.95 I0.3 J-0.5196
G02 X194.5028 Y4.3821 Z0.9333 I-0.6 J0.0
G02 Y5.4213 Z0.9167 I0.3 J0.5196
G02 X195.4028 Y4.9017 Z0.9 I0.3 J-0.5196
G02 X194.5028 Y4.3821 Z0.8833 I-0.6 J0.0
G02 Y5.4213 Z0.8667 I0.3 J0.5196
G02 X195.4028 Y4.9017 Z0.85 I0.3 J-0.5196
G02 X194.5028 Y4.3821 Z0.8333 I-0.6 J0.0
G02 Y5.4213 Z0.8167 I0.3 J0.5196
G02 X195.4028 Y4.9017 Z0.8 I0.3 J-0.5196
G02 X194.5028 Y4.3821 Z0.7833 I-0.6 J0.0
G02 Y5.4213 Z0.7667 I0.3 J0.5196
G02 X195.4028 Y4.9017 Z0.75 I0.3 J-0.5196
G02 X194.5028 Y4.3821 Z0.7333 I-0.6 J0.0
G02 Y5.4213 Z0.7167 I0.3 J0.5196
G02 X195.4028 Y4.9017 Z0.7 I0.3 J-0.5196
G02 X194.5028 Y4.3821 Z0.6833 I-0.6 J0.0
G02 Y5.4213 Z0.6667 I0.3 J0.5196
G02 X195.4028 Y4.9017 Z0.65 I0.3 J-0.5196
G02 X194.5028 Y4.3821 Z0.6333 I-0.6 J0.0
G02 Y5.4213 Z0.6167 I0.3 J0.5196
G02 X195.4028 Y4.9017 Z0.6 I0.3 J-0.5196
G02 X194.5028 Y4.3821 Z0.5833 I-0.6 J0.0
G02 Y5.4213 Z0.5667 I0.3 J0.5196
G02 X195.4028 Y4.9017 Z0.55 I0.3 J-0.5196
G02 X194.5028 Y4.3821 Z0.5333 I-0.6 J0.0
G02 Y5.4213 Z0.5167 I0.3 J0.5196
G02 X195.4028 Y4.9017 Z0.5 I0.3 J-0.5196
G02 X194.5028 Y4.3821 Z0.4833 I-0.6 J0.0
G02 Y5.4213 Z0.4667 I0.3 J0.5196
G02 X195.4028 Y4.9017 Z0.45 I0.3 J-0.5196
G02 X194.5028 Y4.3821 Z0.4333 I-0.6 J0.0
G02 Y5.4213 Z0.4167 I0.3 J0.5196
G02 X195.4028 Y4.9017 Z0.4 I0.3 J-0.5196
G02 X194.5028 Y4.3821 Z0.3833 I-0.6 J0.0
G02 Y5.4213 Z0.3667 I0.3 J0.5196
G02 X195.4028 Y4.9017 Z0.35 I0.3 J-0.5196
G02 X194.5028 Y4.3821 Z0.3333 I-0.6 J0.0
G02 Y5.4213 Z0.3167 I0.3 J0.5196
G02 X195.4028 Y4.9017 Z0.3 I0.3 J-0.5196
G02 X194.5028 Y4.3821 Z0.2833 I-0.6 J0.0
G02 Y5.4213 Z0.2667 I0.3 J0.5196
G02 X195.4028 Y4.9017 Z0.25 I0.3 J-0.5196
G02 X194.5028 Y4.3821 Z0.2333 I-0.6 J0.0
G02 Y5.4213 Z0.2167 I0.3 J0.5196
G02 X195.4028 Y4.9017 Z0.2 I0.3 J-0.5196
G02 X194.5028 Y4.3821 Z0.1833 I-0.6 J0.0
G02 Y5.4213 Z0.1667 I0.3 J0.5196
G02 X195.4028 Y4.9017 Z0.15 I0.3 J-0.5196
G02 X194.5028 Y4.3821 Z0.1333 I-0.6 J0.0
G02 Y5.4213 Z0.1167 I0.3 J0.5196
G02 X195.4028 Y4.9017 Z0.1 I0.3 J-0.5196
G02 X194.5028 Y4.3821 Z0.0833 I-0.6 J0.0
G02 Y5.4213 Z0.0667 I0.3 J0.5196
G02 X195.4028 Y4.9017 Z0.05 I0.3 J-0.5196
G02 X194.5028 Y4.3821 Z0.0333 I-0.6 J0.0
G02 Y5.4213 Z0.0167 I0.3 J0.5196
G02 X195.4028 Y4.9017 Z0.0 I0.3 J-0.5196
G02 X194.5028 Y4.3821 Z-0.0167 I-0.6 J0.0
G02 Y5.4213 Z-0.0333 I0.3 J0.5196
G02 X195.4028 Y4.9017 Z-0.05 I0.3 J-0.5196
G02 X194.5028 Y4.3821 Z-0.0667 I-0.6 J0.0
G02 Y5.4213 Z-0.0833 I0.3 J0.5196
G02 X195.4028 Y4.9017 Z-0.1 I0.3 J-0.5196
G02 X194.5028 Y4.3821 Z-0.1167 I-0.6 J0.0
G02 Y5.4213 Z-0.1333 I0.3 J0.5196
G02 X195.4028 Y4.9017 Z-0.15 I0.3 J-0.5196
G02 X194.5028 Y4.3821 Z-0.1667 I-0.6 J0.0
G02 Y5.4213 Z-0.1833 I0.3 J0.5196
G02 X195.4028 Y4.9017 Z-0.2 I0.3 J-0.5196
G02 X194.5028 Y4.3821 Z-0.2167 I-0.6 J0.0
G02 Y5.4213 Z-0.2333 I0.3 J0.5196
G02 X195.4028 Y4.9017 Z-0.25 I0.3 J-0.5196
G02 X194.5028 Y4.3821 Z-0.2667 I-0.6 J0.0
G02 Y5.4213 Z-0.2833 I0.3 J0.5196
G02 X195.4028 Y4.9017 Z-0.3 I0.3 J-0.5196
G02 X194.5028 Y4.3821 Z-0.3167 I-0.6 J0.0
G02 Y5.4213 Z-0.3333 I0.3 J0.5196
G02 X195.4028 Y4.9017 Z-0.35 I0.3 J-0.5196
G02 X194.5028 Y4.3821 Z-0.3667 I-0.6 J0.0
G02 Y5.4213 Z-0.3833 I0.3 J0.5196
G02 X195.4028 Y4.9017 Z-0.4 I0.3 J-0.5196
G02 X194.5028 Y4.3821 Z-0.4167 I-0.6 J0.0
G02 Y5.4213 Z-0.4333 I0.3 J0.5196
G02 X195.4028 Y4.9017 Z-0.45 I0.3 J-0.5196
G02 X194.5028 Y4.3821 Z-0.4667 I-0.6 J0.0
G02 Y5.4213 Z-0.4833 I0.3 J0.5196
G02 X195.4028 Y4.9017 Z-0.5 I0.3 J-0.5196
G02 X194.5028 Y4.3821 Z-0.5167 I-0.6 J0.0
G02 Y5.4213 Z-0.5333 I0.3 J0.5196
G02 X195.4028 Y4.9017 Z-0.55 I0.3 J-0.5196
G02 X194.5028 Y4.3821 Z-0.5667 I-0.6 J0.0
G02 Y5.4213 Z-0.5833 I0.3 J0.5196
G02 X195.4028 Y4.9017 Z-0.6 I0.3 J-0.5196
G02 X194.5028 Y4.3821 Z-0.6167 I-0.6 J0.0
G02 Y5.4213 Z-0.6333 I0.3 J0.5196
G02 X195.4028 Y4.9017 Z-0.65 I0.3 J-0.5196
G02 X194.5028 Y4.3821 Z-0.6667 I-0.6 J0.0
G02 Y5.4213 Z-0.6833 I0.3 J0.5196
G02 X195.4028 Y4.9017 Z-0.7 I0.3 J-0.5196
G02 X194.5028 Y4.3821 Z-0.7167 I-0.6 J0.0
G02 Y5.4213 Z-0.7333 I0.3 J0.5196
G02 X195.4028 Y4.9017 Z-0.75 I0.3 J-0.5196
G02 X194.5028 Y4.3821 Z-0.7667 I-0.6 J0.0
G02 Y5.4213 Z-0.7833 I0.3 J0.5196
G02 X195.4028 Y4.9017 Z-0.8 I0.3 J-0.5196
G02 X194.5028 Y4.3821 Z-0.8167 I-0.6 J0.0
G02 Y5.4213 Z-0.8333 I0.3 J0.5196
G02 X195.4028 Y4.9017 Z-0.85 I0.3 J-0.5196
G02 X194.5028 Y4.3821 Z-0.8667 I-0.6 J0.0
G02 Y5.4213 Z-0.8833 I0.3 J0.5196
G02 X195.4028 Y4.9017 Z-0.9 I0.3 J-0.5196
G02 X194.5028 Y4.3821 Z-0.9167 I-0.6 J0.0
G02 Y5.4213 Z-0.9333 I0.3 J0.5196
G02 X195.4028 Y4.9017 Z-0.95 I0.3 J-0.5196
G02 X194.5028 Y4.3821 Z-0.9667 I-0.6 J0.0
G02 Y5.4213 Z-0.9833 I0.3 J0.5196
G02 X195.4028 Y4.9017 Z-1.0 I0.3 J-0.5196
G02 X194.5028 Y4.3821 Z-1.0167 I-0.6 J0.0
G02 Y5.4213 Z-1.0333 I0.3 J0.5196
G02 X195.4028 Y4.9017 Z-1.05 I0.3 J-0.5196
G02 X194.5028 Y4.3821 Z-1.0667 I-0.6 J0.0
G02 Y5.4213 Z-1.0833 I0.3 J0.5196
G02 X195.4028 Y4.9017 Z-1.1 I0.3 J-0.5196
G02 X194.5028 Y4.3821 Z-1.1167 I-0.6 J0.0
G02 Y5.4213 Z-1.1333 I0.3 J0.5196
G02 X195.4028 Y4.9017 Z-1.15 I0.3 J-0.5196
G02 X194.5028 Y4.3821 Z-1.1667 I-0.6 J0.0
G02 Y5.4213 Z-1.1833 I0.3 J0.5196
G02 X195.4028 Y4.9017 Z-1.2 I0.3 J-0.5196
G02 X194.5028 Y4.3821 Z-1.2167 I-0.6 J0.0
G02 Y5.4213 Z-1.2333 I0.3 J0.5196
G02 X195.4028 Y4.9017 Z-1.25 I0.3 J-0.5196
G02 X194.5028 Y4.3821 Z-1.2667 I-0.6 J0.0
G02 Y5.4213 Z-1.2833 I0.3 J0.5196
G02 X195.4028 Y4.9017 Z-1.3 I0.3 J-0.5196
G02 X194.5028 Y4.3821 Z-1.3167 I-0.6 J0.0
G02 Y5.4213 Z-1.3333 I0.3 J0.5196
G02 X195.4028 Y4.9017 Z-1.35 I0.3 J-0.5196
G02 X194.5028 Y4.3821 Z-1.3667 I-0.6 J0.0
G02 Y5.4213 Z-1.3833 I0.3 J0.5196
G02 X195.4028 Y4.9017 Z-1.4 I0.3 J-0.5196
G02 X194.5028 Y4.3821 Z-1.4167 I-0.6 J0.0
G02 Y5.4213 Z-1.4333 I0.3 J0.5196
G02 X195.4028 Y4.9017 Z-1.45 I0.3 J-0.5196
G02 X194.5028 Y4.3821 Z-1.4667 I-0.6 J0.0
G02 Y5.4213 Z-1.4833 I0.3 J0.5196
G02 X195.4028 Y4.9017 Z-1.5 I0.3 J-0.5196
G02 X194.5028 Y4.3821 I-0.6 J0.0
G02 Y5.4213 I0.3 J0.5196
G02 X195.4028 Y4.9017 I0.3 J-0.5196
G00 Z3.0
G00 X132.3523
G00 Z2.0
G01 Z1.0 F300.0
G02 X131.4523 Y4.3821 Z0.9833 I-0.6 J0.0 F100.0
G02 Y5.4213 Z0.9667 I0.3 J0.5196
G02 X132.3523 Y4.9017 Z0.95 I0.3 J-0.5196
G02 X131.4523 Y4.3821 Z0.9333 I-0.6 J0.0
G02 Y5.4213 Z0.9167 I0.3 J0.5196
G02 X132.3523 Y4.9017 Z0.9 I0.3 J-0.5196
G02 X131.4523 Y4.3821 Z0.8833 I-0.6 J0.0
G02 Y5.4213 Z0.8667 I0.3 J0.5196
G02 X132.3523 Y4.9017 Z0.85 I0.3 J-0.5196
G02 X131.4523 Y4.3821 Z0.8333 I-0.6 J0.0
G02 Y5.4213 Z0.8167 I0.3 J0.5196
G02 X132.3523 Y4.9017 Z0.8 I0.3 J-0.5196
G02 X131.4523 Y4.3821 Z0.7833 I-0.6 J0.0
G02 Y5.4213 Z0.7667 I0.3 J0.5196
G02 X132.3523 Y4.9017 Z0.75 I0.3 J-0.5196
G02 X131.4523 Y4.3821 Z0.7333 I-0.6 J0.0
G02 Y5.4213 Z0.7167 I0.3 J0.5196
G02 X132.3523 Y4.9017 Z0.7 I0.3 J-0.5196
G02 X131.4523 Y4.3821 Z0.6833 I-0.6 J0.0
G02 Y5.4213 Z0.6667 I0.3 J0.5196
G02 X132.3523 Y4.9017 Z0.65 I0.3 J-0.5196
G02 X131.4523 Y4.3821 Z0.6333 I-0.6 J0.0
G02 Y5.4213 Z0.6167 I0.3 J0.5196
G02 X132.3523 Y4.9017 Z0.6 I0.3 J-0.5196
G02 X131.4523 Y4.3821 Z0.5833 I-0.6 J0.0
G02 Y5.4213 Z0.5667 I0.3 J0.5196
G02 X132.3523 Y4.9017 Z0.55 I0.3 J-0.5196
G02 X131.4523 Y4.3821 Z0.5333 I-0.6 J0.0
G02 Y5.4213 Z0.5167 I0.3 J0.5196
G02 X132.3523 Y4.9017 Z0.5 I0.3 J-0.5196
G02 X131.4523 Y4.3821 Z0.4833 I-0.6 J0.0
G02 Y5.4213 Z0.4667 I0.3 J0.5196
G02 X132.3523 Y4.9017 Z0.45 I0.3 J-0.5196
G02 X131.4523 Y4.3821 Z0.4333 I-0.6 J0.0
G02 Y5.4213 Z0.4167 I0.3 J0.5196
G02 X132.3523 Y4.9017 Z0.4 I0.3 J-0.5196
G02 X131.4523 Y4.3821 Z0.3833 I-0.6 J0.0
G02 Y5.4213 Z0.3667 I0.3 J0.5196
G02 X132.3523 Y4.9017 Z0.35 I0.3 J-0.5196
G02 X131.4523 Y4.3821 Z0.3333 I-0.6 J0.0
G02 Y5.4213 Z0.3167 I0.3 J0.5196
G02 X132.3523 Y4.9017 Z0.3 I0.3 J-0.5196
G02 X131.4523 Y4.3821 Z0.2833 I-0.6 J0.0
G02 Y5.4213 Z0.2667 I0.3 J0.5196
G02 X132.3523 Y4.9017 Z0.25 I0.3 J-0.5196
G02 X131.4523 Y4.3821 Z0.2333 I-0.6 J0.0
G02 Y5.4213 Z0.2167 I0.3 J0.5196
G02 X132.3523 Y4.9017 Z0.2 I0.3 J-0.5196
G02 X131.4523 Y4.3821 Z0.1833 I-0.6 J0.0
G02 Y5.4213 Z0.1667 I0.3 J0.5196
G02 X132.3523 Y4.9017 Z0.15 I0.3 J-0.5196
G02 X131.4523 Y4.3821 Z0.1333 I-0.6 J0.0
G02 Y5.4213 Z0.1167 I0.3 J0.5196
G02 X132.3523 Y4.9017 Z0.1 I0.3 J-0.5196
G02 X131.4523 Y4.3821 Z0.0833 I-0.6 J0.0
G02 Y5.4213 Z0.0667 I0.3 J0.5196
G02 X132.3523 Y4.9017 Z0.05 I0.3 J-0.5196
G02 X131.4523 Y4.3821 Z0.0333 I-0.6 J0.0
G02 Y5.4213 Z0.0167 I0.3 J0.5196
G02 X132.3523 Y4.9017 Z0.0 I0.3 J-0.5196
G02 X131.4523 Y4.3821 Z-0.0167 I-0.6 J0.0
G02 Y5.4213 Z-0.0333 I0.3 J0.5196
G02 X132.3523 Y4.9017 Z-0.05 I0.3 J-0.5196
G02 X131.4523 Y4.3821 Z-0.0667 I-0.6 J0.0
G02 Y5.4213 Z-0.0833 I0.3 J0.5196
G02 X132.3523 Y4.9017 Z-0.1 I0.3 J-0.5196
G02 X131.4523 Y4.3821 Z-0.1167 I-0.6 J0.0
G02 Y5.4213 Z-0.1333 I0.3 J0.5196
G02 X132.3523 Y4.9017 Z-0.15 I0.3 J-0.5196
G02 X131.4523 Y4.3821 Z-0.1667 I-0.6 J0.0
G02 Y5.4213 Z-0.1833 I0.3 J0.5196
G02 X132.3523 Y4.9017 Z-0.2 I0.3 J-0.5196
G02 X131.4523 Y4.3821 Z-0.2167 I-0.6 J0.0
G02 Y5.4213 Z-0.2333 I0.3 J0.5196
G02 X132.3523 Y4.9017 Z-0.25 I0.3 J-0.5196
G02 X131.4523 Y4.3821 Z-0.2667 I-0.6 J0.0
G02 Y5.4213 Z-0.2833 I0.3 J0.5196
G02 X132.3523 Y4.9017 Z-0.3 I0.3 J-0.5196
G02 X131.4523 Y4.3821 Z-0.3167 I-0.6 J0.0
G02 Y5.4213 Z-0.3333 I0.3 J0.5196
G02 X132.3523 Y4.9017 Z-0.35 I0.3 J-0.5196
G02 X131.4523 Y4.3821 Z-0.3667 I-0.6 J0.0
G02 Y5.4213 Z-0.3833 I0.3 J0.5196
G02 X132.3523 Y4.9017 Z-0.4 I0.3 J-0.5196
G02 X131.4523 Y4.3821 Z-0.4167 I-0.6 J0.0
G02 Y5.4213 Z-0.4333 I0.3 J0.5196
G02 X132.3523 Y4.9017 Z-0.45 I0.3 J-0.5196
G02 X131.4523 Y4.3821 Z-0.4667 I-0.6 J0.0
G02 Y5.4213 Z-0.4833 I0.3 J0.5196
G02 X132.3523 Y4.9017 Z-0.5 I0.3 J-0.5196
G02 X131.4523 Y4.3821 Z-0.5167 I-0.6 J0.0
G02 Y5.4213 Z-0.5333 I0.3 J0.5196
G02 X132.3523 Y4.9017 Z-0.55 I0.3 J-0.5196
G02 X131.4523 Y4.3821 Z-0.5667 I-0.6 J0.0
G02 Y5.4213 Z-0.5833 I0.3 J0.5196
G02 X132.3523 Y4.9017 Z-0.6 I0.3 J-0.5196
G02 X131.4523 Y4.3821 Z-0.6167 I-0.6 J0.0
G02 Y5.4213 Z-0.6333 I0.3 J0.5196
G02 X132.3523 Y4.9017 Z-0.65 I0.3 J-0.5196
G02 X131.4523 Y4.3821 Z-0.6667 I-0.6 J0.0
G02 Y5.4213 Z-0.6833 I0.3 J0.5196
G02 X132.3523 Y4.9017 Z-0.7 I0.3 J-0.5196
G02 X131.4523 Y4.3821 Z-0.7167 I-0.6 J0.0
G02 Y5.4213 Z-0.7333 I0.3 J0.5196
G02 X132.3523 Y4.9017 Z-0.75 I0.3 J-0.5196
G02 X131.4523 Y4.3821 Z-0.7667 I-0.6 J0.0
G02 Y5.4213 Z-0.7833 I0.3 J0.5196
G02 X132.3523 Y4.9017 Z-0.8 I0.3 J-0.5196
G02 X131.4523 Y4.3821 Z-0.8167 I-0.6 J0.0
G02 Y5.4213 Z-0.8333 I0.3 J0.5196
G02 X132.3523 Y4.9017 Z-0.85 I0.3 J-0.5196
G02 X131.4523 Y4.3821 Z-0.8667 I-0.6 J0.0
G02 Y5.4213 Z-0.8833 I0.3 J0.5196
G02 X132.3523 Y4.9017 Z-0.9 I0.3 J-0.5196
G02 X131.4523 Y4.3821 Z-0.9167 I-0.6 J0.0
G02 Y5.4213 Z-0.9333 I0.3 J0.5196
G02 X132.3523 Y4.9017 Z-0.95 I0.3 J-0.5196
G02 X131.4523 Y4.3821 Z-0.9667 I-0.6 J0.0
G02 Y5.4213 Z-0.9833 I0.3 J0.5196
G02 X132.3523 Y4.9017 Z-1.0 I0.3 J-0.5196
G02 X131.4523 Y4.3821 Z-1.0167 I-0.6 J0.0
G02 Y5.4213 Z-1.0333 I0.3 J0.5196
G02 X132.3523 Y4.9017 Z-1.05 I0.3 J-0.5196
G02 X131.4523 Y4.3821 Z-1.0667 I-0.6 J0.0
G02 Y5.4213 Z-1.0833 I0.3 J0.5196
G02 X132.3523 Y4.9017 Z-1.1 I0.3 J-0.5196
G02 X131.4523 Y4.3821 Z-1.1167 I-0.6 J0.0
G02 Y5.4213 Z-1.1333 I0.3 J0.5196
G02 X132.3523 Y4.9017 Z-1.15 I0.3 J-0.5196
G02 X131.4523 Y4.3821 Z-1.1667 I-0.6 J0.0
G02 Y5.4213 Z-1.1833 I0.3 J0.5196
G02 X132.3523 Y4.9017 Z-1.2 I0.3 J-0.5196
G02 X131.4523 Y4.3821 Z-1.2167 I-0.6 J0.0
G02 Y5.4213 Z-1.2333 I0.3 J0.5196
G02 X132.3523 Y4.9017 Z-1.25 I0.3 J-0.5196
G02 X131.4523 Y4.3821 Z-1.2667 I-0.6 J0.0
G02 Y5.4213 Z-1.2833 I0.3 J0.5196
G02 X132.3523 Y4.9017 Z-1.3 I0.3 J-0.5196
G02 X131.4523 Y4.3821 Z-1.3167 I-0.6 J0.0
G02 Y5.4213 Z-1.3333 I0.3 J0.5196
G02 X132.3523 Y4.9017 Z-1.35 I0.3 J-0.5196
G02 X131.4523 Y4.3821 Z-1.3667 I-0.6 J0.0
G02 Y5.4213 Z-1.3833 I0.3 J0.5196
G02 X132.3523 Y4.9017 Z-1.4 I0.3 J-0.5196
G02 X131.4523 Y4.3821 Z-1.4167 I-0.6 J0.0
G02 Y5.4213 Z-1.4333 I0.3 J0.5196
G02 X132.3523 Y4.9017 Z-1.45 I0.3 J-0.5196
G02 X131.4523 Y4.3821 Z-1.4667 I-0.6 J0.0
G02 Y5.4213 Z-1.4833 I0.3 J0.5196
G02 X132.3523 Y4.9017 Z-1.5 I0.3 J-0.5196
G02 X131.4523 Y4.3821 I-0.6 J0.0
G02 Y5.4213 I0.3 J0.5196
G02 X132.3523 Y4.9017 I0.3 J-0.5196
G00 Z3.0
G00 X69.1013
G00 Z2.0
G01 Z1.0 F300.0
G02 X68.2013 Y4.3821 Z0.9833 I-0.6 J0.0 F100.0
G02 Y5.4213 Z0.9667 I0.3 J0.5196
G02 X69.1013 Y4.9017 Z0.95 I0.3 J-0.5196
G02 X68.2013 Y4.3821 Z0.9333 I-0.6 J0.0
G02 Y5.4213 Z0.9167 I0.3 J0.5196
G02 X69.1013 Y4.9017 Z0.9 I0.3 J-0.5196
G02 X68.2013 Y4.3821 Z0.8833 I-0.6 J0.0
G02 Y5.4213 Z0.8667 I0.3 J0.5196
G02 X69.1013 Y4.9017 Z0.85 I0.3 J-0.5196
G02 X68.2013 Y4.3821 Z0.8333 I-0.6 J0.0
G02 Y5.4213 Z0.8167 I0.3 J0.5196
G02 X69.1013 Y4.9017 Z0.8 I0.3 J-0.5196
G02 X68.2013 Y4.3821 Z0.7833 I-0.6 J0.0
G02 Y5.4213 Z0.7667 I0.3 J0.5196
G02 X69.1013 Y4.9017 Z0.75 I0.3 J-0.5196
G02 X68.2013 Y4.3821 Z0.7333 I-0.6 J0.0
G02 Y5.4213 Z0.7167 I0.3 J0.5196
G02 X69.1013 Y4.9017 Z0.7 I0.3 J-0.5196
G02 X68.2013 Y4.3821 Z0.6833 I-0.6 J0.0
G02 Y5.4213 Z0.6667 I0.3 J0.5196
G02 X69.1013 Y4.9017 Z0.65 I0.3 J-0.5196
G02 X68.2013 Y4.3821 Z0.6333 I-0.6 J0.0
G02 Y5.4213 Z0.6167 I0.3 J0.5196
G02 X69.1013 Y4.9017 Z0.6 I0.3 J-0.5196
G02 X68.2013 Y4.3821 Z0.5833 I-0.6 J0.0
G02 Y5.4213 Z0.5667 I0.3 J0.5196
G02 X69.1013 Y4.9017 Z0.55 I0.3 J-0.5196
G02 X68.2013 Y4.3821 Z0.5333 I-0.6 J0.0
G02 Y5.4213 Z0.5167 I0.3 J0.5196
G02 X69.1013 Y4.9017 Z0.5 I0.3 J-0.5196
G02 X68.2013 Y4.3821 Z0.4833 I-0.6 J0.0
G02 Y5.4213 Z0.4667 I0.3 J0.5196
G02 X69.1013 Y4.9017 Z0.45 I0.3 J-0.5196
G02 X68.2013 Y4.3821 Z0.4333 I-0.6 J0.0
G02 Y5.4213 Z0.4167 I0.3 J0.5196
G02 X69.1013 Y4.9017 Z0.4 I0.3 J-0.5196
G02 X68.2013 Y4.3821 Z0.3833 I-0.6 J0.0
G02 Y5.4213 Z0.3667 I0.3 J0.5196
G02 X69.1013 Y4.9017 Z0.35 I0.3 J-0.5196
G02 X68.2013 Y4.3821 Z0.3333 I-0.6 J0.0
G02 Y5.4213 Z0.3167 I0.3 J0.5196
G02 X69.1013 Y4.9017 Z0.3 I0.3 J-0.5196
G02 X68.2013 Y4.3821 Z0.2833 I-0.6 J0.0
G02 Y5.4213 Z0.2667 I0.3 J0.5196
G02 X69.1013 Y4.9017 Z0.25 I0.3 J-0.5196
G02 X68.2013 Y4.3821 Z0.2333 I-0.6 J0.0
G02 Y5.4213 Z0.2167 I0.3 J0.5196
G02 X69.1013 Y4.9017 Z0.2 I0.3 J-0.5196
G02 X68.2013 Y4.3821 Z0.1833 I-0.6 J0.0
G02 Y5.4213 Z0.1667 I0.3 J0.5196
G02 X69.1013 Y4.9017 Z0.15 I0.3 J-0.5196
G02 X68.2013 Y4.3821 Z0.1333 I-0.6 J0.0
G02 Y5.4213 Z0.1167 I0.3 J0.5196
G02 X69.1013 Y4.9017 Z0.1 I0.3 J-0.5196
G02 X68.2013 Y4.3821 Z0.0833 I-0.6 J0.0
G02 Y5.4213 Z0.0667 I0.3 J0.5196
G02 X69.1013 Y4.9017 Z0.05 I0.3 J-0.5196
G02 X68.2013 Y4.3821 Z0.0333 I-0.6 J0.0
G02 Y5.4213 Z0.0167 I0.3 J0.5196
G02 X69.1013 Y4.9017 Z0.0 I0.3 J-0.5196
G02 X68.2013 Y4.3821 Z-0.0167 I-0.6 J0.0
G02 Y5.4213 Z-0.0333 I0.3 J0.5196
G02 X69.1013 Y4.9017 Z-0.05 I0.3 J-0.5196
G02 X68.2013 Y4.3821 Z-0.0667 I-0.6 J0.0
G02 Y5.4213 Z-0.0833 I0.3 J0.5196
G02 X69.1013 Y4.9017 Z-0.1 I0.3 J-0.5196
G02 X68.2013 Y4.3821 Z-0.1167 I-0.6 J0.0
G02 Y5.4213 Z-0.1333 I0.3 J0.5196
G02 X69.1013 Y4.9017 Z-0.15 I0.3 J-0.5196
G02 X68.2013 Y4.3821 Z-0.1667 I-0.6 J0.0
G02 Y5.4213 Z-0.1833 I0.3 J0.5196
G02 X69.1013 Y4.9017 Z-0.2 I0.3 J-0.5196
G02 X68.2013 Y4.3821 Z-0.2167 I-0.6 J0.0
G02 Y5.4213 Z-0.2333 I0.3 J0.5196
G02 X69.1013 Y4.9017 Z-0.25 I0.3 J-0.5196
G02 X68.2013 Y4.3821 Z-0.2667 I-0.6 J0.0
G02 Y5.4213 Z-0.2833 I0.3 J0.5196
G02 X69.1013 Y4.9017 Z-0.3 I0.3 J-0.5196
G02 X68.2013 Y4.3821 Z-0.3167 I-0.6 J0.0
G02 Y5.4213 Z-0.3333 I0.3 J0.5196
G02 X69.1013 Y4.9017 Z-0.35 I0.3 J-0.5196
G02 X68.2013 Y4.3821 Z-0.3667 I-0.6 J0.0
G02 Y5.4213 Z-0.3833 I0.3 J0.5196
G02 X69.1013 Y4.9017 Z-0.4 I0.3 J-0.5196
G02 X68.2013 Y4.3821 Z-0.4167 I-0.6 J0.0
G02 Y5.4213 Z-0.4333 I0.3 J0.5196
G02 X69.1013 Y4.9017 Z-0.45 I0.3 J-0.5196
G02 X68.2013 Y4.3821 Z-0.4667 I-0.6 J0.0
G02 Y5.4213 Z-0.4833 I0.3 J0.5196
G02 X69.1013 Y4.9017 Z-0.5 I0.3 J-0.5196
G02 X68.2013 Y4.3821 Z-0.5167 I-0.6 J0.0
G02 Y5.4213 Z-0.5333 I0.3 J0.5196
G02 X69.1013 Y4.9017 Z-0.55 I0.3 J-0.5196
G02 X68.2013 Y4.3821 Z-0.5667 I-0.6 J0.0
G02 Y5.4213 Z-0.5833 I0.3 J0.5196
G02 X69.1013 Y4.9017 Z-0.6 I0.3 J-0.5196
G02 X68.2013 Y4.3821 Z-0.6167 I-0.6 J0.0
G02 Y5.4213 Z-0.6333 I0.3 J0.5196
G02 X69.1013 Y4.9017 Z-0.65 I0.3 J-0.5196
G02 X68.2013 Y4.3821 Z-0.6667 I-0.6 J0.0
G02 Y5.4213 Z-0.6833 I0.3 J0.5196
G02 X69.1013 Y4.9017 Z-0.7 I0.3 J-0.5196
G02 X68.2013 Y4.3821 Z-0.7167 I-0.6 J0.0
G02 Y5.4213 Z-0.7333 I0.3 J0.5196
G02 X69.1013 Y4.9017 Z-0.75 I0.3 J-0.5196
G02 X68.2013 Y4.3821 Z-0.7667 I-0.6 J0.0
G02 Y5.4213 Z-0.7833 I0.3 J0.5196
G02 X69.1013 Y4.9017 Z-0.8 I0.3 J-0.5196
G02 X68.2013 Y4.3821 Z-0.8167 I-0.6 J0.0
G02 Y5.4213 Z-0.8333 I0.3 J0.5196
G02 X69.1013 Y4.9017 Z-0.85 I0.3 J-0.5196
G02 X68.2013 Y4.3821 Z-0.8667 I-0.6 J0.0
G02 Y5.4213 Z-0.8833 I0.3 J0.5196
G02 X69.1013 Y4.9017 Z-0.9 I0.3 J-0.5196
G02 X68.2013 Y4.3821 Z-0.9167 I-0.6 J0.0
G02 Y5.4213 Z-0.9333 I0.3 J0.5196
G02 X69.1013 Y4.9017 Z-0.95 I0.3 J-0.5196
G02 X68.2013 Y4.3821 Z-0.9667 I-0.6 J0.0
G02 Y5.4213 Z-0.9833 I0.3 J0.5196
G02 X69.1013 Y4.9017 Z-1.0 I0.3 J-0.5196
G02 X68.2013 Y4.3821 Z-1.0167 I-0.6 J0.0
G02 Y5.4213 Z-1.0333 I0.3 J0.5196
G02 X69.1013 Y4.9017 Z-1.05 I0.3 J-0.5196
G02 X68.2013 Y4.3821 Z-1.0667 I-0.6 J0.0
G02 Y5.4213 Z-1.0833 I0.3 J0.5196
G02 X69.1013 Y4.9017 Z-1.1 I0.3 J-0.5196
G02 X68.2013 Y4.3821 Z-1.1167 I-0.6 J0.0
G02 Y5.4213 Z-1.1333 I0.3 J0.5196
G02 X69.1013 Y4.9017 Z-1.15 I0.3 J-0.5196
G02 X68.2013 Y4.3821 Z-1.1667 I-0.6 J0.0
G02 Y5.4213 Z-1.1833 I0.3 J0.5196
G02 X69.1013 Y4.9017 Z-1.2 I0.3 J-0.5196
G02 X68.2013 Y4.3821 Z-1.2167 I-0.6 J0.0
G02 Y5.4213 Z-1.2333 I0.3 J0.5196
G02 X69.1013 Y4.9017 Z-1.25 I0.3 J-0.5196
G02 X68.2013 Y4.3821 Z-1.2667 I-0.6 J0.0
G02 Y5.4213 Z-1.2833 I0.3 J0.5196
G02 X69.1013 Y4.9017 Z-1.3 I0.3 J-0.5196
G02 X68.2013 Y4.3821 Z-1.3167 I-0.6 J0.0
G02 Y5.4213 Z-1.3333 I0.3 J0.5196
G02 X69.1013 Y4.9017 Z-1.35 I0.3 J-0.5196
G02 X68.2013 Y4.3821 Z-1.3667 I-0.6 J0.0
G02 Y5.4213 Z-1.3833 I0.3 J0.5196
G02 X69.1013 Y4.9017 Z-1.4 I0.3 J-0.5196
G02 X68.2013 Y4.3821 Z-1.4167 I-0.6 J0.0
G02 Y5.4213 Z-1.4333 I0.3 J0.5196
G02 X69.1013 Y4.9017 Z-1.45 I0.3 J-0.5196
G02 X68.2013 Y4.3821 Z-1.4667 I-0.6 J0.0
G02 Y5.4213 Z-1.4833 I0.3 J0.5196
G02 X69.1013 Y4.9017 Z-1.5 I0.3 J-0.5196
G02 X68.2013 Y4.3821 I-0.6 J0.0
G02 Y5.4213 I0.3 J0.5196
G02 X69.1013 Y4.9017 I0.3 J-0.5196
G00 Z3.0
G00 X6.0026
G00 Z2.0
G01 Z1.0 F300.0
G02 X5.1026 Y4.3821 Z0.9833 I-0.6 J0.0 F100.0
G02 Y5.4213 Z0.9667 I0.3 J0.5196
G02 X6.0026 Y4.9017 Z0.95 I0.3 J-0.5196
G02 X5.1026 Y4.3821 Z0.9333 I-0.6 J0.0
G02 Y5.4213 Z0.9167 I0.3 J0.5196
G02 X6.0026 Y4.9017 Z0.9 I0.3 J-0.5196
G02 X5.1026 Y4.3821 Z0.8833 I-0.6 J0.0
G02 Y5.4213 Z0.8667 I0.3 J0.5196
G02 X6.0026 Y4.9017 Z0.85 I0.3 J-0.5196
G02 X5.1026 Y4.3821 Z0.8333 I-0.6 J0.0
G02 Y5.4213 Z0.8167 I0.3 J0.5196
G02 X6.0026 Y4.9017 Z0.8 I0.3 J-0.5196
G02 X5.1026 Y4.3821 Z0.7833 I-0.6 J0.0
G02 Y5.4213 Z0.7667 I0.3 J0.5196
G02 X6.0026 Y4.9017 Z0.75 I0.3 J-0.5196
G02 X5.1026 Y4.3821 Z0.7333 I-0.6 J0.0
G02 Y5.4213 Z0.7167 I0.3 J0.5196
G02 X6.0026 Y4.9017 Z0.7 I0.3 J-0.5196
G02 X5.1026 Y4.3821 Z0.6833 I-0.6 J0.0
G02 Y5.4213 Z0.6667 I0.3 J0.5196
G02 X6.0026 Y4.9017 Z0.65 I0.3 J-0.5196
G02 X5.1026 Y4.3821 Z0.6333 I-0.6 J0.0
G02 Y5.4213 Z0.6167 I0.3 J0.5196
G02 X6.0026 Y4.9017 Z0.6 I0.3 J-0.5196
G02 X5.1026 Y4.3821 Z0.5833 I-0.6 J0.0
G02 Y5.4213 Z0.5667 I0.3 J0.5196
G02 X6.0026 Y4.9017 Z0.55 I0.3 J-0.5196
G02 X5.1026 Y4.3821 Z0.5333 I-0.6 J0.0
G02 Y5.4213 Z0.5167 I0.3 J0.5196
G02 X6.0026 Y4.9017 Z0.5 I0.3 J-0.5196
G02 X5.1026 Y4.3821 Z0.4833 I-0.6 J0.0
G02 Y5.4213 Z0.4667 I0.3 J0.5196
G02 X6.0026 Y4.9017 Z0.45 I0.3 J-0.5196
G02 X5.1026 Y4.3821 Z0.4333 I-0.6 J0.0
G02 Y5.4213 Z0.4167 I0.3 J0.5196
G02 X6.0026 Y4.9017 Z0.4 I0.3 J-0.5196
G02 X5.1026 Y4.3821 Z0.3833 I-0.6 J0.0
G02 Y5.4213 Z0.3667 I0.3 J0.5196
G02 X6.0026 Y4.9017 Z0.35 I0.3 J-0.5196
G02 X5.1026 Y4.3821 Z0.3333 I-0.6 J0.0
G02 Y5.4213 Z0.3167 I0.3 J0.5196
G02 X6.0026 Y4.9017 Z0.3 I0.3 J-0.5196
G02 X5.1026 Y4.3821 Z0.2833 I-0.6 J0.0
G02 Y5.4213 Z0.2667 I0.3 J0.5196
G02 X6.0026 Y4.9017 Z0.25 I0.3 J-0.5196
G02 X5.1026 Y4.3821 Z0.2333 I-0.6 J0.0
G02 Y5.4213 Z0.2167 I0.3 J0.5196
G02 X6.0026 Y4.9017 Z0.2 I0.3 J-0.5196
G02 X5.1026 Y4.3821 Z0.1833 I-0.6 J0.0
G02 Y5.4213 Z0.1667 I0.3 J0.5196
G02 X6.0026 Y4.9017 Z0.15 I0.3 J-0.5196
G02 X5.1026 Y4.3821 Z0.1333 I-0.6 J0.0
G02 Y5.4213 Z0.1167 I0.3 J0.5196
G02 X6.0026 Y4.9017 Z0.1 I0.3 J-0.5196
G02 X5.1026 Y4.3821 Z0.0833 I-0.6 J0.0
G02 Y5.4213 Z0.0667 I0.3 J0.5196
G02 X6.0026 Y4.9017 Z0.05 I0.3 J-0.5196
G02 X5.1026 Y4.3821 Z0.0333 I-0.6 J0.0
G02 Y5.4213 Z0.0167 I0.3 J0.5196
G02 X6.0026 Y4.9017 Z0.0 I0.3 J-0.5196
G02 X5.1026 Y4.3821 Z-0.0167 I-0.6 J0.0
G02 Y5.4213 Z-0.0333 I0.3 J0.5196
G02 X6.0026 Y4.9017 Z-0.05 I0.3 J-0.5196
G02 X5.1026 Y4.3821 Z-0.0667 I-0.6 J0.0
G02 Y5.4213 Z-0.0833 I0.3 J0.5196
G02 X6.0026 Y4.9017 Z-0.1 I0.3 J-0.5196
G02 X5.1026 Y4.3821 Z-0.1167 I-0.6 J0.0
G02 Y5.4213 Z-0.1333 I0.3 J0.5196
G02 X6.0026 Y4.9017 Z-0.15 I0.3 J-0.5196
G02 X5.1026 Y4.3821 Z-0.1667 I-0.6 J0.0
G02 Y5.4213 Z-0.1833 I0.3 J0.5196
G02 X6.0026 Y4.9017 Z-0.2 I0.3 J-0.5196
G02 X5.1026 Y4.3821 Z-0.2167 I-0.6 J0.0
G02 Y5.4213 Z-0.2333 I0.3 J0.5196
G02 X6.0026 Y4.9017 Z-0.25 I0.3 J-0.5196
G02 X5.1026 Y4.3821 Z-0.2667 I-0.6 J0.0
G02 Y5.4213 Z-0.2833 I0.3 J0.5196
G02 X6.0026 Y4.9017 Z-0.3 I0.3 J-0.5196
G02 X5.1026 Y4.3821 Z-0.3167 I-0.6 J0.0
G02 Y5.4213 Z-0.3333 I0.3 J0.5196
G02 X6.0026 Y4.9017 Z-0.35 I0.3 J-0.5196
G02 X5.1026 Y4.3821 Z-0.3667 I-0.6 J0.0
G02 Y5.4213 Z-0.3833 I0.3 J0.5196
G02 X6.0026 Y4.9017 Z-0.4 I0.3 J-0.5196
G02 X5.1026 Y4.3821 Z-0.4167 I-0.6 J0.0
G02 Y5.4213 Z-0.4333 I0.3 J0.5196
G02 X6.0026 Y4.9017 Z-0.45 I0.3 J-0.5196
G02 X5.1026 Y4.3821 Z-0.4667 I-0.6 J0.0
G02 Y5.4213 Z-0.4833 I0.3 J0.5196
G02 X6.0026 Y4.9017 Z-0.5 I0.3 J-0.5196
G02 X5.1026 Y4.3821 Z-0.5167 I-0.6 J0.0
G02 Y5.4213 Z-0.5333 I0.3 J0.5196
G02 X6.0026 Y4.9017 Z-0.55 I0.3 J-0.5196
G02 X5.1026 Y4.3821 Z-0.5667 I-0.6 J0.0
G02 Y5.4213 Z-0.5833 I0.3 J0.5196
G02 X6.0026 Y4.9017 Z-0.6 I0.3 J-0.5196
G02 X5.1026 Y4.3821 Z-0.6167 I-0.6 J0.0
G02 Y5.4213 Z-0.6333 I0.3 J0.5196
G02 X6.0026 Y4.9017 Z-0.65 I0.3 J-0.5196
G02 X5.1026 Y4.3821 Z-0.6667 I-0.6 J0.0
G02 Y5.4213 Z-0.6833 I0.3 J0.5196
G02 X6.0026 Y4.9017 Z-0.7 I0.3 J-0.5196
G02 X5.1026 Y4.3821 Z-0.7167 I-0.6 J0.0
G02 Y5.4213 Z-0.7333 I0.3 J0.5196
G02 X6.0026 Y4.9017 Z-0.75 I0.3 J-0.5196
G02 X5.1026 Y4.3821 Z-0.7667 I-0.6 J0.0
G02 Y5.4213 Z-0.7833 I0.3 J0.5196
G02 X6.0026 Y4.9017 Z-0.8 I0.3 J-0.5196
G02 X5.1026 Y4.3821 Z-0.8167 I-0.6 J0.0
G02 Y5.4213 Z-0.8333 I0.3 J0.5196
G02 X6.0026 Y4.9017 Z-0.85 I0.3 J-0.5196
G02 X5.1026 Y4.3821 Z-0.8667 I-0.6 J0.0
G02 Y5.4213 Z-0.8833 I0.3 J0.5196
G02 X6.0026 Y4.9017 Z-0.9 I0.3 J-0.5196
G02 X5.1026 Y4.3821 Z-0.9167 I-0.6 J0.0
G02 Y5.4213 Z-0.9333 I0.3 J0.5196
G02 X6.0026 Y4.9017 Z-0.95 I0.3 J-0.5196
G02 X5.1026 Y4.3821 Z-0.9667 I-0.6 J0.0
G02 Y5.4213 Z-0.9833 I0.3 J0.5196
G02 X6.0026 Y4.9017 Z-1.0 I0.3 J-0.5196
G02 X5.1026 Y4.3821 Z-1.0167 I-0.6 J0.0
G02 Y5.4213 Z-1.0333 I0.3 J0.5196
G02 X6.0026 Y4.9017 Z-1.05 I0.3 J-0.5196
G02 X5.1026 Y4.3821 Z-1.0667 I-0.6 J0.0
G02 Y5.4213 Z-1.0833 I0.3 J0.5196
G02 X6.0026 Y4.9017 Z-1.1 I0.3 J-0.5196
G02 X5.1026 Y4.3821 Z-1.1167 I-0.6 J0.0
G02 Y5.4213 Z-1.1333 I0.3 J0.5196
G02 X6.0026 Y4.9017 Z-1.15 I0.3 J-0.5196
G02 X5.1026 Y4.3821 Z-1.1667 I-0.6 J0.0
G02 Y5.4213 Z-1.1833 I0.3 J0.5196
G02 X6.0026 Y4.9017 Z-1.2 I0.3 J-0.5196
G02 X5.1026 Y4.3821 Z-1.2167 I-0.6 J0.0
G02 Y5.4213 Z-1.2333 I0.3 J0.5196
G02 X6.0026 Y4.9017 Z-1.25 I0.3 J-0.5196
G02 X5.1026 Y4.3821 Z-1.2667 I-0.6 J0.0
G02 Y5.4213 Z-1.2833 I0.3 J0.5196
G02 X6.0026 Y4.9017 Z-1.3 I0.3 J-0.5196
G02 X5.1026 Y4.3821 Z-1.3167 I-0.6 J0.0
G02 Y5.4213 Z-1.3333 I0.3 J0.5196
G02 X6.0026 Y4.9017 Z-1.35 I0.3 J-0.5196
G02 X5.1026 Y4.3821 Z-1.3667 I-0.6 J0.0
G02 Y5.4213 Z-1.3833 I0.3 J0.5196
G02 X6.0026 Y4.9017 Z-1.4 I0.3 J-0.5196
G02 X5.1026 Y4.3821 Z-1.4167 I-0.6 J0.0
G02 Y5.4213 Z-1.4333 I0.3 J0.5196
G02 X6.0026 Y4.9017 Z-1.45 I0.3 J-0.5196
G02 X5.1026 Y4.3821 Z-1.4667 I-0.6 J0.0
G02 Y5.4213 Z-1.4833 I0.3 J0.5196
G02 X6.0026 Y4.9017 Z-1.5 I0.3 J-0.5196
G02 X5.1026 Y4.3821 I-0.6 J0.0
G02 Y5.4213 I0.3 J0.5196
G02 X6.0026 Y4.9017 I0.3 J-0.5196
M05
G53 G00 Z-1
M30
