( Made using CamBam - http://www.cambam.info )
( Rückplatte 10/4/2024 3:12:55 PM )
( T0 : 3.0 )
G21 G90 G40
G53 G00 Z-1
M00
( T0 : 3.0 )
G00 Z3.0
( Chamfer1 )
G17
M03 S1000
G00 X1.4198 Y1.9467
G00 Z1.0
G01 Z-1.0 F100.0
G01 X1.6651 Y1.6891 F250.0
G03 X1.6891 Y1.6651 I0.5068 J0.4828
G01 X1.9467 Y1.4198
G03 X1.9713 Y1.3974 I0.4828 J0.5068
G01 X2.2403 Y1.1645
G03 X2.2657 Y1.1435 I0.4582 J0.5292
G01 X2.5456 Y0.9233
G03 X2.5723 Y0.9033 I0.4328 J0.5501
G01 X2.8627 Y0.6965
G03 X2.891 Y0.6774 I0.4061 J0.5702
G01 X3.1917 Y0.4846
G03 X3.2202 Y0.4673 I0.3778 J0.5893
G01 X3.5303 Y0.2887
G03 X3.5602 Y0.2725 I0.3493 J0.6066
G01 X3.8798 Y0.1086
G03 X3.9102 Y0.0939 I0.3194 J0.6229
G01 X4.2381 Y-0.0547
G03 X4.2699 Y-0.0681 I0.2889 J0.6376
G01 X4.6062 Y-0.201
G03 X4.6388 Y-0.2129 I0.2572 J0.651
G01 X4.9829 Y-0.3295
G03 X5.0162 Y-0.3398 I0.2246 J0.663
G01 X5.3674 Y-0.4397
G03 X5.4006 Y-0.4482 I0.1913 J0.6733
G01 X5.7588 Y-0.5313
G03 X5.794 Y-0.5385 I0.1581 J0.6819
G01 X6.1585 Y-0.6035
G03 X6.1928 Y-0.6088 I0.1229 J0.6891
G01 X6.5632 Y-0.656
G03 X6.5985 Y-0.6596 I0.0886 J0.6944
G01 X6.9744 Y-0.6883
G03 X7.0099 Y-0.6901 I0.0533 J0.698
G01 X7.3907 Y-0.6998
G03 X7.4084 Y-0.7 I0.0177 J0.6998
G01 X192.8073
G03 X192.8251 Y-0.6998 I0.0 J0.7
G01 X193.2056 Y-0.6901
G03 X193.2411 Y-0.6883 I-0.0178 J0.6998
G01 X193.617 Y-0.6596
G03 X193.6523 Y-0.656 I-0.0533 J0.698
G01 X194.0227 Y-0.6088
G03 X194.057 Y-0.6035 I-0.0886 J0.6944
G01 X194.4215 Y-0.5385
G03 X194.4567 Y-0.5313 I-0.1229 J0.6891
G01 X194.8149 Y-0.4482
G03 X194.8481 Y-0.4397 I-0.1581 J0.6819
G01 X195.1993 Y-0.3398
G03 X195.2326 Y-0.3295 I-0.1913 J0.6733
G01 X195.5767 Y-0.2129
G03 X195.6093 Y-0.201 I-0.2246 J0.663
G01 X195.9456 Y-0.0681
G03 X195.9774 Y-0.0547 I-0.2572 J0.651
G01 X196.3053 Y0.0939
G03 X196.3357 Y0.1086 I-0.2889 J0.6376
G01 X196.6553 Y0.2725
G03 X196.6852 Y0.2887 I-0.3194 J0.6229
G01 X196.9953 Y0.4673
G03 X197.0238 Y0.4846 I-0.3493 J0.6066
G01 X197.3245 Y0.6774
G03 X197.3526 Y0.6963 I-0.3778 J0.5893
G01 X197.6432 Y0.9031
G03 X197.6702 Y0.9233 I-0.4058 J0.5704
G01 X197.9501 Y1.1435
G03 X197.9757 Y1.1647 I-0.4328 J0.5501
G01 X198.2445 Y1.3976
G03 X198.2688 Y1.4198 I-0.4585 J0.529
G01 X198.5264 Y1.6651
G03 X198.5504 Y1.6891 I-0.4828 J0.5068
G01 X198.7957 Y1.9467
G03 X198.8178 Y1.971 I-0.5068 J0.4828
G01 X199.051 Y2.24
G03 X199.0725 Y2.266 I-0.5289 J0.4585
G01 X199.2924 Y2.5459
G03 X199.3122 Y2.5723 I-0.5504 J0.4325
G01 X199.519 Y2.8627
G03 X199.5381 Y2.891 I-0.5702 J0.4061
G01 X199.7309 Y3.1917
G03 X199.7482 Y3.2202 I-0.5893 J0.3778
G01 X199.9268 Y3.5303
G03 X199.943 Y3.5602 I-0.6066 J0.3493
G01 X200.1069 Y3.8798
G03 X200.1216 Y3.9102 I-0.6229 J0.3194
G01 X200.2702 Y4.2381
G03 X200.2836 Y4.2699 I-0.6376 J0.2889
G01 X200.4165 Y4.6062
G03 X200.4284 Y4.6388 I-0.651 J0.2572
G01 X200.545 Y4.9829
G03 X200.5552 Y5.0157 I-0.663 J0.2246
G01 X200.6553 Y5.367
G03 X200.6641 Y5.4011 I-0.6732 J0.1918
G01 X200.7469 Y5.7592
G03 X200.7539 Y5.7935 I-0.682 J0.1577
G01 X200.8192 Y6.158
G03 X200.8246 Y6.1933 I-0.689 J0.1234
G01 X200.8716 Y6.5636
G03 X200.8751 Y6.5985 I-0.6944 J0.0881
G01 X200.9038 Y6.9744
G03 X200.9056 Y7.0099 I-0.698 J0.0533
G01 X200.9153 Y7.3907
G03 X200.9155 Y7.4084 I-0.6998 J0.0177
G01 Y118.3851
G03 X200.9153 Y118.4028 I-0.7 J0.0
G01 X200.9056 Y118.7836
G03 X200.9038 Y118.8191 I-0.6998 J-0.0177
G01 X200.8751 Y119.195
G03 X200.8716 Y119.2299 I-0.698 J-0.0533
G01 X200.8246 Y119.6002
G03 X200.8192 Y119.6355 I-0.6944 J-0.0881
G01 X200.7539 Y120.0
G03 X200.7469 Y120.0343 I-0.689 J-0.1234
G01 X200.6641 Y120.3924
G03 X200.6553 Y120.4265 I-0.682 J-0.1577
G01 X200.5552 Y120.7778
G03 X200.545 Y120.8106 I-0.6732 J-0.1918
G01 X200.4284 Y121.1547
G03 X200.4165 Y121.1873 I-0.663 J-0.2246
G01 X200.2836 Y121.5236
G03 X200.2702 Y121.5554 I-0.651 J-0.2572
G01 X200.1216 Y121.8833
G03 X200.1069 Y121.9137 I-0.6376 J-0.2889
G01 X199.943 Y122.2333
G03 X199.9268 Y122.2632 I-0.6229 J-0.3194
G01 X199.7482 Y122.5733
G03 X199.7309 Y122.6018 I-0.6066 J-0.3493
G01 X199.5381 Y122.9025
G03 X199.519 Y122.9308 I-0.5893 J-0.3778
G01 X199.3122 Y123.2212
G03 X199.2924 Y123.2476 I-0.5702 J-0.4061
G01 X199.0725 Y123.5275
G03 X199.051 Y123.5535 I-0.5504 J-0.4325
G01 X198.8178 Y123.8225
G03 X198.7957 Y123.8468 I-0.5289 J-0.4585
G01 X198.5504 Y124.1044
G03 X198.5264 Y124.1284 I-0.5068 J-0.4828
G01 X198.2688 Y124.3737
G03 X198.2445 Y124.3959 I-0.4828 J-0.5068
G01 X197.9757 Y124.6288
G03 X197.9501 Y124.65 I-0.4585 J-0.529
G01 X197.6702 Y124.8702
G03 X197.6432 Y124.8904 I-0.4328 J-0.5501
G01 X197.3526 Y125.0972
G03 X197.3245 Y125.1161 I-0.4058 J-0.5704
G01 X197.0238 Y125.3089
G03 X196.9953 Y125.3262 I-0.3778 J-0.5893
G01 X196.6852 Y125.5048
G03 X196.6553 Y125.521 I-0.3493 J-0.6066
G01 X196.3357 Y125.6849
G03 X196.3053 Y125.6996 I-0.3194 J-0.6229
G01 X195.9774 Y125.8482
G03 X195.9456 Y125.8616 I-0.2889 J-0.6376
G01 X195.6093 Y125.9945
G03 X195.5767 Y126.0064 I-0.2572 J-0.651
G01 X195.2326 Y126.123
G03 X195.1993 Y126.1333 I-0.2246 J-0.663
G01 X194.8481 Y126.2332
G03 X194.8149 Y126.2417 I-0.1913 J-0.6733
G01 X194.4567 Y126.3248
G03 X194.4215 Y126.332 I-0.1581 J-0.6819
G01 X194.057 Y126.397
G03 X194.0227 Y126.4023 I-0.1229 J-0.6891
G01 X193.6523 Y126.4495
G03 X193.617 Y126.4531 I-0.0886 J-0.6944
G01 X193.2411 Y126.4818
G03 X193.2056 Y126.4836 I-0.0533 J-0.698
G01 X192.8251 Y126.4933
G03 X192.8073 Y126.4935 I-0.0178 J-0.6998
G01 X7.4084
G03 X7.3907 Y126.4933 I0.0 J-0.7
G01 X7.0099 Y126.4836
G03 X6.9744 Y126.4818 I0.0177 J-0.6998
G01 X6.5985 Y126.4531
G03 X6.5632 Y126.4495 I0.0533 J-0.698
G01 X6.1928 Y126.4023
G03 X6.1585 Y126.397 I0.0886 J-0.6944
G01 X5.794 Y126.332
G03 X5.7588 Y126.3248 I0.1229 J-0.6891
G01 X5.4006 Y126.2417
G03 X5.3674 Y126.2332 I0.1581 J-0.6819
G01 X5.0162 Y126.1333
G03 X4.9829 Y126.123 I0.1913 J-0.6733
G01 X4.6388 Y126.0064
G03 X4.6062 Y125.9945 I0.2246 J-0.663
G01 X4.2699 Y125.8616
G03 X4.2381 Y125.8482 I0.2572 J-0.651
G01 X3.9102 Y125.6996
G03 X3.8798 Y125.6849 I0.2889 J-0.6376
G01 X3.5602 Y125.521
G03 X3.5303 Y125.5048 I0.3194 J-0.6229
G01 X3.2202 Y125.3262
G03 X3.1917 Y125.3089 I0.3493 J-0.6066
G01 X2.891 Y125.1161
G03 X2.8627 Y125.097 I0.3778 J-0.5893
G01 X2.5723 Y124.8902
G03 X2.5456 Y124.8702 I0.4061 J-0.5702
G01 X2.2657 Y124.65
G03 X2.2403 Y124.629 I0.4328 J-0.5501
G01 X1.9713 Y124.3961
G03 X1.9467 Y124.3737 I0.4582 J-0.5292
G01 X1.6891 Y124.1284
G03 X1.6651 Y124.1044 I0.4828 J-0.5068
G01 X1.4198 Y123.8468
G03 X1.3976 Y123.8225 I0.5068 J-0.4828
G01 X1.1647 Y123.5537
G03 X1.1433 Y123.5278 I0.529 J-0.4585
G01 X0.9231 Y123.2477
G03 X0.9033 Y123.2212 I0.5503 J-0.4326
G01 X0.6965 Y122.9308
G03 X0.6774 Y122.9025 I0.5702 J-0.4061
G01 X0.4846 Y122.6018
G03 X0.4673 Y122.5733 I0.5893 J-0.3778
G01 X0.2887 Y122.2632
G03 X0.2725 Y122.2333 I0.6066 J-0.3493
G01 X0.1086 Y121.9137
G03 X0.0939 Y121.8833 I0.6229 J-0.3194
G01 X-0.0547 Y121.5554
G03 X-0.0681 Y121.5236 I0.6376 J-0.2889
G01 X-0.201 Y121.1873
G03 X-0.2129 Y121.1547 I0.651 J-0.2572
G01 X-0.3295 Y120.8106
G03 X-0.3398 Y120.7773 I0.663 J-0.2246
G01 X-0.4397 Y120.4261
G03 X-0.4483 Y120.3924 I0.6733 J-0.1913
G01 X-0.5311 Y120.0343
G03 X-0.5382 Y120.0 I0.682 J-0.1577
G01 X-0.6034 Y119.6355
G03 X-0.6088 Y119.6007 I0.689 J-0.1234
G01 X-0.656 Y119.2303
G03 X-0.6596 Y119.195 I0.6944 J-0.0886
G01 X-0.6883 Y118.8191
G03 X-0.6901 Y118.7836 I0.698 J-0.0533
G01 X-0.6998 Y118.4028
G03 X-0.7 Y118.3851 I0.6998 J-0.0177
G01 Y7.4084
G03 X-0.6998 Y7.3907 I0.7 J0.0
G01 X-0.6901 Y7.0099
G03 X-0.6883 Y6.9744 I0.6998 J0.0177
G01 X-0.6596 Y6.5985
G03 X-0.656 Y6.5632 I0.698 J0.0533
G01 X-0.6088 Y6.1928
G03 X-0.6034 Y6.158 I0.6944 J0.0886
G01 X-0.5382 Y5.7935
G03 X-0.5311 Y5.7592 I0.689 J0.1234
G01 X-0.4483 Y5.4011
G03 X-0.4397 Y5.3674 I0.682 J0.1577
G01 X-0.3398 Y5.0162
G03 X-0.3295 Y4.9829 I0.6733 J0.1913
G01 X-0.2129 Y4.6388
G03 X-0.201 Y4.6062 I0.663 J0.2246
G01 X-0.0681 Y4.2699
G03 X-0.0547 Y4.2381 I0.651 J0.2572
G01 X0.0939 Y3.9102
G03 X0.1086 Y3.8798 I0.6376 J0.2889
G01 X0.2725 Y3.5602
G03 X0.2887 Y3.5303 I0.6229 J0.3194
G01 X0.4673 Y3.2202
G03 X0.4846 Y3.1917 I0.6066 J0.3493
G01 X0.6774 Y2.891
G03 X0.6965 Y2.8627 I0.5893 J0.3778
G01 X0.9033 Y2.5723
G03 X0.9231 Y2.5458 I0.5702 J0.4061
G01 X1.1433 Y2.2657
G03 X1.1647 Y2.2398 I0.5503 J0.4326
G01 X1.3976 Y1.971
G03 X1.4198 Y1.9467 I0.529 J0.4585
( Chamfer2 )
S12000
G00 Z3.0
G00 X5.4026 Y120.901
G00 Z3.0
G00 X6.1526 Y120.901
G00 Z2.0
G01 Z1.0 F300.0
G03 X5.0276 Y121.5505 Z0.9667 I-0.75 J0.0 F200.0
G03 Y120.2514 Z0.9333 I0.375 J-0.6495
G03 X6.1526 Y120.901 Z0.9 I0.375 J0.6495
G03 X5.0276 Y121.5505 Z0.8667 I-0.75 J0.0
G03 Y120.2514 Z0.8333 I0.375 J-0.6495
G03 X6.1526 Y120.901 Z0.8 I0.375 J0.6495
G03 X5.0276 Y121.5505 Z0.7667 I-0.75 J0.0
G03 Y120.2514 Z0.7333 I0.375 J-0.6495
G03 X6.1526 Y120.901 Z0.7 I0.375 J0.6495
G03 X5.0276 Y121.5505 Z0.6667 I-0.75 J0.0
G03 Y120.2514 Z0.6333 I0.375 J-0.6495
G03 X6.1526 Y120.901 Z0.6 I0.375 J0.6495
G03 X5.0276 Y121.5505 Z0.5667 I-0.75 J0.0
G03 Y120.2514 Z0.5333 I0.375 J-0.6495
G03 X6.1526 Y120.901 Z0.5 I0.375 J0.6495
G03 X5.0276 Y121.5505 Z0.4667 I-0.75 J0.0
G03 Y120.2514 Z0.4333 I0.375 J-0.6495
G03 X6.1526 Y120.901 Z0.4 I0.375 J0.6495
G03 X5.0276 Y121.5505 Z0.3667 I-0.75 J0.0
G03 Y120.2514 Z0.3333 I0.375 J-0.6495
G03 X6.1526 Y120.901 Z0.3 I0.375 J0.6495
G03 X5.0276 Y121.5505 Z0.2667 I-0.75 J0.0
G03 Y120.2514 Z0.2333 I0.375 J-0.6495
G03 X6.1526 Y120.901 Z0.2 I0.375 J0.6495
G03 X5.0276 Y121.5505 Z0.1667 I-0.75 J0.0
G03 Y120.2514 Z0.1333 I0.375 J-0.6495
G03 X6.1526 Y120.901 Z0.1 I0.375 J0.6495
G03 X5.0276 Y121.5505 Z0.0667 I-0.75 J0.0
G03 Y120.2514 Z0.0333 I0.375 J-0.6495
G03 X6.1526 Y120.901 Z0.0 I0.375 J0.6495
G03 X5.0276 Y121.5505 Z-0.0333 I-0.75 J0.0
G03 Y120.2514 Z-0.0667 I0.375 J-0.6495
G03 X6.1526 Y120.901 Z-0.1 I0.375 J0.6495
G03 X5.0276 Y121.5505 Z-0.1333 I-0.75 J0.0
G03 Y120.2514 Z-0.1667 I0.375 J-0.6495
G03 X6.1526 Y120.901 Z-0.2 I0.375 J0.6495
G03 X5.0276 Y121.5505 Z-0.2333 I-0.75 J0.0
G03 Y120.2514 Z-0.2667 I0.375 J-0.6495
G03 X6.1526 Y120.901 Z-0.3 I0.375 J0.6495
G03 X5.0276 Y121.5505 Z-0.3333 I-0.75 J0.0
G03 Y120.2514 Z-0.3667 I0.375 J-0.6495
G03 X6.1526 Y120.901 Z-0.4 I0.375 J0.6495
G03 X5.0276 Y121.5505 Z-0.4333 I-0.75 J0.0
G03 Y120.2514 Z-0.4667 I0.375 J-0.6495
G03 X6.1526 Y120.901 Z-0.5 I0.375 J0.6495
G03 X5.0276 Y121.5505 Z-0.5333 I-0.75 J0.0
G03 Y120.2514 Z-0.5667 I0.375 J-0.6495
G03 X6.1526 Y120.901 Z-0.6 I0.375 J0.6495
G03 X5.0276 Y121.5505 Z-0.6333 I-0.75 J0.0
G03 Y120.2514 Z-0.6667 I0.375 J-0.6495
G03 X6.1526 Y120.901 Z-0.7 I0.375 J0.6495
G03 X5.0276 Y121.5505 Z-0.7333 I-0.75 J0.0
G03 Y120.2514 Z-0.7667 I0.375 J-0.6495
G03 X6.1526 Y120.901 Z-0.8 I0.375 J0.6495
G03 X5.0276 Y121.5505 Z-0.8333 I-0.75 J0.0
G03 Y120.2514 Z-0.8667 I0.375 J-0.6495
G03 X6.1526 Y120.901 Z-0.9 I0.375 J0.6495
G03 X5.0276 Y121.5505 Z-0.9333 I-0.75 J0.0
G03 Y120.2514 Z-0.9667 I0.375 J-0.6495
G03 X6.1526 Y120.901 Z-1.0 I0.375 J0.6495
G03 X5.0276 Y121.5505 I-0.75 J0.0
G03 Y120.2514 I0.375 J-0.6495
G03 X6.1526 Y120.901 I0.375 J0.6495
G00 Z3.0
G00 X100.8514 Y120.9518
G00 Z2.0
G01 Z1.0 F300.0
G03 X99.7264 Y121.6013 Z0.9667 I-0.75 J0.0 F200.0
G03 Y120.3022 Z0.9333 I0.375 J-0.6495
G03 X100.8514 Y120.9518 Z0.9 I0.375 J0.6495
G03 X99.7264 Y121.6013 Z0.8667 I-0.75 J0.0
G03 Y120.3022 Z0.8333 I0.375 J-0.6495
G03 X100.8514 Y120.9518 Z0.8 I0.375 J0.6495
G03 X99.7264 Y121.6013 Z0.7667 I-0.75 J0.0
G03 Y120.3022 Z0.7333 I0.375 J-0.6495
G03 X100.8514 Y120.9518 Z0.7 I0.375 J0.6495
G03 X99.7264 Y121.6013 Z0.6667 I-0.75 J0.0
G03 Y120.3022 Z0.6333 I0.375 J-0.6495
G03 X100.8514 Y120.9518 Z0.6 I0.375 J0.6495
G03 X99.7264 Y121.6013 Z0.5667 I-0.75 J0.0
G03 Y120.3022 Z0.5333 I0.375 J-0.6495
G03 X100.8514 Y120.9518 Z0.5 I0.375 J0.6495
G03 X99.7264 Y121.6013 Z0.4667 I-0.75 J0.0
G03 Y120.3022 Z0.4333 I0.375 J-0.6495
G03 X100.8514 Y120.9518 Z0.4 I0.375 J0.6495
G03 X99.7264 Y121.6013 Z0.3667 I-0.75 J0.0
G03 Y120.3022 Z0.3333 I0.375 J-0.6495
G03 X100.8514 Y120.9518 Z0.3 I0.375 J0.6495
G03 X99.7264 Y121.6013 Z0.2667 I-0.75 J0.0
G03 Y120.3022 Z0.2333 I0.375 J-0.6495
G03 X100.8514 Y120.9518 Z0.2 I0.375 J0.6495
G03 X99.7264 Y121.6013 Z0.1667 I-0.75 J0.0
G03 Y120.3022 Z0.1333 I0.375 J-0.6495
G03 X100.8514 Y120.9518 Z0.1 I0.375 J0.6495
G03 X99.7264 Y121.6013 Z0.0667 I-0.75 J0.0
G03 Y120.3022 Z0.0333 I0.375 J-0.6495
G03 X100.8514 Y120.9518 Z0.0 I0.375 J0.6495
G03 X99.7264 Y121.6013 Z-0.0333 I-0.75 J0.0
G03 Y120.3022 Z-0.0667 I0.375 J-0.6495
G03 X100.8514 Y120.9518 Z-0.1 I0.375 J0.6495
G03 X99.7264 Y121.6013 Z-0.1333 I-0.75 J0.0
G03 Y120.3022 Z-0.1667 I0.375 J-0.6495
G03 X100.8514 Y120.9518 Z-0.2 I0.375 J0.6495
G03 X99.7264 Y121.6013 Z-0.2333 I-0.75 J0.0
G03 Y120.3022 Z-0.2667 I0.375 J-0.6495
G03 X100.8514 Y120.9518 Z-0.3 I0.375 J0.6495
G03 X99.7264 Y121.6013 Z-0.3333 I-0.75 J0.0
G03 Y120.3022 Z-0.3667 I0.375 J-0.6495
G03 X100.8514 Y120.9518 Z-0.4 I0.375 J0.6495
G03 X99.7264 Y121.6013 Z-0.4333 I-0.75 J0.0
G03 Y120.3022 Z-0.4667 I0.375 J-0.6495
G03 X100.8514 Y120.9518 Z-0.5 I0.375 J0.6495
G03 X99.7264 Y121.6013 Z-0.5333 I-0.75 J0.0
G03 Y120.3022 Z-0.5667 I0.375 J-0.6495
G03 X100.8514 Y120.9518 Z-0.6 I0.375 J0.6495
G03 X99.7264 Y121.6013 Z-0.6333 I-0.75 J0.0
G03 Y120.3022 Z-0.6667 I0.375 J-0.6495
G03 X100.8514 Y120.9518 Z-0.7 I0.375 J0.6495
G03 X99.7264 Y121.6013 Z-0.7333 I-0.75 J0.0
G03 Y120.3022 Z-0.7667 I0.375 J-0.6495
G03 X100.8514 Y120.9518 Z-0.8 I0.375 J0.6495
G03 X99.7264 Y121.6013 Z-0.8333 I-0.75 J0.0
G03 Y120.3022 Z-0.8667 I0.375 J-0.6495
G03 X100.8514 Y120.9518 Z-0.9 I0.375 J0.6495
G03 X99.7264 Y121.6013 Z-0.9333 I-0.75 J0.0
G03 Y120.3022 Z-0.9667 I0.375 J-0.6495
G03 X100.8514 Y120.9518 Z-1.0 I0.375 J0.6495
G03 X99.7264 Y121.6013 I-0.75 J0.0
G03 Y120.3022 I0.375 J-0.6495
G03 X100.8514 Y120.9518 I0.375 J0.6495
G00 Z3.0
G00 X195.5528 Y120.901
G00 Z2.0
G01 Z1.0 F300.0
G03 X194.4278 Y121.5505 Z0.9667 I-0.75 J0.0 F200.0
G03 Y120.2514 Z0.9333 I0.375 J-0.6495
G03 X195.5528 Y120.901 Z0.9 I0.375 J0.6495
G03 X194.4278 Y121.5505 Z0.8667 I-0.75 J0.0
G03 Y120.2514 Z0.8333 I0.375 J-0.6495
G03 X195.5528 Y120.901 Z0.8 I0.375 J0.6495
G03 X194.4278 Y121.5505 Z0.7667 I-0.75 J0.0
G03 Y120.2514 Z0.7333 I0.375 J-0.6495
G03 X195.5528 Y120.901 Z0.7 I0.375 J0.6495
G03 X194.4278 Y121.5505 Z0.6667 I-0.75 J0.0
G03 Y120.2514 Z0.6333 I0.375 J-0.6495
G03 X195.5528 Y120.901 Z0.6 I0.375 J0.6495
G03 X194.4278 Y121.5505 Z0.5667 I-0.75 J0.0
G03 Y120.2514 Z0.5333 I0.375 J-0.6495
G03 X195.5528 Y120.901 Z0.5 I0.375 J0.6495
G03 X194.4278 Y121.5505 Z0.4667 I-0.75 J0.0
G03 Y120.2514 Z0.4333 I0.375 J-0.6495
G03 X195.5528 Y120.901 Z0.4 I0.375 J0.6495
G03 X194.4278 Y121.5505 Z0.3667 I-0.75 J0.0
G03 Y120.2514 Z0.3333 I0.375 J-0.6495
G03 X195.5528 Y120.901 Z0.3 I0.375 J0.6495
G03 X194.4278 Y121.5505 Z0.2667 I-0.75 J0.0
G03 Y120.2514 Z0.2333 I0.375 J-0.6495
G03 X195.5528 Y120.901 Z0.2 I0.375 J0.6495
G03 X194.4278 Y121.5505 Z0.1667 I-0.75 J0.0
G03 Y120.2514 Z0.1333 I0.375 J-0.6495
G03 X195.5528 Y120.901 Z0.1 I0.375 J0.6495
G03 X194.4278 Y121.5505 Z0.0667 I-0.75 J0.0
G03 Y120.2514 Z0.0333 I0.375 J-0.6495
G03 X195.5528 Y120.901 Z0.0 I0.375 J0.6495
G03 X194.4278 Y121.5505 Z-0.0333 I-0.75 J0.0
G03 Y120.2514 Z-0.0667 I0.375 J-0.6495
G03 X195.5528 Y120.901 Z-0.1 I0.375 J0.6495
G03 X194.4278 Y121.5505 Z-0.1333 I-0.75 J0.0
G03 Y120.2514 Z-0.1667 I0.375 J-0.6495
G03 X195.5528 Y120.901 Z-0.2 I0.375 J0.6495
G03 X194.4278 Y121.5505 Z-0.2333 I-0.75 J0.0
G03 Y120.2514 Z-0.2667 I0.375 J-0.6495
G03 X195.5528 Y120.901 Z-0.3 I0.375 J0.6495
G03 X194.4278 Y121.5505 Z-0.3333 I-0.75 J0.0
G03 Y120.2514 Z-0.3667 I0.375 J-0.6495
G03 X195.5528 Y120.901 Z-0.4 I0.375 J0.6495
G03 X194.4278 Y121.5505 Z-0.4333 I-0.75 J0.0
G03 Y120.2514 Z-0.4667 I0.375 J-0.6495
G03 X195.5528 Y120.901 Z-0.5 I0.375 J0.6495
G03 X194.4278 Y121.5505 Z-0.5333 I-0.75 J0.0
G03 Y120.2514 Z-0.5667 I0.375 J-0.6495
G03 X195.5528 Y120.901 Z-0.6 I0.375 J0.6495
G03 X194.4278 Y121.5505 Z-0.6333 I-0.75 J0.0
G03 Y120.2514 Z-0.6667 I0.375 J-0.6495
G03 X195.5528 Y120.901 Z-0.7 I0.375 J0.6495
G03 X194.4278 Y121.5505 Z-0.7333 I-0.75 J0.0
G03 Y120.2514 Z-0.7667 I0.375 J-0.6495
G03 X195.5528 Y120.901 Z-0.8 I0.375 J0.6495
G03 X194.4278 Y121.5505 Z-0.8333 I-0.75 J0.0
G03 Y120.2514 Z-0.8667 I0.375 J-0.6495
G03 X195.5528 Y120.901 Z-0.9 I0.375 J0.6495
G03 X194.4278 Y121.5505 Z-0.9333 I-0.75 J0.0
G03 Y120.2514 Z-0.9667 I0.375 J-0.6495
G03 X195.5528 Y120.901 Z-1.0 I0.375 J0.6495
G03 X194.4278 Y121.5505 I-0.75 J0.0
G03 Y120.2514 I0.375 J-0.6495
G03 X195.5528 Y120.901 I0.375 J0.6495
G00 Z3.0
G00 Y4.9017
G00 Z2.0
G01 Z1.0 F300.0
G03 X194.4278 Y5.5512 Z0.9667 I-0.75 J0.0 F200.0
G03 Y4.2522 Z0.9333 I0.375 J-0.6495
G03 X195.5528 Y4.9017 Z0.9 I0.375 J0.6495
G03 X194.4278 Y5.5512 Z0.8667 I-0.75 J0.0
G03 Y4.2522 Z0.8333 I0.375 J-0.6495
G03 X195.5528 Y4.9017 Z0.8 I0.375 J0.6495
G03 X194.4278 Y5.5512 Z0.7667 I-0.75 J0.0
G03 Y4.2522 Z0.7333 I0.375 J-0.6495
G03 X195.5528 Y4.9017 Z0.7 I0.375 J0.6495
G03 X194.4278 Y5.5512 Z0.6667 I-0.75 J0.0
G03 Y4.2522 Z0.6333 I0.375 J-0.6495
G03 X195.5528 Y4.9017 Z0.6 I0.375 J0.6495
G03 X194.4278 Y5.5512 Z0.5667 I-0.75 J0.0
G03 Y4.2522 Z0.5333 I0.375 J-0.6495
G03 X195.5528 Y4.9017 Z0.5 I0.375 J0.6495
G03 X194.4278 Y5.5512 Z0.4667 I-0.75 J0.0
G03 Y4.2522 Z0.4333 I0.375 J-0.6495
G03 X195.5528 Y4.9017 Z0.4 I0.375 J0.6495
G03 X194.4278 Y5.5512 Z0.3667 I-0.75 J0.0
G03 Y4.2522 Z0.3333 I0.375 J-0.6495
G03 X195.5528 Y4.9017 Z0.3 I0.375 J0.6495
G03 X194.4278 Y5.5512 Z0.2667 I-0.75 J0.0
G03 Y4.2522 Z0.2333 I0.375 J-0.6495
G03 X195.5528 Y4.9017 Z0.2 I0.375 J0.6495
G03 X194.4278 Y5.5512 Z0.1667 I-0.75 J0.0
G03 Y4.2522 Z0.1333 I0.375 J-0.6495
G03 X195.5528 Y4.9017 Z0.1 I0.375 J0.6495
G03 X194.4278 Y5.5512 Z0.0667 I-0.75 J0.0
G03 Y4.2522 Z0.0333 I0.375 J-0.6495
G03 X195.5528 Y4.9017 Z0.0 I0.375 J0.6495
G03 X194.4278 Y5.5512 Z-0.0333 I-0.75 J0.0
G03 Y4.2522 Z-0.0667 I0.375 J-0.6495
G03 X195.5528 Y4.9017 Z-0.1 I0.375 J0.6495
G03 X194.4278 Y5.5512 Z-0.1333 I-0.75 J0.0
G03 Y4.2522 Z-0.1667 I0.375 J-0.6495
G03 X195.5528 Y4.9017 Z-0.2 I0.375 J0.6495
G03 X194.4278 Y5.5512 Z-0.2333 I-0.75 J0.0
G03 Y4.2522 Z-0.2667 I0.375 J-0.6495
G03 X195.5528 Y4.9017 Z-0.3 I0.375 J0.6495
G03 X194.4278 Y5.5512 Z-0.3333 I-0.75 J0.0
G03 Y4.2522 Z-0.3667 I0.375 J-0.6495
G03 X195.5528 Y4.9017 Z-0.4 I0.375 J0.6495
G03 X194.4278 Y5.5512 Z-0.4333 I-0.75 J0.0
G03 Y4.2522 Z-0.4667 I0.375 J-0.6495
G03 X195.5528 Y4.9017 Z-0.5 I0.375 J0.6495
G03 X194.4278 Y5.5512 Z-0.5333 I-0.75 J0.0
G03 Y4.2522 Z-0.5667 I0.375 J-0.6495
G03 X195.5528 Y4.9017 Z-0.6 I0.375 J0.6495
G03 X194.4278 Y5.5512 Z-0.6333 I-0.75 J0.0
G03 Y4.2522 Z-0.6667 I0.375 J-0.6495
G03 X195.5528 Y4.9017 Z-0.7 I0.375 J0.6495
G03 X194.4278 Y5.5512 Z-0.7333 I-0.75 J0.0
G03 Y4.2522 Z-0.7667 I0.375 J-0.6495
G03 X195.5528 Y4.9017 Z-0.8 I0.375 J0.6495
G03 X194.4278 Y5.5512 Z-0.8333 I-0.75 J0.0
G03 Y4.2522 Z-0.8667 I0.375 J-0.6495
G03 X195.5528 Y4.9017 Z-0.9 I0.375 J0.6495
G03 X194.4278 Y5.5512 Z-0.9333 I-0.75 J0.0
G03 Y4.2522 Z-0.9667 I0.375 J-0.6495
G03 X195.5528 Y4.9017 Z-1.0 I0.375 J0.6495
G03 X194.4278 Y5.5512 I-0.75 J0.0
G03 Y4.2522 I0.375 J-0.6495
G03 X195.5528 Y4.9017 I0.375 J0.6495
G00 Z3.0
G00 X132.5023
G00 Z2.0
G01 Z1.0 F300.0
G03 X131.3773 Y5.5512 Z0.9667 I-0.75 J0.0 F200.0
G03 Y4.2522 Z0.9333 I0.375 J-0.6495
G03 X132.5023 Y4.9017 Z0.9 I0.375 J0.6495
G03 X131.3773 Y5.5512 Z0.8667 I-0.75 J0.0
G03 Y4.2522 Z0.8333 I0.375 J-0.6495
G03 X132.5023 Y4.9017 Z0.8 I0.375 J0.6495
G03 X131.3773 Y5.5512 Z0.7667 I-0.75 J0.0
G03 Y4.2522 Z0.7333 I0.375 J-0.6495
G03 X132.5023 Y4.9017 Z0.7 I0.375 J0.6495
G03 X131.3773 Y5.5512 Z0.6667 I-0.75 J0.0
G03 Y4.2522 Z0.6333 I0.375 J-0.6495
G03 X132.5023 Y4.9017 Z0.6 I0.375 J0.6495
G03 X131.3773 Y5.5512 Z0.5667 I-0.75 J0.0
G03 Y4.2522 Z0.5333 I0.375 J-0.6495
G03 X132.5023 Y4.9017 Z0.5 I0.375 J0.6495
G03 X131.3773 Y5.5512 Z0.4667 I-0.75 J0.0
G03 Y4.2522 Z0.4333 I0.375 J-0.6495
G03 X132.5023 Y4.9017 Z0.4 I0.375 J0.6495
G03 X131.3773 Y5.5512 Z0.3667 I-0.75 J0.0
G03 Y4.2522 Z0.3333 I0.375 J-0.6495
G03 X132.5023 Y4.9017 Z0.3 I0.375 J0.6495
G03 X131.3773 Y5.5512 Z0.2667 I-0.75 J0.0
G03 Y4.2522 Z0.2333 I0.375 J-0.6495
G03 X132.5023 Y4.9017 Z0.2 I0.375 J0.6495
G03 X131.3773 Y5.5512 Z0.1667 I-0.75 J0.0
G03 Y4.2522 Z0.1333 I0.375 J-0.6495
G03 X132.5023 Y4.9017 Z0.1 I0.375 J0.6495
G03 X131.3773 Y5.5512 Z0.0667 I-0.75 J0.0
G03 Y4.2522 Z0.0333 I0.375 J-0.6495
G03 X132.5023 Y4.9017 Z0.0 I0.375 J0.6495
G03 X131.3773 Y5.5512 Z-0.0333 I-0.75 J0.0
G03 Y4.2522 Z-0.0667 I0.375 J-0.6495
G03 X132.5023 Y4.9017 Z-0.1 I0.375 J0.6495
G03 X131.3773 Y5.5512 Z-0.1333 I-0.75 J0.0
G03 Y4.2522 Z-0.1667 I0.375 J-0.6495
G03 X132.5023 Y4.9017 Z-0.2 I0.375 J0.6495
G03 X131.3773 Y5.5512 Z-0.2333 I-0.75 J0.0
G03 Y4.2522 Z-0.2667 I0.375 J-0.6495
G03 X132.5023 Y4.9017 Z-0.3 I0.375 J0.6495
G03 X131.3773 Y5.5512 Z-0.3333 I-0.75 J0.0
G03 Y4.2522 Z-0.3667 I0.375 J-0.6495
G03 X132.5023 Y4.9017 Z-0.4 I0.375 J0.6495
G03 X131.3773 Y5.5512 Z-0.4333 I-0.75 J0.0
G03 Y4.2522 Z-0.4667 I0.375 J-0.6495
G03 X132.5023 Y4.9017 Z-0.5 I0.375 J0.6495
G03 X131.3773 Y5.5512 Z-0.5333 I-0.75 J0.0
G03 Y4.2522 Z-0.5667 I0.375 J-0.6495
G03 X132.5023 Y4.9017 Z-0.6 I0.375 J0.6495
G03 X131.3773 Y5.5512 Z-0.6333 I-0.75 J0.0
G03 Y4.2522 Z-0.6667 I0.375 J-0.6495
G03 X132.5023 Y4.9017 Z-0.7 I0.375 J0.6495
G03 X131.3773 Y5.5512 Z-0.7333 I-0.75 J0.0
G03 Y4.2522 Z-0.7667 I0.375 J-0.6495
G03 X132.5023 Y4.9017 Z-0.8 I0.375 J0.6495
G03 X131.3773 Y5.5512 Z-0.8333 I-0.75 J0.0
G03 Y4.2522 Z-0.8667 I0.375 J-0.6495
G03 X132.5023 Y4.9017 Z-0.9 I0.375 J0.6495
G03 X131.3773 Y5.5512 Z-0.9333 I-0.75 J0.0
G03 Y4.2522 Z-0.9667 I0.375 J-0.6495
G03 X132.5023 Y4.9017 Z-1.0 I0.375 J0.6495
G03 X131.3773 Y5.5512 I-0.75 J0.0
G03 Y4.2522 I0.375 J-0.6495
G03 X132.5023 Y4.9017 I0.375 J0.6495
G00 Z3.0
G00 X69.2513
G00 Z2.0
G01 Z1.0 F300.0
G03 X68.1263 Y5.5512 Z0.9667 I-0.75 J0.0 F200.0
G03 Y4.2522 Z0.9333 I0.375 J-0.6495
G03 X69.2513 Y4.9017 Z0.9 I0.375 J0.6495
G03 X68.1263 Y5.5512 Z0.8667 I-0.75 J0.0
G03 Y4.2522 Z0.8333 I0.375 J-0.6495
G03 X69.2513 Y4.9017 Z0.8 I0.375 J0.6495
G03 X68.1263 Y5.5512 Z0.7667 I-0.75 J0.0
G03 Y4.2522 Z0.7333 I0.375 J-0.6495
G03 X69.2513 Y4.9017 Z0.7 I0.375 J0.6495
G03 X68.1263 Y5.5512 Z0.6667 I-0.75 J0.0
G03 Y4.2522 Z0.6333 I0.375 J-0.6495
G03 X69.2513 Y4.9017 Z0.6 I0.375 J0.6495
G03 X68.1263 Y5.5512 Z0.5667 I-0.75 J0.0
G03 Y4.2522 Z0.5333 I0.375 J-0.6495
G03 X69.2513 Y4.9017 Z0.5 I0.375 J0.6495
G03 X68.1263 Y5.5512 Z0.4667 I-0.75 J0.0
G03 Y4.2522 Z0.4333 I0.375 J-0.6495
G03 X69.2513 Y4.9017 Z0.4 I0.375 J0.6495
G03 X68.1263 Y5.5512 Z0.3667 I-0.75 J0.0
G03 Y4.2522 Z0.3333 I0.375 J-0.6495
G03 X69.2513 Y4.9017 Z0.3 I0.375 J0.6495
G03 X68.1263 Y5.5512 Z0.2667 I-0.75 J0.0
G03 Y4.2522 Z0.2333 I0.375 J-0.6495
G03 X69.2513 Y4.9017 Z0.2 I0.375 J0.6495
G03 X68.1263 Y5.5512 Z0.1667 I-0.75 J0.0
G03 Y4.2522 Z0.1333 I0.375 J-0.6495
G03 X69.2513 Y4.9017 Z0.1 I0.375 J0.6495
G03 X68.1263 Y5.5512 Z0.0667 I-0.75 J0.0
G03 Y4.2522 Z0.0333 I0.375 J-0.6495
G03 X69.2513 Y4.9017 Z0.0 I0.375 J0.6495
G03 X68.1263 Y5.5512 Z-0.0333 I-0.75 J0.0
G03 Y4.2522 Z-0.0667 I0.375 J-0.6495
G03 X69.2513 Y4.9017 Z-0.1 I0.375 J0.6495
G03 X68.1263 Y5.5512 Z-0.1333 I-0.75 J0.0
G03 Y4.2522 Z-0.1667 I0.375 J-0.6495
G03 X69.2513 Y4.9017 Z-0.2 I0.375 J0.6495
G03 X68.1263 Y5.5512 Z-0.2333 I-0.75 J0.0
G03 Y4.2522 Z-0.2667 I0.375 J-0.6495
G03 X69.2513 Y4.9017 Z-0.3 I0.375 J0.6495
G03 X68.1263 Y5.5512 Z-0.3333 I-0.75 J0.0
G03 Y4.2522 Z-0.3667 I0.375 J-0.6495
G03 X69.2513 Y4.9017 Z-0.4 I0.375 J0.6495
G03 X68.1263 Y5.5512 Z-0.4333 I-0.75 J0.0
G03 Y4.2522 Z-0.4667 I0.375 J-0.6495
G03 X69.2513 Y4.9017 Z-0.5 I0.375 J0.6495
G03 X68.1263 Y5.5512 Z-0.5333 I-0.75 J0.0
G03 Y4.2522 Z-0.5667 I0.375 J-0.6495
G03 X69.2513 Y4.9017 Z-0.6 I0.375 J0.6495
G03 X68.1263 Y5.5512 Z-0.6333 I-0.75 J0.0
G03 Y4.2522 Z-0.6667 I0.375 J-0.6495
G03 X69.2513 Y4.9017 Z-0.7 I0.375 J0.6495
G03 X68.1263 Y5.5512 Z-0.7333 I-0.75 J0.0
G03 Y4.2522 Z-0.7667 I0.375 J-0.6495
G03 X69.2513 Y4.9017 Z-0.8 I0.375 J0.6495
G03 X68.1263 Y5.5512 Z-0.8333 I-0.75 J0.0
G03 Y4.2522 Z-0.8667 I0.375 J-0.6495
G03 X69.2513 Y4.9017 Z-0.9 I0.375 J0.6495
G03 X68.1263 Y5.5512 Z-0.9333 I-0.75 J0.0
G03 Y4.2522 Z-0.9667 I0.375 J-0.6495
G03 X69.2513 Y4.9017 Z-1.0 I0.375 J0.6495
G03 X68.1263 Y5.5512 I-0.75 J0.0
G03 Y4.2522 I0.375 J-0.6495
G03 X69.2513 Y4.9017 I0.375 J0.6495
G00 Z3.0
G00 X6.1526
G00 Z2.0
G01 Z1.0 F300.0
G03 X5.0276 Y5.5512 Z0.9667 I-0.75 J0.0 F200.0
G03 Y4.2522 Z0.9333 I0.375 J-0.6495
G03 X6.1526 Y4.9017 Z0.9 I0.375 J0.6495
G03 X5.0276 Y5.5512 Z0.8667 I-0.75 J0.0
G03 Y4.2522 Z0.8333 I0.375 J-0.6495
G03 X6.1526 Y4.9017 Z0.8 I0.375 J0.6495
G03 X5.0276 Y5.5512 Z0.7667 I-0.75 J0.0
G03 Y4.2522 Z0.7333 I0.375 J-0.6495
G03 X6.1526 Y4.9017 Z0.7 I0.375 J0.6495
G03 X5.0276 Y5.5512 Z0.6667 I-0.75 J0.0
G03 Y4.2522 Z0.6333 I0.375 J-0.6495
G03 X6.1526 Y4.9017 Z0.6 I0.375 J0.6495
G03 X5.0276 Y5.5512 Z0.5667 I-0.75 J0.0
G03 Y4.2522 Z0.5333 I0.375 J-0.6495
G03 X6.1526 Y4.9017 Z0.5 I0.375 J0.6495
G03 X5.0276 Y5.5512 Z0.4667 I-0.75 J0.0
G03 Y4.2522 Z0.4333 I0.375 J-0.6495
G03 X6.1526 Y4.9017 Z0.4 I0.375 J0.6495
G03 X5.0276 Y5.5512 Z0.3667 I-0.75 J0.0
G03 Y4.2522 Z0.3333 I0.375 J-0.6495
G03 X6.1526 Y4.9017 Z0.3 I0.375 J0.6495
G03 X5.0276 Y5.5512 Z0.2667 I-0.75 J0.0
G03 Y4.2522 Z0.2333 I0.375 J-0.6495
G03 X6.1526 Y4.9017 Z0.2 I0.375 J0.6495
G03 X5.0276 Y5.5512 Z0.1667 I-0.75 J0.0
G03 Y4.2522 Z0.1333 I0.375 J-0.6495
G03 X6.1526 Y4.9017 Z0.1 I0.375 J0.6495
G03 X5.0276 Y5.5512 Z0.0667 I-0.75 J0.0
G03 Y4.2522 Z0.0333 I0.375 J-0.6495
G03 X6.1526 Y4.9017 Z0.0 I0.375 J0.6495
G03 X5.0276 Y5.5512 Z-0.0333 I-0.75 J0.0
G03 Y4.2522 Z-0.0667 I0.375 J-0.6495
G03 X6.1526 Y4.9017 Z-0.1 I0.375 J0.6495
G03 X5.0276 Y5.5512 Z-0.1333 I-0.75 J0.0
G03 Y4.2522 Z-0.1667 I0.375 J-0.6495
G03 X6.1526 Y4.9017 Z-0.2 I0.375 J0.6495
G03 X5.0276 Y5.5512 Z-0.2333 I-0.75 J0.0
G03 Y4.2522 Z-0.2667 I0.375 J-0.6495
G03 X6.1526 Y4.9017 Z-0.3 I0.375 J0.6495
G03 X5.0276 Y5.5512 Z-0.3333 I-0.75 J0.0
G03 Y4.2522 Z-0.3667 I0.375 J-0.6495
G03 X6.1526 Y4.9017 Z-0.4 I0.375 J0.6495
G03 X5.0276 Y5.5512 Z-0.4333 I-0.75 J0.0
G03 Y4.2522 Z-0.4667 I0.375 J-0.6495
G03 X6.1526 Y4.9017 Z-0.5 I0.375 J0.6495
G03 X5.0276 Y5.5512 Z-0.5333 I-0.75 J0.0
G03 Y4.2522 Z-0.5667 I0.375 J-0.6495
G03 X6.1526 Y4.9017 Z-0.6 I0.375 J0.6495
G03 X5.0276 Y5.5512 Z-0.6333 I-0.75 J0.0
G03 Y4.2522 Z-0.6667 I0.375 J-0.6495
G03 X6.1526 Y4.9017 Z-0.7 I0.375 J0.6495
G03 X5.0276 Y5.5512 Z-0.7333 I-0.75 J0.0
G03 Y4.2522 Z-0.7667 I0.375 J-0.6495
G03 X6.1526 Y4.9017 Z-0.8 I0.375 J0.6495
G03 X5.0276 Y5.5512 Z-0.8333 I-0.75 J0.0
G03 Y4.2522 Z-0.8667 I0.375 J-0.6495
G03 X6.1526 Y4.9017 Z-0.9 I0.375 J0.6495
G03 X5.0276 Y5.5512 Z-0.9333 I-0.75 J0.0
G03 Y4.2522 Z-0.9667 I0.375 J-0.6495
G03 X6.1526 Y4.9017 Z-1.0 I0.375 J0.6495
G03 X5.0276 Y5.5512 I-0.75 J0.0
G03 Y4.2522 I0.375 J-0.6495
G03 X6.1526 Y4.9017 I0.375 J0.6495
M05
G53 G00 Z-1
M30
