( Made using CamBam - http://www.cambam.info )
( Rückplatte 9/27/2024 6:11:22 PM )
( T0 : 3.0 )
G21 G90 G40
G53 G00 Z-1
M00
( T0 : 3.0 )
G00 Z3.0
( Profile1 )
G17
M03 S1000
G00 X0.8405 Y1.3949
G00 Z2.6
G01 Z1.5 F100.0
G01 X1.0859 Y1.1373 F500.0
G03 X1.1373 Y1.0859 I1.0861 J1.0346
G01 X1.3949 Y0.8405
G03 X1.4476 Y0.7926 I1.0346 J1.0861
G01 X1.7166 Y0.5597
G03 X1.771 Y0.5148 I0.9819 J1.134
G01 X2.0509 Y0.2946
G03 X2.1083 Y0.2516 I0.9275 J1.1789
G01 X2.3986 Y0.0449
G03 X2.4592 Y0.0039 I0.8701 J1.2218
G01 X2.7599 Y-0.1889
G03 X2.821 Y-0.226 I0.8095 J1.2628
G01 X3.1311 Y-0.4046
G03 X3.1952 Y-0.4394 I0.7484 J1.2999
G01 X3.5148 Y-0.6033
G03 X3.58 Y-0.6348 I0.6844 J1.3348
G01 X3.9079 Y-0.7833
G03 X3.976 Y-0.8122 I0.6191 J1.3663
G01 X4.3123 Y-0.945
G03 X4.3821 Y-0.9706 I0.5511 J1.3951
G01 X4.7263 Y-1.0872
G03 X4.7975 Y-1.1094 I0.4813 J1.4207
G01 X5.1488 Y-1.2092
G03 X5.2199 Y-1.2275 I0.41 J1.4429
G01 X5.5781 Y-1.3106
G03 X5.6535 Y-1.3261 I0.3389 J1.4612
G01 X6.018 Y-1.3911
G03 X6.0916 Y-1.4023 I0.2634 J1.4767
G01 X6.4619 Y-1.4496
G03 X6.5376 Y-1.4573 I0.1898 J1.4879
G01 X6.9135 Y-1.486
G03 X6.9897 Y-1.4899 I0.1142 J1.4956
G01 X7.3704 Y-1.4995
G03 X7.4084 Y-1.5 I0.038 J1.4995
G01 X192.8073
G03 X192.8454 Y-1.4995 I0.0 J1.5
G01 X193.2259 Y-1.4899
G03 X193.302 Y-1.486 I-0.038 J1.4995
G01 X193.6779 Y-1.4573
G03 X193.7536 Y-1.4496 I-0.1142 J1.4956
G01 X194.1239 Y-1.4023
G03 X194.1975 Y-1.3911 I-0.1898 J1.4879
G01 X194.562 Y-1.3261
G03 X194.6374 Y-1.3106 I-0.2634 J1.4767
G01 X194.9956 Y-1.2275
G03 X195.0667 Y-1.2092 I-0.3389 J1.4612
G01 X195.418 Y-1.1094
G03 X195.4892 Y-1.0872 I-0.41 J1.4429
G01 X195.8334 Y-0.9706
G03 X195.9032 Y-0.945 I-0.4813 J1.4207
G01 X196.2395 Y-0.8122
G03 X196.3076 Y-0.7833 I-0.5511 J1.3951
G01 X196.6355 Y-0.6348
G03 X196.7007 Y-0.6033 I-0.6191 J1.3663
G01 X197.0203 Y-0.4394
G03 X197.0844 Y-0.4046 I-0.6844 J1.3348
G01 X197.3945 Y-0.226
G03 X197.4556 Y-0.1889 I-0.7484 J1.2999
G01 X197.7563 Y0.0039
G03 X197.8164 Y0.0445 I-0.8095 J1.2628
G01 X198.107 Y0.2513
G03 X198.1648 Y0.2946 I-0.8696 J1.2222
G01 X198.4447 Y0.5148
G03 X198.4997 Y0.5602 I-0.9275 J1.1789
G01 X198.7684 Y0.7931
G03 X198.8206 Y0.8405 I-0.9824 J1.1335
G01 X199.0782 Y1.0859
G03 X199.1296 Y1.1373 I-1.0346 J1.0861
G01 X199.375 Y1.3949
G03 X199.4223 Y1.447 I-1.0861 J1.0346
G01 X199.6555 Y1.716
G03 X199.7015 Y1.7717 I-1.1334 J0.9825
G01 X199.9214 Y2.0516
G03 X199.9639 Y2.1083 I-1.1794 J0.9268
G01 X200.1706 Y2.3986
G03 X200.2116 Y2.4592 I-1.2218 J0.8701
G01 X200.4044 Y2.7599
G03 X200.4415 Y2.821 I-1.2628 J0.8095
G01 X200.6201 Y3.1311
G03 X200.6549 Y3.1952 I-1.2999 J0.7484
G01 X200.8188 Y3.5148
G03 X200.8503 Y3.58 I-1.3348 J0.6844
G01 X200.9988 Y3.9079
G03 X201.0277 Y3.976 I-1.3663 J0.6191
G01 X201.1605 Y4.3123
G03 X201.1861 Y4.3821 I-1.3951 J0.5511
G01 X201.3027 Y4.7263
G03 X201.3246 Y4.7965 I-1.4207 J0.4813
G01 X201.4247 Y5.1478
G03 X201.4435 Y5.2209 I-1.4426 J0.411
G01 X201.5263 Y5.579
G03 X201.5414 Y5.6525 I-1.4614 J0.3379
G01 X201.6067 Y6.017
G03 X201.6182 Y6.0926 I-1.4765 J0.2644
G01 X201.6652 Y6.4629
G03 X201.6728 Y6.5376 I-1.4881 J0.1888
G01 X201.7015 Y6.9135
G03 X201.7054 Y6.9897 I-1.4956 J0.1142
G01 X201.715 Y7.3704
G03 X201.7155 Y7.4084 I-1.4995 J0.038
G01 Y118.3851
G03 X201.715 Y118.4231 I-1.5 J0.0
G01 X201.7054 Y118.8038
G03 X201.7015 Y118.88 I-1.4995 J-0.038
G01 X201.6728 Y119.2559
G03 X201.6652 Y119.3306 I-1.4956 J-0.1142
G01 X201.6182 Y119.7009
G03 X201.6067 Y119.7765 I-1.4881 J-0.1888
G01 X201.5414 Y120.141
G03 X201.5263 Y120.2145 I-1.4765 J-0.2644
G01 X201.4435 Y120.5726
G03 X201.4247 Y120.6457 I-1.4614 J-0.3379
G01 X201.3246 Y120.997
G03 X201.3027 Y121.0672 I-1.4426 J-0.411
G01 X201.1861 Y121.4114
G03 X201.1605 Y121.4812 I-1.4207 J-0.4813
G01 X201.0277 Y121.8175
G03 X200.9988 Y121.8856 I-1.3951 J-0.5511
G01 X200.8503 Y122.2135
G03 X200.8188 Y122.2787 I-1.3663 J-0.6191
G01 X200.6549 Y122.5983
G03 X200.6201 Y122.6624 I-1.3348 J-0.6844
G01 X200.4415 Y122.9725
G03 X200.4044 Y123.0336 I-1.2999 J-0.7484
G01 X200.2116 Y123.3343
G03 X200.1706 Y123.3949 I-1.2628 J-0.8095
G01 X199.9639 Y123.6852
G03 X199.9214 Y123.7419 I-1.2218 J-0.8701
G01 X199.7015 Y124.0218
G03 X199.6555 Y124.0775 I-1.1794 J-0.9268
G01 X199.4223 Y124.3465
G03 X199.375 Y124.3986 I-1.1334 J-0.9825
G01 X199.1296 Y124.6562
G03 X199.0782 Y124.7076 I-1.0861 J-1.0346
G01 X198.8206 Y124.953
G03 X198.7684 Y125.0004 I-1.0346 J-1.0861
G01 X198.4997 Y125.2333
G03 X198.4447 Y125.2787 I-0.9824 J-1.1335
G01 X198.1648 Y125.4989
G03 X198.107 Y125.5422 I-0.9275 J-1.1789
G01 X197.8164 Y125.749
G03 X197.7563 Y125.7896 I-0.8696 J-1.2222
G01 X197.4556 Y125.9824
G03 X197.3945 Y126.0195 I-0.8095 J-1.2628
G01 X197.0844 Y126.1981
G03 X197.0203 Y126.2329 I-0.7484 J-1.2999
G01 X196.7007 Y126.3968
G03 X196.6355 Y126.4283 I-0.6844 J-1.3348
G01 X196.3076 Y126.5768
G03 X196.2395 Y126.6057 I-0.6191 J-1.3663
G01 X195.9032 Y126.7385
G03 X195.8334 Y126.7641 I-0.5511 J-1.3951
G01 X195.4892 Y126.8807
G03 X195.418 Y126.9029 I-0.4813 J-1.4207
G01 X195.0667 Y127.0027
G03 X194.9956 Y127.021 I-0.41 J-1.4429
G01 X194.6374 Y127.1041
G03 X194.562 Y127.1196 I-0.3389 J-1.4612
G01 X194.1975 Y127.1846
G03 X194.1239 Y127.1958 I-0.2634 J-1.4767
G01 X193.7536 Y127.2431
G03 X193.6779 Y127.2508 I-0.1898 J-1.4879
G01 X193.302 Y127.2795
G03 X193.2259 Y127.2834 I-0.1142 J-1.4956
G01 X192.8454 Y127.293
G03 X192.8073 Y127.2935 I-0.038 J-1.4995
G01 X7.4084
G03 X7.3704 Y127.293 I0.0 J-1.5
G01 X6.9897 Y127.2834
G03 X6.9135 Y127.2795 I0.038 J-1.4995
G01 X6.5376 Y127.2508
G03 X6.4619 Y127.2431 I0.1142 J-1.4956
G01 X6.0916 Y127.1958
G03 X6.018 Y127.1846 I0.1898 J-1.4879
G01 X5.6535 Y127.1196
G03 X5.5781 Y127.1041 I0.2634 J-1.4767
G01 X5.2199 Y127.021
G03 X5.1488 Y127.0027 I0.3389 J-1.4612
G01 X4.7975 Y126.9029
G03 X4.7263 Y126.8807 I0.41 J-1.4429
G01 X4.3821 Y126.7641
G03 X4.3123 Y126.7385 I0.4813 J-1.4207
G01 X3.976 Y126.6057
G03 X3.9079 Y126.5768 I0.5511 J-1.3951
G01 X3.58 Y126.4283
G03 X3.5148 Y126.3968 I0.6191 J-1.3663
G01 X3.1952 Y126.2329
G03 X3.1311 Y126.1981 I0.6844 J-1.3348
G01 X2.821 Y126.0195
G03 X2.7599 Y125.9824 I0.7484 J-1.2999
G01 X2.4592 Y125.7896
G03 X2.3986 Y125.7486 I0.8095 J-1.2628
G01 X2.1083 Y125.5419
G03 X2.0509 Y125.4989 I0.8701 J-1.2218
G01 X1.771 Y125.2787
G03 X1.7166 Y125.2338 I0.9275 J-1.1789
G01 X1.4476 Y125.0009
G03 X1.3949 Y124.953 I0.9819 J-1.134
G01 X1.1373 Y124.7076
G03 X1.0859 Y124.6562 I1.0346 J-1.0861
G01 X0.8405 Y124.3986
G03 X0.7931 Y124.3464 I1.0861 J-1.0346
G01 X0.5602 Y124.0777
G03 X0.5144 Y124.0222 I1.1335 J-0.9824
G01 X0.2942 Y123.7421
G03 X0.2516 Y123.6852 I1.1793 J-0.927
G01 X0.0449 Y123.3949
G03 X0.0039 Y123.3343 I1.2218 J-0.8701
G01 X-0.1889 Y123.0336
G03 X-0.226 Y122.9725 I1.2628 J-0.8095
G01 X-0.4046 Y122.6624
G03 X-0.4394 Y122.5983 I1.2999 J-0.7484
G01 X-0.6033 Y122.2787
G03 X-0.6348 Y122.2135 I1.3348 J-0.6844
G01 X-0.7833 Y121.8856
G03 X-0.8122 Y121.8175 I1.3663 J-0.6191
G01 X-0.945 Y121.4812
G03 X-0.9706 Y121.4114 I1.3951 J-0.5511
G01 X-1.0872 Y121.0672
G03 X-1.1094 Y120.996 I1.4207 J-0.4813
G01 X-1.2092 Y120.6447
G03 X-1.2278 Y120.5726 I1.4429 J-0.41
G01 X-1.3106 Y120.2145
G03 X-1.3256 Y120.141 I1.4614 J-0.3379
G01 X-1.3909 Y119.7765
G03 X-1.4023 Y119.7019 I1.4765 J-0.2644
G01 X-1.4496 Y119.3316
G03 X-1.4573 Y119.2559 I1.4879 J-0.1898
G01 X-1.486 Y118.88
G03 X-1.4899 Y118.8038 I1.4956 J-0.1142
G01 X-1.4995 Y118.4231
G03 X-1.5 Y118.3851 I1.4995 J-0.038
G01 Y7.4084
G03 X-1.4995 Y7.3704 I1.5 J0.0
G01 X-1.4899 Y6.9897
G03 X-1.486 Y6.9135 I1.4995 J0.038
G01 X-1.4573 Y6.5376
G03 X-1.4496 Y6.4619 I1.4956 J0.1142
G01 X-1.4023 Y6.0916
G03 X-1.3909 Y6.017 I1.4879 J0.1898
G01 X-1.3256 Y5.6525
G03 X-1.3106 Y5.579 I1.4765 J0.2644
G01 X-1.2278 Y5.2209
G03 X-1.2092 Y5.1488 I1.4614 J0.3379
G01 X-1.1094 Y4.7975
G03 X-1.0872 Y4.7263 I1.4429 J0.41
G01 X-0.9706 Y4.3821
G03 X-0.945 Y4.3123 I1.4207 J0.4813
G01 X-0.8122 Y3.976
G03 X-0.7833 Y3.9079 I1.3951 J0.5511
G01 X-0.6348 Y3.58
G03 X-0.6033 Y3.5148 I1.3663 J0.6191
G01 X-0.4394 Y3.1952
G03 X-0.4046 Y3.1311 I1.3348 J0.6844
G01 X-0.226 Y2.821
G03 X-0.1889 Y2.7599 I1.2999 J0.7484
G01 X0.0039 Y2.4592
G03 X0.0449 Y2.3986 I1.2628 J0.8095
G01 X0.2516 Y2.1083
G03 X0.2942 Y2.0514 I1.2218 J0.8701
G01 X0.5144 Y1.7713
G03 X0.5602 Y1.7158 I1.1793 J0.927
G01 X0.7931 Y1.4471
G03 X0.8405 Y1.3949 I1.1335 J0.9824
G01 Z1.4 F100.0
G01 X1.0859 Y1.1373 F500.0
G03 X1.1373 Y1.0859 I1.0861 J1.0346
G01 X1.3949 Y0.8405
G03 X1.4476 Y0.7926 I1.0346 J1.0861
G01 X1.7166 Y0.5597
G03 X1.771 Y0.5148 I0.9819 J1.134
G01 X2.0509 Y0.2946
G03 X2.1083 Y0.2516 I0.9275 J1.1789
G01 X2.3986 Y0.0449
G03 X2.4592 Y0.0039 I0.8701 J1.2218
G01 X2.7599 Y-0.1889
G03 X2.821 Y-0.226 I0.8095 J1.2628
G01 X3.1311 Y-0.4046
G03 X3.1952 Y-0.4394 I0.7484 J1.2999
G01 X3.5148 Y-0.6033
G03 X3.58 Y-0.6348 I0.6844 J1.3348
G01 X3.9079 Y-0.7833
G03 X3.976 Y-0.8122 I0.6191 J1.3663
G01 X4.3123 Y-0.945
G03 X4.3821 Y-0.9706 I0.5511 J1.3951
G01 X4.7263 Y-1.0872
G03 X4.7975 Y-1.1094 I0.4813 J1.4207
G01 X5.1488 Y-1.2092
G03 X5.2199 Y-1.2275 I0.41 J1.4429
G01 X5.5781 Y-1.3106
G03 X5.6535 Y-1.3261 I0.3389 J1.4612
G01 X6.018 Y-1.3911
G03 X6.0916 Y-1.4023 I0.2634 J1.4767
G01 X6.4619 Y-1.4496
G03 X6.5376 Y-1.4573 I0.1898 J1.4879
G01 X6.9135 Y-1.486
G03 X6.9897 Y-1.4899 I0.1142 J1.4956
G01 X7.3704 Y-1.4995
G03 X7.4084 Y-1.5 I0.038 J1.4995
G01 X192.8073
G03 X192.8454 Y-1.4995 I0.0 J1.5
G01 X193.2259 Y-1.4899
G03 X193.302 Y-1.486 I-0.038 J1.4995
G01 X193.6779 Y-1.4573
G03 X193.7536 Y-1.4496 I-0.1142 J1.4956
G01 X194.1239 Y-1.4023
G03 X194.1975 Y-1.3911 I-0.1898 J1.4879
G01 X194.562 Y-1.3261
G03 X194.6374 Y-1.3106 I-0.2634 J1.4767
G01 X194.9956 Y-1.2275
G03 X195.0667 Y-1.2092 I-0.3389 J1.4612
G01 X195.418 Y-1.1094
G03 X195.4892 Y-1.0872 I-0.41 J1.4429
G01 X195.8334 Y-0.9706
G03 X195.9032 Y-0.945 I-0.4813 J1.4207
G01 X196.2395 Y-0.8122
G03 X196.3076 Y-0.7833 I-0.5511 J1.3951
G01 X196.6355 Y-0.6348
G03 X196.7007 Y-0.6033 I-0.6191 J1.3663
G01 X197.0203 Y-0.4394
G03 X197.0844 Y-0.4046 I-0.6844 J1.3348
G01 X197.3945 Y-0.226
G03 X197.4556 Y-0.1889 I-0.7484 J1.2999
G01 X197.7563 Y0.0039
G03 X197.8164 Y0.0445 I-0.8095 J1.2628
G01 X198.107 Y0.2513
G03 X198.1648 Y0.2946 I-0.8696 J1.2222
G01 X198.4447 Y0.5148
G03 X198.4997 Y0.5602 I-0.9275 J1.1789
G01 X198.7684 Y0.7931
G03 X198.8206 Y0.8405 I-0.9824 J1.1335
G01 X199.0782 Y1.0859
G03 X199.1296 Y1.1373 I-1.0346 J1.0861
G01 X199.375 Y1.3949
G03 X199.4223 Y1.447 I-1.0861 J1.0346
G01 X199.6555 Y1.716
G03 X199.7015 Y1.7717 I-1.1334 J0.9825
G01 X199.9214 Y2.0516
G03 X199.9639 Y2.1083 I-1.1794 J0.9268
G01 X200.1706 Y2.3986
G03 X200.2116 Y2.4592 I-1.2218 J0.8701
G01 X200.4044 Y2.7599
G03 X200.4415 Y2.821 I-1.2628 J0.8095
G01 X200.6201 Y3.1311
G03 X200.6549 Y3.1952 I-1.2999 J0.7484
G01 X200.8188 Y3.5148
G03 X200.8503 Y3.58 I-1.3348 J0.6844
G01 X200.9988 Y3.9079
G03 X201.0277 Y3.976 I-1.3663 J0.6191
G01 X201.1605 Y4.3123
G03 X201.1861 Y4.3821 I-1.3951 J0.5511
G01 X201.3027 Y4.7263
G03 X201.3246 Y4.7965 I-1.4207 J0.4813
G01 X201.4247 Y5.1478
G03 X201.4435 Y5.2209 I-1.4426 J0.411
G01 X201.5263 Y5.579
G03 X201.5414 Y5.6525 I-1.4614 J0.3379
G01 X201.6067 Y6.017
G03 X201.6182 Y6.0926 I-1.4765 J0.2644
G01 X201.6652 Y6.4629
G03 X201.6728 Y6.5376 I-1.4881 J0.1888
G01 X201.7015 Y6.9135
G03 X201.7054 Y6.9897 I-1.4956 J0.1142
G01 X201.715 Y7.3704
G03 X201.7155 Y7.4084 I-1.4995 J0.038
G01 Y118.3851
G03 X201.715 Y118.4231 I-1.5 J0.0
G01 X201.7054 Y118.8038
G03 X201.7015 Y118.88 I-1.4995 J-0.038
G01 X201.6728 Y119.2559
G03 X201.6652 Y119.3306 I-1.4956 J-0.1142
G01 X201.6182 Y119.7009
G03 X201.6067 Y119.7765 I-1.4881 J-0.1888
G01 X201.5414 Y120.141
G03 X201.5263 Y120.2145 I-1.4765 J-0.2644
G01 X201.4435 Y120.5726
G03 X201.4247 Y120.6457 I-1.4614 J-0.3379
G01 X201.3246 Y120.997
G03 X201.3027 Y121.0672 I-1.4426 J-0.411
G01 X201.1861 Y121.4114
G03 X201.1605 Y121.4812 I-1.4207 J-0.4813
G01 X201.0277 Y121.8175
G03 X200.9988 Y121.8856 I-1.3951 J-0.5511
G01 X200.8503 Y122.2135
G03 X200.8188 Y122.2787 I-1.3663 J-0.6191
G01 X200.6549 Y122.5983
G03 X200.6201 Y122.6624 I-1.3348 J-0.6844
G01 X200.4415 Y122.9725
G03 X200.4044 Y123.0336 I-1.2999 J-0.7484
G01 X200.2116 Y123.3343
G03 X200.1706 Y123.3949 I-1.2628 J-0.8095
G01 X199.9639 Y123.6852
G03 X199.9214 Y123.7419 I-1.2218 J-0.8701
G01 X199.7015 Y124.0218
G03 X199.6555 Y124.0775 I-1.1794 J-0.9268
G01 X199.4223 Y124.3465
G03 X199.375 Y124.3986 I-1.1334 J-0.9825
G01 X199.1296 Y124.6562
G03 X199.0782 Y124.7076 I-1.0861 J-1.0346
G01 X198.8206 Y124.953
G03 X198.7684 Y125.0004 I-1.0346 J-1.0861
G01 X198.4997 Y125.2333
G03 X198.4447 Y125.2787 I-0.9824 J-1.1335
G01 X198.1648 Y125.4989
G03 X198.107 Y125.5422 I-0.9275 J-1.1789
G01 X197.8164 Y125.749
G03 X197.7563 Y125.7896 I-0.8696 J-1.2222
G01 X197.4556 Y125.9824
G03 X197.3945 Y126.0195 I-0.8095 J-1.2628
G01 X197.0844 Y126.1981
G03 X197.0203 Y126.2329 I-0.7484 J-1.2999
G01 X196.7007 Y126.3968
G03 X196.6355 Y126.4283 I-0.6844 J-1.3348
G01 X196.3076 Y126.5768
G03 X196.2395 Y126.6057 I-0.6191 J-1.3663
G01 X195.9032 Y126.7385
G03 X195.8334 Y126.7641 I-0.5511 J-1.3951
G01 X195.4892 Y126.8807
G03 X195.418 Y126.9029 I-0.4813 J-1.4207
G01 X195.0667 Y127.0027
G03 X194.9956 Y127.021 I-0.41 J-1.4429
G01 X194.6374 Y127.1041
G03 X194.562 Y127.1196 I-0.3389 J-1.4612
G01 X194.1975 Y127.1846
G03 X194.1239 Y127.1958 I-0.2634 J-1.4767
G01 X193.7536 Y127.2431
G03 X193.6779 Y127.2508 I-0.1898 J-1.4879
G01 X193.302 Y127.2795
G03 X193.2259 Y127.2834 I-0.1142 J-1.4956
G01 X192.8454 Y127.293
G03 X192.8073 Y127.2935 I-0.038 J-1.4995
G01 X7.4084
G03 X7.3704 Y127.293 I0.0 J-1.5
G01 X6.9897 Y127.2834
G03 X6.9135 Y127.2795 I0.038 J-1.4995
G01 X6.5376 Y127.2508
G03 X6.4619 Y127.2431 I0.1142 J-1.4956
G01 X6.0916 Y127.1958
G03 X6.018 Y127.1846 I0.1898 J-1.4879
G01 X5.6535 Y127.1196
G03 X5.5781 Y127.1041 I0.2634 J-1.4767
G01 X5.2199 Y127.021
G03 X5.1488 Y127.0027 I0.3389 J-1.4612
G01 X4.7975 Y126.9029
G03 X4.7263 Y126.8807 I0.41 J-1.4429
G01 X4.3821 Y126.7641
G03 X4.3123 Y126.7385 I0.4813 J-1.4207
G01 X3.976 Y126.6057
G03 X3.9079 Y126.5768 I0.5511 J-1.3951
G01 X3.58 Y126.4283
G03 X3.5148 Y126.3968 I0.6191 J-1.3663
G01 X3.1952 Y126.2329
G03 X3.1311 Y126.1981 I0.6844 J-1.3348
G01 X2.821 Y126.0195
G03 X2.7599 Y125.9824 I0.7484 J-1.2999
G01 X2.4592 Y125.7896
G03 X2.3986 Y125.7486 I0.8095 J-1.2628
G01 X2.1083 Y125.5419
G03 X2.0509 Y125.4989 I0.8701 J-1.2218
G01 X1.771 Y125.2787
G03 X1.7166 Y125.2338 I0.9275 J-1.1789
G01 X1.4476 Y125.0009
G03 X1.3949 Y124.953 I0.9819 J-1.134
G01 X1.1373 Y124.7076
G03 X1.0859 Y124.6562 I1.0346 J-1.0861
G01 X0.8405 Y124.3986
G03 X0.7931 Y124.3464 I1.0861 J-1.0346
G01 X0.5602 Y124.0777
G03 X0.5144 Y124.0222 I1.1335 J-0.9824
G01 X0.2942 Y123.7421
G03 X0.2516 Y123.6852 I1.1793 J-0.927
G01 X0.0449 Y123.3949
G03 X0.0039 Y123.3343 I1.2218 J-0.8701
G01 X-0.1889 Y123.0336
G03 X-0.226 Y122.9725 I1.2628 J-0.8095
G01 X-0.4046 Y122.6624
G03 X-0.4394 Y122.5983 I1.2999 J-0.7484
G01 X-0.6033 Y122.2787
G03 X-0.6348 Y122.2135 I1.3348 J-0.6844
G01 X-0.7833 Y121.8856
G03 X-0.8122 Y121.8175 I1.3663 J-0.6191
G01 X-0.945 Y121.4812
G03 X-0.9706 Y121.4114 I1.3951 J-0.5511
G01 X-1.0872 Y121.0672
G03 X-1.1094 Y120.996 I1.4207 J-0.4813
G01 X-1.2092 Y120.6447
G03 X-1.2278 Y120.5726 I1.4429 J-0.41
G01 X-1.3106 Y120.2145
G03 X-1.3256 Y120.141 I1.4614 J-0.3379
G01 X-1.3909 Y119.7765
G03 X-1.4023 Y119.7019 I1.4765 J-0.2644
G01 X-1.4496 Y119.3316
G03 X-1.4573 Y119.2559 I1.4879 J-0.1898
G01 X-1.486 Y118.88
G03 X-1.4899 Y118.8038 I1.4956 J-0.1142
G01 X-1.4995 Y118.4231
G03 X-1.5 Y118.3851 I1.4995 J-0.038
G01 Y7.4084
G03 X-1.4995 Y7.3704 I1.5 J0.0
G01 X-1.4899 Y6.9897
G03 X-1.486 Y6.9135 I1.4995 J0.038
G01 X-1.4573 Y6.5376
G03 X-1.4496 Y6.4619 I1.4956 J0.1142
G01 X-1.4023 Y6.0916
G03 X-1.3909 Y6.017 I1.4879 J0.1898
G01 X-1.3256 Y5.6525
G03 X-1.3106 Y5.579 I1.4765 J0.2644
G01 X-1.2278 Y5.2209
G03 X-1.2092 Y5.1488 I1.4614 J0.3379
G01 X-1.1094 Y4.7975
G03 X-1.0872 Y4.7263 I1.4429 J0.41
G01 X-0.9706 Y4.3821
G03 X-0.945 Y4.3123 I1.4207 J0.4813
G01 X-0.8122 Y3.976
G03 X-0.7833 Y3.9079 I1.3951 J0.5511
G01 X-0.6348 Y3.58
G03 X-0.6033 Y3.5148 I1.3663 J0.6191
G01 X-0.4394 Y3.1952
G03 X-0.4046 Y3.1311 I1.3348 J0.6844
G01 X-0.226 Y2.821
G03 X-0.1889 Y2.7599 I1.2999 J0.7484
G01 X0.0039 Y2.4592
G03 X0.0449 Y2.3986 I1.2628 J0.8095
G01 X0.2516 Y2.1083
G03 X0.2942 Y2.0514 I1.2218 J0.8701
G01 X0.5144 Y1.7713
G03 X0.5602 Y1.7158 I1.1793 J0.927
G01 X0.7931 Y1.4471
G03 X0.8405 Y1.3949 I1.1335 J0.9824
G01 Z1.3 F100.0
G01 X1.0859 Y1.1373 F500.0
G03 X1.1373 Y1.0859 I1.0861 J1.0346
G01 X1.3949 Y0.8405
G03 X1.4476 Y0.7926 I1.0346 J1.0861
G01 X1.7166 Y0.5597
G03 X1.771 Y0.5148 I0.9819 J1.134
G01 X2.0509 Y0.2946
G03 X2.1083 Y0.2516 I0.9275 J1.1789
G01 X2.3986 Y0.0449
G03 X2.4592 Y0.0039 I0.8701 J1.2218
G01 X2.7599 Y-0.1889
G03 X2.821 Y-0.226 I0.8095 J1.2628
G01 X3.1311 Y-0.4046
G03 X3.1952 Y-0.4394 I0.7484 J1.2999
G01 X3.5148 Y-0.6033
G03 X3.58 Y-0.6348 I0.6844 J1.3348
G01 X3.9079 Y-0.7833
G03 X3.976 Y-0.8122 I0.6191 J1.3663
G01 X4.3123 Y-0.945
G03 X4.3821 Y-0.9706 I0.5511 J1.3951
G01 X4.7263 Y-1.0872
G03 X4.7975 Y-1.1094 I0.4813 J1.4207
G01 X5.1488 Y-1.2092
G03 X5.2199 Y-1.2275 I0.41 J1.4429
G01 X5.5781 Y-1.3106
G03 X5.6535 Y-1.3261 I0.3389 J1.4612
G01 X6.018 Y-1.3911
G03 X6.0916 Y-1.4023 I0.2634 J1.4767
G01 X6.4619 Y-1.4496
G03 X6.5376 Y-1.4573 I0.1898 J1.4879
G01 X6.9135 Y-1.486
G03 X6.9897 Y-1.4899 I0.1142 J1.4956
G01 X7.3704 Y-1.4995
G03 X7.4084 Y-1.5 I0.038 J1.4995
G01 X192.8073
G03 X192.8454 Y-1.4995 I0.0 J1.5
G01 X193.2259 Y-1.4899
G03 X193.302 Y-1.486 I-0.038 J1.4995
G01 X193.6779 Y-1.4573
G03 X193.7536 Y-1.4496 I-0.1142 J1.4956
G01 X194.1239 Y-1.4023
G03 X194.1975 Y-1.3911 I-0.1898 J1.4879
G01 X194.562 Y-1.3261
G03 X194.6374 Y-1.3106 I-0.2634 J1.4767
G01 X194.9956 Y-1.2275
G03 X195.0667 Y-1.2092 I-0.3389 J1.4612
G01 X195.418 Y-1.1094
G03 X195.4892 Y-1.0872 I-0.41 J1.4429
G01 X195.8334 Y-0.9706
G03 X195.9032 Y-0.945 I-0.4813 J1.4207
G01 X196.2395 Y-0.8122
G03 X196.3076 Y-0.7833 I-0.5511 J1.3951
G01 X196.6355 Y-0.6348
G03 X196.7007 Y-0.6033 I-0.6191 J1.3663
G01 X197.0203 Y-0.4394
G03 X197.0844 Y-0.4046 I-0.6844 J1.3348
G01 X197.3945 Y-0.226
G03 X197.4556 Y-0.1889 I-0.7484 J1.2999
G01 X197.7563 Y0.0039
G03 X197.8164 Y0.0445 I-0.8095 J1.2628
G01 X198.107 Y0.2513
G03 X198.1648 Y0.2946 I-0.8696 J1.2222
G01 X198.4447 Y0.5148
G03 X198.4997 Y0.5602 I-0.9275 J1.1789
G01 X198.7684 Y0.7931
G03 X198.8206 Y0.8405 I-0.9824 J1.1335
G01 X199.0782 Y1.0859
G03 X199.1296 Y1.1373 I-1.0346 J1.0861
G01 X199.375 Y1.3949
G03 X199.4223 Y1.447 I-1.0861 J1.0346
G01 X199.6555 Y1.716
G03 X199.7015 Y1.7717 I-1.1334 J0.9825
G01 X199.9214 Y2.0516
G03 X199.9639 Y2.1083 I-1.1794 J0.9268
G01 X200.1706 Y2.3986
G03 X200.2116 Y2.4592 I-1.2218 J0.8701
G01 X200.4044 Y2.7599
G03 X200.4415 Y2.821 I-1.2628 J0.8095
G01 X200.6201 Y3.1311
G03 X200.6549 Y3.1952 I-1.2999 J0.7484
G01 X200.8188 Y3.5148
G03 X200.8503 Y3.58 I-1.3348 J0.6844
G01 X200.9988 Y3.9079
G03 X201.0277 Y3.976 I-1.3663 J0.6191
G01 X201.1605 Y4.3123
G03 X201.1861 Y4.3821 I-1.3951 J0.5511
G01 X201.3027 Y4.7263
G03 X201.3246 Y4.7965 I-1.4207 J0.4813
G01 X201.4247 Y5.1478
G03 X201.4435 Y5.2209 I-1.4426 J0.411
G01 X201.5263 Y5.579
G03 X201.5414 Y5.6525 I-1.4614 J0.3379
G01 X201.6067 Y6.017
G03 X201.6182 Y6.0926 I-1.4765 J0.2644
G01 X201.6652 Y6.4629
G03 X201.6728 Y6.5376 I-1.4881 J0.1888
G01 X201.7015 Y6.9135
G03 X201.7054 Y6.9897 I-1.4956 J0.1142
G01 X201.715 Y7.3704
G03 X201.7155 Y7.4084 I-1.4995 J0.038
G01 Y118.3851
G03 X201.715 Y118.4231 I-1.5 J0.0
G01 X201.7054 Y118.8038
G03 X201.7015 Y118.88 I-1.4995 J-0.038
G01 X201.6728 Y119.2559
G03 X201.6652 Y119.3306 I-1.4956 J-0.1142
G01 X201.6182 Y119.7009
G03 X201.6067 Y119.7765 I-1.4881 J-0.1888
G01 X201.5414 Y120.141
G03 X201.5263 Y120.2145 I-1.4765 J-0.2644
G01 X201.4435 Y120.5726
G03 X201.4247 Y120.6457 I-1.4614 J-0.3379
G01 X201.3246 Y120.997
G03 X201.3027 Y121.0672 I-1.4426 J-0.411
G01 X201.1861 Y121.4114
G03 X201.1605 Y121.4812 I-1.4207 J-0.4813
G01 X201.0277 Y121.8175
G03 X200.9988 Y121.8856 I-1.3951 J-0.5511
G01 X200.8503 Y122.2135
G03 X200.8188 Y122.2787 I-1.3663 J-0.6191
G01 X200.6549 Y122.5983
G03 X200.6201 Y122.6624 I-1.3348 J-0.6844
G01 X200.4415 Y122.9725
G03 X200.4044 Y123.0336 I-1.2999 J-0.7484
G01 X200.2116 Y123.3343
G03 X200.1706 Y123.3949 I-1.2628 J-0.8095
G01 X199.9639 Y123.6852
G03 X199.9214 Y123.7419 I-1.2218 J-0.8701
G01 X199.7015 Y124.0218
G03 X199.6555 Y124.0775 I-1.1794 J-0.9268
G01 X199.4223 Y124.3465
G03 X199.375 Y124.3986 I-1.1334 J-0.9825
G01 X199.1296 Y124.6562
G03 X199.0782 Y124.7076 I-1.0861 J-1.0346
G01 X198.8206 Y124.953
G03 X198.7684 Y125.0004 I-1.0346 J-1.0861
G01 X198.4997 Y125.2333
G03 X198.4447 Y125.2787 I-0.9824 J-1.1335
G01 X198.1648 Y125.4989
G03 X198.107 Y125.5422 I-0.9275 J-1.1789
G01 X197.8164 Y125.749
G03 X197.7563 Y125.7896 I-0.8696 J-1.2222
G01 X197.4556 Y125.9824
G03 X197.3945 Y126.0195 I-0.8095 J-1.2628
G01 X197.0844 Y126.1981
G03 X197.0203 Y126.2329 I-0.7484 J-1.2999
G01 X196.7007 Y126.3968
G03 X196.6355 Y126.4283 I-0.6844 J-1.3348
G01 X196.3076 Y126.5768
G03 X196.2395 Y126.6057 I-0.6191 J-1.3663
G01 X195.9032 Y126.7385
G03 X195.8334 Y126.7641 I-0.5511 J-1.3951
G01 X195.4892 Y126.8807
G03 X195.418 Y126.9029 I-0.4813 J-1.4207
G01 X195.0667 Y127.0027
G03 X194.9956 Y127.021 I-0.41 J-1.4429
G01 X194.6374 Y127.1041
G03 X194.562 Y127.1196 I-0.3389 J-1.4612
G01 X194.1975 Y127.1846
G03 X194.1239 Y127.1958 I-0.2634 J-1.4767
G01 X193.7536 Y127.2431
G03 X193.6779 Y127.2508 I-0.1898 J-1.4879
G01 X193.302 Y127.2795
G03 X193.2259 Y127.2834 I-0.1142 J-1.4956
G01 X192.8454 Y127.293
G03 X192.8073 Y127.2935 I-0.038 J-1.4995
G01 X7.4084
G03 X7.3704 Y127.293 I0.0 J-1.5
G01 X6.9897 Y127.2834
G03 X6.9135 Y127.2795 I0.038 J-1.4995
G01 X6.5376 Y127.2508
G03 X6.4619 Y127.2431 I0.1142 J-1.4956
G01 X6.0916 Y127.1958
G03 X6.018 Y127.1846 I0.1898 J-1.4879
G01 X5.6535 Y127.1196
G03 X5.5781 Y127.1041 I0.2634 J-1.4767
G01 X5.2199 Y127.021
G03 X5.1488 Y127.0027 I0.3389 J-1.4612
G01 X4.7975 Y126.9029
G03 X4.7263 Y126.8807 I0.41 J-1.4429
G01 X4.3821 Y126.7641
G03 X4.3123 Y126.7385 I0.4813 J-1.4207
G01 X3.976 Y126.6057
G03 X3.9079 Y126.5768 I0.5511 J-1.3951
G01 X3.58 Y126.4283
G03 X3.5148 Y126.3968 I0.6191 J-1.3663
G01 X3.1952 Y126.2329
G03 X3.1311 Y126.1981 I0.6844 J-1.3348
G01 X2.821 Y126.0195
G03 X2.7599 Y125.9824 I0.7484 J-1.2999
G01 X2.4592 Y125.7896
G03 X2.3986 Y125.7486 I0.8095 J-1.2628
G01 X2.1083 Y125.5419
G03 X2.0509 Y125.4989 I0.8701 J-1.2218
G01 X1.771 Y125.2787
G03 X1.7166 Y125.2338 I0.9275 J-1.1789
G01 X1.4476 Y125.0009
G03 X1.3949 Y124.953 I0.9819 J-1.134
G01 X1.1373 Y124.7076
G03 X1.0859 Y124.6562 I1.0346 J-1.0861
G01 X0.8405 Y124.3986
G03 X0.7931 Y124.3464 I1.0861 J-1.0346
G01 X0.5602 Y124.0777
G03 X0.5144 Y124.0222 I1.1335 J-0.9824
G01 X0.2942 Y123.7421
G03 X0.2516 Y123.6852 I1.1793 J-0.927
G01 X0.0449 Y123.3949
G03 X0.0039 Y123.3343 I1.2218 J-0.8701
G01 X-0.1889 Y123.0336
G03 X-0.226 Y122.9725 I1.2628 J-0.8095
G01 X-0.4046 Y122.6624
G03 X-0.4394 Y122.5983 I1.2999 J-0.7484
G01 X-0.6033 Y122.2787
G03 X-0.6348 Y122.2135 I1.3348 J-0.6844
G01 X-0.7833 Y121.8856
G03 X-0.8122 Y121.8175 I1.3663 J-0.6191
G01 X-0.945 Y121.4812
G03 X-0.9706 Y121.4114 I1.3951 J-0.5511
G01 X-1.0872 Y121.0672
G03 X-1.1094 Y120.996 I1.4207 J-0.4813
G01 X-1.2092 Y120.6447
G03 X-1.2278 Y120.5726 I1.4429 J-0.41
G01 X-1.3106 Y120.2145
G03 X-1.3256 Y120.141 I1.4614 J-0.3379
G01 X-1.3909 Y119.7765
G03 X-1.4023 Y119.7019 I1.4765 J-0.2644
G01 X-1.4496 Y119.3316
G03 X-1.4573 Y119.2559 I1.4879 J-0.1898
G01 X-1.486 Y118.88
G03 X-1.4899 Y118.8038 I1.4956 J-0.1142
G01 X-1.4995 Y118.4231
G03 X-1.5 Y118.3851 I1.4995 J-0.038
G01 Y7.4084
G03 X-1.4995 Y7.3704 I1.5 J0.0
G01 X-1.4899 Y6.9897
G03 X-1.486 Y6.9135 I1.4995 J0.038
G01 X-1.4573 Y6.5376
G03 X-1.4496 Y6.4619 I1.4956 J0.1142
G01 X-1.4023 Y6.0916
G03 X-1.3909 Y6.017 I1.4879 J0.1898
G01 X-1.3256 Y5.6525
G03 X-1.3106 Y5.579 I1.4765 J0.2644
G01 X-1.2278 Y5.2209
G03 X-1.2092 Y5.1488 I1.4614 J0.3379
G01 X-1.1094 Y4.7975
G03 X-1.0872 Y4.7263 I1.4429 J0.41
G01 X-0.9706 Y4.3821
G03 X-0.945 Y4.3123 I1.4207 J0.4813
G01 X-0.8122 Y3.976
G03 X-0.7833 Y3.9079 I1.3951 J0.5511
G01 X-0.6348 Y3.58
G03 X-0.6033 Y3.5148 I1.3663 J0.6191
G01 X-0.4394 Y3.1952
G03 X-0.4046 Y3.1311 I1.3348 J0.6844
G01 X-0.226 Y2.821
G03 X-0.1889 Y2.7599 I1.2999 J0.7484
G01 X0.0039 Y2.4592
G03 X0.0449 Y2.3986 I1.2628 J0.8095
G01 X0.2516 Y2.1083
G03 X0.2942 Y2.0514 I1.2218 J0.8701
G01 X0.5144 Y1.7713
G03 X0.5602 Y1.7158 I1.1793 J0.927
G01 X0.7931 Y1.4471
G03 X0.8405 Y1.3949 I1.1335 J0.9824
G01 Z1.2 F100.0
G01 X1.0859 Y1.1373 F500.0
G03 X1.1373 Y1.0859 I1.0861 J1.0346
G01 X1.3949 Y0.8405
G03 X1.4476 Y0.7926 I1.0346 J1.0861
G01 X1.7166 Y0.5597
G03 X1.771 Y0.5148 I0.9819 J1.134
G01 X2.0509 Y0.2946
G03 X2.1083 Y0.2516 I0.9275 J1.1789
G01 X2.3986 Y0.0449
G03 X2.4592 Y0.0039 I0.8701 J1.2218
G01 X2.7599 Y-0.1889
G03 X2.821 Y-0.226 I0.8095 J1.2628
G01 X3.1311 Y-0.4046
G03 X3.1952 Y-0.4394 I0.7484 J1.2999
G01 X3.5148 Y-0.6033
G03 X3.58 Y-0.6348 I0.6844 J1.3348
G01 X3.9079 Y-0.7833
G03 X3.976 Y-0.8122 I0.6191 J1.3663
G01 X4.3123 Y-0.945
G03 X4.3821 Y-0.9706 I0.5511 J1.3951
G01 X4.7263 Y-1.0872
G03 X4.7975 Y-1.1094 I0.4813 J1.4207
G01 X5.1488 Y-1.2092
G03 X5.2199 Y-1.2275 I0.41 J1.4429
G01 X5.5781 Y-1.3106
G03 X5.6535 Y-1.3261 I0.3389 J1.4612
G01 X6.018 Y-1.3911
G03 X6.0916 Y-1.4023 I0.2634 J1.4767
G01 X6.4619 Y-1.4496
G03 X6.5376 Y-1.4573 I0.1898 J1.4879
G01 X6.9135 Y-1.486
G03 X6.9897 Y-1.4899 I0.1142 J1.4956
G01 X7.3704 Y-1.4995
G03 X7.4084 Y-1.5 I0.038 J1.4995
G01 X192.8073
G03 X192.8454 Y-1.4995 I0.0 J1.5
G01 X193.2259 Y-1.4899
G03 X193.302 Y-1.486 I-0.038 J1.4995
G01 X193.6779 Y-1.4573
G03 X193.7536 Y-1.4496 I-0.1142 J1.4956
G01 X194.1239 Y-1.4023
G03 X194.1975 Y-1.3911 I-0.1898 J1.4879
G01 X194.562 Y-1.3261
G03 X194.6374 Y-1.3106 I-0.2634 J1.4767
G01 X194.9956 Y-1.2275
G03 X195.0667 Y-1.2092 I-0.3389 J1.4612
G01 X195.418 Y-1.1094
G03 X195.4892 Y-1.0872 I-0.41 J1.4429
G01 X195.8334 Y-0.9706
G03 X195.9032 Y-0.945 I-0.4813 J1.4207
G01 X196.2395 Y-0.8122
G03 X196.3076 Y-0.7833 I-0.5511 J1.3951
G01 X196.6355 Y-0.6348
G03 X196.7007 Y-0.6033 I-0.6191 J1.3663
G01 X197.0203 Y-0.4394
G03 X197.0844 Y-0.4046 I-0.6844 J1.3348
G01 X197.3945 Y-0.226
G03 X197.4556 Y-0.1889 I-0.7484 J1.2999
G01 X197.7563 Y0.0039
G03 X197.8164 Y0.0445 I-0.8095 J1.2628
G01 X198.107 Y0.2513
G03 X198.1648 Y0.2946 I-0.8696 J1.2222
G01 X198.4447 Y0.5148
G03 X198.4997 Y0.5602 I-0.9275 J1.1789
G01 X198.7684 Y0.7931
G03 X198.8206 Y0.8405 I-0.9824 J1.1335
G01 X199.0782 Y1.0859
G03 X199.1296 Y1.1373 I-1.0346 J1.0861
G01 X199.375 Y1.3949
G03 X199.4223 Y1.447 I-1.0861 J1.0346
G01 X199.6555 Y1.716
G03 X199.7015 Y1.7717 I-1.1334 J0.9825
G01 X199.9214 Y2.0516
G03 X199.9639 Y2.1083 I-1.1794 J0.9268
G01 X200.1706 Y2.3986
G03 X200.2116 Y2.4592 I-1.2218 J0.8701
G01 X200.4044 Y2.7599
G03 X200.4415 Y2.821 I-1.2628 J0.8095
G01 X200.6201 Y3.1311
G03 X200.6549 Y3.1952 I-1.2999 J0.7484
G01 X200.8188 Y3.5148
G03 X200.8503 Y3.58 I-1.3348 J0.6844
G01 X200.9988 Y3.9079
G03 X201.0277 Y3.976 I-1.3663 J0.6191
G01 X201.1605 Y4.3123
G03 X201.1861 Y4.3821 I-1.3951 J0.5511
G01 X201.3027 Y4.7263
G03 X201.3246 Y4.7965 I-1.4207 J0.4813
G01 X201.4247 Y5.1478
G03 X201.4435 Y5.2209 I-1.4426 J0.411
G01 X201.5263 Y5.579
G03 X201.5414 Y5.6525 I-1.4614 J0.3379
G01 X201.6067 Y6.017
G03 X201.6182 Y6.0926 I-1.4765 J0.2644
G01 X201.6652 Y6.4629
G03 X201.6728 Y6.5376 I-1.4881 J0.1888
G01 X201.7015 Y6.9135
G03 X201.7054 Y6.9897 I-1.4956 J0.1142
G01 X201.715 Y7.3704
G03 X201.7155 Y7.4084 I-1.4995 J0.038
G01 Y118.3851
G03 X201.715 Y118.4231 I-1.5 J0.0
G01 X201.7054 Y118.8038
G03 X201.7015 Y118.88 I-1.4995 J-0.038
G01 X201.6728 Y119.2559
G03 X201.6652 Y119.3306 I-1.4956 J-0.1142
G01 X201.6182 Y119.7009
G03 X201.6067 Y119.7765 I-1.4881 J-0.1888
G01 X201.5414 Y120.141
G03 X201.5263 Y120.2145 I-1.4765 J-0.2644
G01 X201.4435 Y120.5726
G03 X201.4247 Y120.6457 I-1.4614 J-0.3379
G01 X201.3246 Y120.997
G03 X201.3027 Y121.0672 I-1.4426 J-0.411
G01 X201.1861 Y121.4114
G03 X201.1605 Y121.4812 I-1.4207 J-0.4813
G01 X201.0277 Y121.8175
G03 X200.9988 Y121.8856 I-1.3951 J-0.5511
G01 X200.8503 Y122.2135
G03 X200.8188 Y122.2787 I-1.3663 J-0.6191
G01 X200.6549 Y122.5983
G03 X200.6201 Y122.6624 I-1.3348 J-0.6844
G01 X200.4415 Y122.9725
G03 X200.4044 Y123.0336 I-1.2999 J-0.7484
G01 X200.2116 Y123.3343
G03 X200.1706 Y123.3949 I-1.2628 J-0.8095
G01 X199.9639 Y123.6852
G03 X199.9214 Y123.7419 I-1.2218 J-0.8701
G01 X199.7015 Y124.0218
G03 X199.6555 Y124.0775 I-1.1794 J-0.9268
G01 X199.4223 Y124.3465
G03 X199.375 Y124.3986 I-1.1334 J-0.9825
G01 X199.1296 Y124.6562
G03 X199.0782 Y124.7076 I-1.0861 J-1.0346
G01 X198.8206 Y124.953
G03 X198.7684 Y125.0004 I-1.0346 J-1.0861
G01 X198.4997 Y125.2333
G03 X198.4447 Y125.2787 I-0.9824 J-1.1335
G01 X198.1648 Y125.4989
G03 X198.107 Y125.5422 I-0.9275 J-1.1789
G01 X197.8164 Y125.749
G03 X197.7563 Y125.7896 I-0.8696 J-1.2222
G01 X197.4556 Y125.9824
G03 X197.3945 Y126.0195 I-0.8095 J-1.2628
G01 X197.0844 Y126.1981
G03 X197.0203 Y126.2329 I-0.7484 J-1.2999
G01 X196.7007 Y126.3968
G03 X196.6355 Y126.4283 I-0.6844 J-1.3348
G01 X196.3076 Y126.5768
G03 X196.2395 Y126.6057 I-0.6191 J-1.3663
G01 X195.9032 Y126.7385
G03 X195.8334 Y126.7641 I-0.5511 J-1.3951
G01 X195.4892 Y126.8807
G03 X195.418 Y126.9029 I-0.4813 J-1.4207
G01 X195.0667 Y127.0027
G03 X194.9956 Y127.021 I-0.41 J-1.4429
G01 X194.6374 Y127.1041
G03 X194.562 Y127.1196 I-0.3389 J-1.4612
G01 X194.1975 Y127.1846
G03 X194.1239 Y127.1958 I-0.2634 J-1.4767
G01 X193.7536 Y127.2431
G03 X193.6779 Y127.2508 I-0.1898 J-1.4879
G01 X193.302 Y127.2795
G03 X193.2259 Y127.2834 I-0.1142 J-1.4956
G01 X192.8454 Y127.293
G03 X192.8073 Y127.2935 I-0.038 J-1.4995
G01 X7.4084
G03 X7.3704 Y127.293 I0.0 J-1.5
G01 X6.9897 Y127.2834
G03 X6.9135 Y127.2795 I0.038 J-1.4995
G01 X6.5376 Y127.2508
G03 X6.4619 Y127.2431 I0.1142 J-1.4956
G01 X6.0916 Y127.1958
G03 X6.018 Y127.1846 I0.1898 J-1.4879
G01 X5.6535 Y127.1196
G03 X5.5781 Y127.1041 I0.2634 J-1.4767
G01 X5.2199 Y127.021
G03 X5.1488 Y127.0027 I0.3389 J-1.4612
G01 X4.7975 Y126.9029
G03 X4.7263 Y126.8807 I0.41 J-1.4429
G01 X4.3821 Y126.7641
G03 X4.3123 Y126.7385 I0.4813 J-1.4207
G01 X3.976 Y126.6057
G03 X3.9079 Y126.5768 I0.5511 J-1.3951
G01 X3.58 Y126.4283
G03 X3.5148 Y126.3968 I0.6191 J-1.3663
G01 X3.1952 Y126.2329
G03 X3.1311 Y126.1981 I0.6844 J-1.3348
G01 X2.821 Y126.0195
G03 X2.7599 Y125.9824 I0.7484 J-1.2999
G01 X2.4592 Y125.7896
G03 X2.3986 Y125.7486 I0.8095 J-1.2628
G01 X2.1083 Y125.5419
G03 X2.0509 Y125.4989 I0.8701 J-1.2218
G01 X1.771 Y125.2787
G03 X1.7166 Y125.2338 I0.9275 J-1.1789
G01 X1.4476 Y125.0009
G03 X1.3949 Y124.953 I0.9819 J-1.134
G01 X1.1373 Y124.7076
G03 X1.0859 Y124.6562 I1.0346 J-1.0861
G01 X0.8405 Y124.3986
G03 X0.7931 Y124.3464 I1.0861 J-1.0346
G01 X0.5602 Y124.0777
G03 X0.5144 Y124.0222 I1.1335 J-0.9824
G01 X0.2942 Y123.7421
G03 X0.2516 Y123.6852 I1.1793 J-0.927
G01 X0.0449 Y123.3949
G03 X0.0039 Y123.3343 I1.2218 J-0.8701
G01 X-0.1889 Y123.0336
G03 X-0.226 Y122.9725 I1.2628 J-0.8095
G01 X-0.4046 Y122.6624
G03 X-0.4394 Y122.5983 I1.2999 J-0.7484
G01 X-0.6033 Y122.2787
G03 X-0.6348 Y122.2135 I1.3348 J-0.6844
G01 X-0.7833 Y121.8856
G03 X-0.8122 Y121.8175 I1.3663 J-0.6191
G01 X-0.945 Y121.4812
G03 X-0.9706 Y121.4114 I1.3951 J-0.5511
G01 X-1.0872 Y121.0672
G03 X-1.1094 Y120.996 I1.4207 J-0.4813
G01 X-1.2092 Y120.6447
G03 X-1.2278 Y120.5726 I1.4429 J-0.41
G01 X-1.3106 Y120.2145
G03 X-1.3256 Y120.141 I1.4614 J-0.3379
G01 X-1.3909 Y119.7765
G03 X-1.4023 Y119.7019 I1.4765 J-0.2644
G01 X-1.4496 Y119.3316
G03 X-1.4573 Y119.2559 I1.4879 J-0.1898
G01 X-1.486 Y118.88
G03 X-1.4899 Y118.8038 I1.4956 J-0.1142
G01 X-1.4995 Y118.4231
G03 X-1.5 Y118.3851 I1.4995 J-0.038
G01 Y7.4084
G03 X-1.4995 Y7.3704 I1.5 J0.0
G01 X-1.4899 Y6.9897
G03 X-1.486 Y6.9135 I1.4995 J0.038
G01 X-1.4573 Y6.5376
G03 X-1.4496 Y6.4619 I1.4956 J0.1142
G01 X-1.4023 Y6.0916
G03 X-1.3909 Y6.017 I1.4879 J0.1898
G01 X-1.3256 Y5.6525
G03 X-1.3106 Y5.579 I1.4765 J0.2644
G01 X-1.2278 Y5.2209
G03 X-1.2092 Y5.1488 I1.4614 J0.3379
G01 X-1.1094 Y4.7975
G03 X-1.0872 Y4.7263 I1.4429 J0.41
G01 X-0.9706 Y4.3821
G03 X-0.945 Y4.3123 I1.4207 J0.4813
G01 X-0.8122 Y3.976
G03 X-0.7833 Y3.9079 I1.3951 J0.5511
G01 X-0.6348 Y3.58
G03 X-0.6033 Y3.5148 I1.3663 J0.6191
G01 X-0.4394 Y3.1952
G03 X-0.4046 Y3.1311 I1.3348 J0.6844
G01 X-0.226 Y2.821
G03 X-0.1889 Y2.7599 I1.2999 J0.7484
G01 X0.0039 Y2.4592
G03 X0.0449 Y2.3986 I1.2628 J0.8095
G01 X0.2516 Y2.1083
G03 X0.2942 Y2.0514 I1.2218 J0.8701
G01 X0.5144 Y1.7713
G03 X0.5602 Y1.7158 I1.1793 J0.927
G01 X0.7931 Y1.4471
G03 X0.8405 Y1.3949 I1.1335 J0.9824
G01 Z1.1 F100.0
G01 X1.0859 Y1.1373 F500.0
G03 X1.1373 Y1.0859 I1.0861 J1.0346
G01 X1.3949 Y0.8405
G03 X1.4476 Y0.7926 I1.0346 J1.0861
G01 X1.7166 Y0.5597
G03 X1.771 Y0.5148 I0.9819 J1.134
G01 X2.0509 Y0.2946
G03 X2.1083 Y0.2516 I0.9275 J1.1789
G01 X2.3986 Y0.0449
G03 X2.4592 Y0.0039 I0.8701 J1.2218
G01 X2.7599 Y-0.1889
G03 X2.821 Y-0.226 I0.8095 J1.2628
G01 X3.1311 Y-0.4046
G03 X3.1952 Y-0.4394 I0.7484 J1.2999
G01 X3.5148 Y-0.6033
G03 X3.58 Y-0.6348 I0.6844 J1.3348
G01 X3.9079 Y-0.7833
G03 X3.976 Y-0.8122 I0.6191 J1.3663
G01 X4.3123 Y-0.945
G03 X4.3821 Y-0.9706 I0.5511 J1.3951
G01 X4.7263 Y-1.0872
G03 X4.7975 Y-1.1094 I0.4813 J1.4207
G01 X5.1488 Y-1.2092
G03 X5.2199 Y-1.2275 I0.41 J1.4429
G01 X5.5781 Y-1.3106
G03 X5.6535 Y-1.3261 I0.3389 J1.4612
G01 X6.018 Y-1.3911
G03 X6.0916 Y-1.4023 I0.2634 J1.4767
G01 X6.4619 Y-1.4496
G03 X6.5376 Y-1.4573 I0.1898 J1.4879
G01 X6.9135 Y-1.486
G03 X6.9897 Y-1.4899 I0.1142 J1.4956
G01 X7.3704 Y-1.4995
G03 X7.4084 Y-1.5 I0.038 J1.4995
G01 X192.8073
G03 X192.8454 Y-1.4995 I0.0 J1.5
G01 X193.2259 Y-1.4899
G03 X193.302 Y-1.486 I-0.038 J1.4995
G01 X193.6779 Y-1.4573
G03 X193.7536 Y-1.4496 I-0.1142 J1.4956
G01 X194.1239 Y-1.4023
G03 X194.1975 Y-1.3911 I-0.1898 J1.4879
G01 X194.562 Y-1.3261
G03 X194.6374 Y-1.3106 I-0.2634 J1.4767
G01 X194.9956 Y-1.2275
G03 X195.0667 Y-1.2092 I-0.3389 J1.4612
G01 X195.418 Y-1.1094
G03 X195.4892 Y-1.0872 I-0.41 J1.4429
G01 X195.8334 Y-0.9706
G03 X195.9032 Y-0.945 I-0.4813 J1.4207
G01 X196.2395 Y-0.8122
G03 X196.3076 Y-0.7833 I-0.5511 J1.3951
G01 X196.6355 Y-0.6348
G03 X196.7007 Y-0.6033 I-0.6191 J1.3663
G01 X197.0203 Y-0.4394
G03 X197.0844 Y-0.4046 I-0.6844 J1.3348
G01 X197.3945 Y-0.226
G03 X197.4556 Y-0.1889 I-0.7484 J1.2999
G01 X197.7563 Y0.0039
G03 X197.8164 Y0.0445 I-0.8095 J1.2628
G01 X198.107 Y0.2513
G03 X198.1648 Y0.2946 I-0.8696 J1.2222
G01 X198.4447 Y0.5148
G03 X198.4997 Y0.5602 I-0.9275 J1.1789
G01 X198.7684 Y0.7931
G03 X198.8206 Y0.8405 I-0.9824 J1.1335
G01 X199.0782 Y1.0859
G03 X199.1296 Y1.1373 I-1.0346 J1.0861
G01 X199.375 Y1.3949
G03 X199.4223 Y1.447 I-1.0861 J1.0346
G01 X199.6555 Y1.716
G03 X199.7015 Y1.7717 I-1.1334 J0.9825
G01 X199.9214 Y2.0516
G03 X199.9639 Y2.1083 I-1.1794 J0.9268
G01 X200.1706 Y2.3986
G03 X200.2116 Y2.4592 I-1.2218 J0.8701
G01 X200.4044 Y2.7599
G03 X200.4415 Y2.821 I-1.2628 J0.8095
G01 X200.6201 Y3.1311
G03 X200.6549 Y3.1952 I-1.2999 J0.7484
G01 X200.8188 Y3.5148
G03 X200.8503 Y3.58 I-1.3348 J0.6844
G01 X200.9988 Y3.9079
G03 X201.0277 Y3.976 I-1.3663 J0.6191
G01 X201.1605 Y4.3123
G03 X201.1861 Y4.3821 I-1.3951 J0.5511
G01 X201.3027 Y4.7263
G03 X201.3246 Y4.7965 I-1.4207 J0.4813
G01 X201.4247 Y5.1478
G03 X201.4435 Y5.2209 I-1.4426 J0.411
G01 X201.5263 Y5.579
G03 X201.5414 Y5.6525 I-1.4614 J0.3379
G01 X201.6067 Y6.017
G03 X201.6182 Y6.0926 I-1.4765 J0.2644
G01 X201.6652 Y6.4629
G03 X201.6728 Y6.5376 I-1.4881 J0.1888
G01 X201.7015 Y6.9135
G03 X201.7054 Y6.9897 I-1.4956 J0.1142
G01 X201.715 Y7.3704
G03 X201.7155 Y7.4084 I-1.4995 J0.038
G01 Y118.3851
G03 X201.715 Y118.4231 I-1.5 J0.0
G01 X201.7054 Y118.8038
G03 X201.7015 Y118.88 I-1.4995 J-0.038
G01 X201.6728 Y119.2559
G03 X201.6652 Y119.3306 I-1.4956 J-0.1142
G01 X201.6182 Y119.7009
G03 X201.6067 Y119.7765 I-1.4881 J-0.1888
G01 X201.5414 Y120.141
G03 X201.5263 Y120.2145 I-1.4765 J-0.2644
G01 X201.4435 Y120.5726
G03 X201.4247 Y120.6457 I-1.4614 J-0.3379
G01 X201.3246 Y120.997
G03 X201.3027 Y121.0672 I-1.4426 J-0.411
G01 X201.1861 Y121.4114
G03 X201.1605 Y121.4812 I-1.4207 J-0.4813
G01 X201.0277 Y121.8175
G03 X200.9988 Y121.8856 I-1.3951 J-0.5511
G01 X200.8503 Y122.2135
G03 X200.8188 Y122.2787 I-1.3663 J-0.6191
G01 X200.6549 Y122.5983
G03 X200.6201 Y122.6624 I-1.3348 J-0.6844
G01 X200.4415 Y122.9725
G03 X200.4044 Y123.0336 I-1.2999 J-0.7484
G01 X200.2116 Y123.3343
G03 X200.1706 Y123.3949 I-1.2628 J-0.8095
G01 X199.9639 Y123.6852
G03 X199.9214 Y123.7419 I-1.2218 J-0.8701
G01 X199.7015 Y124.0218
G03 X199.6555 Y124.0775 I-1.1794 J-0.9268
G01 X199.4223 Y124.3465
G03 X199.375 Y124.3986 I-1.1334 J-0.9825
G01 X199.1296 Y124.6562
G03 X199.0782 Y124.7076 I-1.0861 J-1.0346
G01 X198.8206 Y124.953
G03 X198.7684 Y125.0004 I-1.0346 J-1.0861
G01 X198.4997 Y125.2333
G03 X198.4447 Y125.2787 I-0.9824 J-1.1335
G01 X198.1648 Y125.4989
G03 X198.107 Y125.5422 I-0.9275 J-1.1789
G01 X197.8164 Y125.749
G03 X197.7563 Y125.7896 I-0.8696 J-1.2222
G01 X197.4556 Y125.9824
G03 X197.3945 Y126.0195 I-0.8095 J-1.2628
G01 X197.0844 Y126.1981
G03 X197.0203 Y126.2329 I-0.7484 J-1.2999
G01 X196.7007 Y126.3968
G03 X196.6355 Y126.4283 I-0.6844 J-1.3348
G01 X196.3076 Y126.5768
G03 X196.2395 Y126.6057 I-0.6191 J-1.3663
G01 X195.9032 Y126.7385
G03 X195.8334 Y126.7641 I-0.5511 J-1.3951
G01 X195.4892 Y126.8807
G03 X195.418 Y126.9029 I-0.4813 J-1.4207
G01 X195.0667 Y127.0027
G03 X194.9956 Y127.021 I-0.41 J-1.4429
G01 X194.6374 Y127.1041
G03 X194.562 Y127.1196 I-0.3389 J-1.4612
G01 X194.1975 Y127.1846
G03 X194.1239 Y127.1958 I-0.2634 J-1.4767
G01 X193.7536 Y127.2431
G03 X193.6779 Y127.2508 I-0.1898 J-1.4879
G01 X193.302 Y127.2795
G03 X193.2259 Y127.2834 I-0.1142 J-1.4956
G01 X192.8454 Y127.293
G03 X192.8073 Y127.2935 I-0.038 J-1.4995
G01 X7.4084
G03 X7.3704 Y127.293 I0.0 J-1.5
G01 X6.9897 Y127.2834
G03 X6.9135 Y127.2795 I0.038 J-1.4995
G01 X6.5376 Y127.2508
G03 X6.4619 Y127.2431 I0.1142 J-1.4956
G01 X6.0916 Y127.1958
G03 X6.018 Y127.1846 I0.1898 J-1.4879
G01 X5.6535 Y127.1196
G03 X5.5781 Y127.1041 I0.2634 J-1.4767
G01 X5.2199 Y127.021
G03 X5.1488 Y127.0027 I0.3389 J-1.4612
G01 X4.7975 Y126.9029
G03 X4.7263 Y126.8807 I0.41 J-1.4429
G01 X4.3821 Y126.7641
G03 X4.3123 Y126.7385 I0.4813 J-1.4207
G01 X3.976 Y126.6057
G03 X3.9079 Y126.5768 I0.5511 J-1.3951
G01 X3.58 Y126.4283
G03 X3.5148 Y126.3968 I0.6191 J-1.3663
G01 X3.1952 Y126.2329
G03 X3.1311 Y126.1981 I0.6844 J-1.3348
G01 X2.821 Y126.0195
G03 X2.7599 Y125.9824 I0.7484 J-1.2999
G01 X2.4592 Y125.7896
G03 X2.3986 Y125.7486 I0.8095 J-1.2628
G01 X2.1083 Y125.5419
G03 X2.0509 Y125.4989 I0.8701 J-1.2218
G01 X1.771 Y125.2787
G03 X1.7166 Y125.2338 I0.9275 J-1.1789
G01 X1.4476 Y125.0009
G03 X1.3949 Y124.953 I0.9819 J-1.134
G01 X1.1373 Y124.7076
G03 X1.0859 Y124.6562 I1.0346 J-1.0861
G01 X0.8405 Y124.3986
G03 X0.7931 Y124.3464 I1.0861 J-1.0346
G01 X0.5602 Y124.0777
G03 X0.5144 Y124.0222 I1.1335 J-0.9824
G01 X0.2942 Y123.7421
G03 X0.2516 Y123.6852 I1.1793 J-0.927
G01 X0.0449 Y123.3949
G03 X0.0039 Y123.3343 I1.2218 J-0.8701
G01 X-0.1889 Y123.0336
G03 X-0.226 Y122.9725 I1.2628 J-0.8095
G01 X-0.4046 Y122.6624
G03 X-0.4394 Y122.5983 I1.2999 J-0.7484
G01 X-0.6033 Y122.2787
G03 X-0.6348 Y122.2135 I1.3348 J-0.6844
G01 X-0.7833 Y121.8856
G03 X-0.8122 Y121.8175 I1.3663 J-0.6191
G01 X-0.945 Y121.4812
G03 X-0.9706 Y121.4114 I1.3951 J-0.5511
G01 X-1.0872 Y121.0672
G03 X-1.1094 Y120.996 I1.4207 J-0.4813
G01 X-1.2092 Y120.6447
G03 X-1.2278 Y120.5726 I1.4429 J-0.41
G01 X-1.3106 Y120.2145
G03 X-1.3256 Y120.141 I1.4614 J-0.3379
G01 X-1.3909 Y119.7765
G03 X-1.4023 Y119.7019 I1.4765 J-0.2644
G01 X-1.4496 Y119.3316
G03 X-1.4573 Y119.2559 I1.4879 J-0.1898
G01 X-1.486 Y118.88
G03 X-1.4899 Y118.8038 I1.4956 J-0.1142
G01 X-1.4995 Y118.4231
G03 X-1.5 Y118.3851 I1.4995 J-0.038
G01 Y7.4084
G03 X-1.4995 Y7.3704 I1.5 J0.0
G01 X-1.4899 Y6.9897
G03 X-1.486 Y6.9135 I1.4995 J0.038
G01 X-1.4573 Y6.5376
G03 X-1.4496 Y6.4619 I1.4956 J0.1142
G01 X-1.4023 Y6.0916
G03 X-1.3909 Y6.017 I1.4879 J0.1898
G01 X-1.3256 Y5.6525
G03 X-1.3106 Y5.579 I1.4765 J0.2644
G01 X-1.2278 Y5.2209
G03 X-1.2092 Y5.1488 I1.4614 J0.3379
G01 X-1.1094 Y4.7975
G03 X-1.0872 Y4.7263 I1.4429 J0.41
G01 X-0.9706 Y4.3821
G03 X-0.945 Y4.3123 I1.4207 J0.4813
G01 X-0.8122 Y3.976
G03 X-0.7833 Y3.9079 I1.3951 J0.5511
G01 X-0.6348 Y3.58
G03 X-0.6033 Y3.5148 I1.3663 J0.6191
G01 X-0.4394 Y3.1952
G03 X-0.4046 Y3.1311 I1.3348 J0.6844
G01 X-0.226 Y2.821
G03 X-0.1889 Y2.7599 I1.2999 J0.7484
G01 X0.0039 Y2.4592
G03 X0.0449 Y2.3986 I1.2628 J0.8095
G01 X0.2516 Y2.1083
G03 X0.2942 Y2.0514 I1.2218 J0.8701
G01 X0.5144 Y1.7713
G03 X0.5602 Y1.7158 I1.1793 J0.927
G01 X0.7931 Y1.4471
G03 X0.8405 Y1.3949 I1.1335 J0.9824
G01 Z1.0 F100.0
G01 X1.0859 Y1.1373 F500.0
G03 X1.1373 Y1.0859 I1.0861 J1.0346
G01 X1.3949 Y0.8405
G03 X1.4476 Y0.7926 I1.0346 J1.0861
G01 X1.7166 Y0.5597
G03 X1.771 Y0.5148 I0.9819 J1.134
G01 X2.0509 Y0.2946
G03 X2.1083 Y0.2516 I0.9275 J1.1789
G01 X2.3986 Y0.0449
G03 X2.4592 Y0.0039 I0.8701 J1.2218
G01 X2.7599 Y-0.1889
G03 X2.821 Y-0.226 I0.8095 J1.2628
G01 X3.1311 Y-0.4046
G03 X3.1952 Y-0.4394 I0.7484 J1.2999
G01 X3.5148 Y-0.6033
G03 X3.58 Y-0.6348 I0.6844 J1.3348
G01 X3.9079 Y-0.7833
G03 X3.976 Y-0.8122 I0.6191 J1.3663
G01 X4.3123 Y-0.945
G03 X4.3821 Y-0.9706 I0.5511 J1.3951
G01 X4.7263 Y-1.0872
G03 X4.7975 Y-1.1094 I0.4813 J1.4207
G01 X5.1488 Y-1.2092
G03 X5.2199 Y-1.2275 I0.41 J1.4429
G01 X5.5781 Y-1.3106
G03 X5.6535 Y-1.3261 I0.3389 J1.4612
G01 X6.018 Y-1.3911
G03 X6.0916 Y-1.4023 I0.2634 J1.4767
G01 X6.4619 Y-1.4496
G03 X6.5376 Y-1.4573 I0.1898 J1.4879
G01 X6.9135 Y-1.486
G03 X6.9897 Y-1.4899 I0.1142 J1.4956
G01 X7.3704 Y-1.4995
G03 X7.4084 Y-1.5 I0.038 J1.4995
G01 X192.8073
G03 X192.8454 Y-1.4995 I0.0 J1.5
G01 X193.2259 Y-1.4899
G03 X193.302 Y-1.486 I-0.038 J1.4995
G01 X193.6779 Y-1.4573
G03 X193.7536 Y-1.4496 I-0.1142 J1.4956
G01 X194.1239 Y-1.4023
G03 X194.1975 Y-1.3911 I-0.1898 J1.4879
G01 X194.562 Y-1.3261
G03 X194.6374 Y-1.3106 I-0.2634 J1.4767
G01 X194.9956 Y-1.2275
G03 X195.0667 Y-1.2092 I-0.3389 J1.4612
G01 X195.418 Y-1.1094
G03 X195.4892 Y-1.0872 I-0.41 J1.4429
G01 X195.8334 Y-0.9706
G03 X195.9032 Y-0.945 I-0.4813 J1.4207
G01 X196.2395 Y-0.8122
G03 X196.3076 Y-0.7833 I-0.5511 J1.3951
G01 X196.6355 Y-0.6348
G03 X196.7007 Y-0.6033 I-0.6191 J1.3663
G01 X197.0203 Y-0.4394
G03 X197.0844 Y-0.4046 I-0.6844 J1.3348
G01 X197.3945 Y-0.226
G03 X197.4556 Y-0.1889 I-0.7484 J1.2999
G01 X197.7563 Y0.0039
G03 X197.8164 Y0.0445 I-0.8095 J1.2628
G01 X198.107 Y0.2513
G03 X198.1648 Y0.2946 I-0.8696 J1.2222
G01 X198.4447 Y0.5148
G03 X198.4997 Y0.5602 I-0.9275 J1.1789
G01 X198.7684 Y0.7931
G03 X198.8206 Y0.8405 I-0.9824 J1.1335
G01 X199.0782 Y1.0859
G03 X199.1296 Y1.1373 I-1.0346 J1.0861
G01 X199.375 Y1.3949
G03 X199.4223 Y1.447 I-1.0861 J1.0346
G01 X199.6555 Y1.716
G03 X199.7015 Y1.7717 I-1.1334 J0.9825
G01 X199.9214 Y2.0516
G03 X199.9639 Y2.1083 I-1.1794 J0.9268
G01 X200.1706 Y2.3986
G03 X200.2116 Y2.4592 I-1.2218 J0.8701
G01 X200.4044 Y2.7599
G03 X200.4415 Y2.821 I-1.2628 J0.8095
G01 X200.6201 Y3.1311
G03 X200.6549 Y3.1952 I-1.2999 J0.7484
G01 X200.8188 Y3.5148
G03 X200.8503 Y3.58 I-1.3348 J0.6844
G01 X200.9988 Y3.9079
G03 X201.0277 Y3.976 I-1.3663 J0.6191
G01 X201.1605 Y4.3123
G03 X201.1861 Y4.3821 I-1.3951 J0.5511
G01 X201.3027 Y4.7263
G03 X201.3246 Y4.7965 I-1.4207 J0.4813
G01 X201.4247 Y5.1478
G03 X201.4435 Y5.2209 I-1.4426 J0.411
G01 X201.5263 Y5.579
G03 X201.5414 Y5.6525 I-1.4614 J0.3379
G01 X201.6067 Y6.017
G03 X201.6182 Y6.0926 I-1.4765 J0.2644
G01 X201.6652 Y6.4629
G03 X201.6728 Y6.5376 I-1.4881 J0.1888
G01 X201.7015 Y6.9135
G03 X201.7054 Y6.9897 I-1.4956 J0.1142
G01 X201.715 Y7.3704
G03 X201.7155 Y7.4084 I-1.4995 J0.038
G01 Y118.3851
G03 X201.715 Y118.4231 I-1.5 J0.0
G01 X201.7054 Y118.8038
G03 X201.7015 Y118.88 I-1.4995 J-0.038
G01 X201.6728 Y119.2559
G03 X201.6652 Y119.3306 I-1.4956 J-0.1142
G01 X201.6182 Y119.7009
G03 X201.6067 Y119.7765 I-1.4881 J-0.1888
G01 X201.5414 Y120.141
G03 X201.5263 Y120.2145 I-1.4765 J-0.2644
G01 X201.4435 Y120.5726
G03 X201.4247 Y120.6457 I-1.4614 J-0.3379
G01 X201.3246 Y120.997
G03 X201.3027 Y121.0672 I-1.4426 J-0.411
G01 X201.1861 Y121.4114
G03 X201.1605 Y121.4812 I-1.4207 J-0.4813
G01 X201.0277 Y121.8175
G03 X200.9988 Y121.8856 I-1.3951 J-0.5511
G01 X200.8503 Y122.2135
G03 X200.8188 Y122.2787 I-1.3663 J-0.6191
G01 X200.6549 Y122.5983
G03 X200.6201 Y122.6624 I-1.3348 J-0.6844
G01 X200.4415 Y122.9725
G03 X200.4044 Y123.0336 I-1.2999 J-0.7484
G01 X200.2116 Y123.3343
G03 X200.1706 Y123.3949 I-1.2628 J-0.8095
G01 X199.9639 Y123.6852
G03 X199.9214 Y123.7419 I-1.2218 J-0.8701
G01 X199.7015 Y124.0218
G03 X199.6555 Y124.0775 I-1.1794 J-0.9268
G01 X199.4223 Y124.3465
G03 X199.375 Y124.3986 I-1.1334 J-0.9825
G01 X199.1296 Y124.6562
G03 X199.0782 Y124.7076 I-1.0861 J-1.0346
G01 X198.8206 Y124.953
G03 X198.7684 Y125.0004 I-1.0346 J-1.0861
G01 X198.4997 Y125.2333
G03 X198.4447 Y125.2787 I-0.9824 J-1.1335
G01 X198.1648 Y125.4989
G03 X198.107 Y125.5422 I-0.9275 J-1.1789
G01 X197.8164 Y125.749
G03 X197.7563 Y125.7896 I-0.8696 J-1.2222
G01 X197.4556 Y125.9824
G03 X197.3945 Y126.0195 I-0.8095 J-1.2628
G01 X197.0844 Y126.1981
G03 X197.0203 Y126.2329 I-0.7484 J-1.2999
G01 X196.7007 Y126.3968
G03 X196.6355 Y126.4283 I-0.6844 J-1.3348
G01 X196.3076 Y126.5768
G03 X196.2395 Y126.6057 I-0.6191 J-1.3663
G01 X195.9032 Y126.7385
G03 X195.8334 Y126.7641 I-0.5511 J-1.3951
G01 X195.4892 Y126.8807
G03 X195.418 Y126.9029 I-0.4813 J-1.4207
G01 X195.0667 Y127.0027
G03 X194.9956 Y127.021 I-0.41 J-1.4429
G01 X194.6374 Y127.1041
G03 X194.562 Y127.1196 I-0.3389 J-1.4612
G01 X194.1975 Y127.1846
G03 X194.1239 Y127.1958 I-0.2634 J-1.4767
G01 X193.7536 Y127.2431
G03 X193.6779 Y127.2508 I-0.1898 J-1.4879
G01 X193.302 Y127.2795
G03 X193.2259 Y127.2834 I-0.1142 J-1.4956
G01 X192.8454 Y127.293
G03 X192.8073 Y127.2935 I-0.038 J-1.4995
G01 X7.4084
G03 X7.3704 Y127.293 I0.0 J-1.5
G01 X6.9897 Y127.2834
G03 X6.9135 Y127.2795 I0.038 J-1.4995
G01 X6.5376 Y127.2508
G03 X6.4619 Y127.2431 I0.1142 J-1.4956
G01 X6.0916 Y127.1958
G03 X6.018 Y127.1846 I0.1898 J-1.4879
G01 X5.6535 Y127.1196
G03 X5.5781 Y127.1041 I0.2634 J-1.4767
G01 X5.2199 Y127.021
G03 X5.1488 Y127.0027 I0.3389 J-1.4612
G01 X4.7975 Y126.9029
G03 X4.7263 Y126.8807 I0.41 J-1.4429
G01 X4.3821 Y126.7641
G03 X4.3123 Y126.7385 I0.4813 J-1.4207
G01 X3.976 Y126.6057
G03 X3.9079 Y126.5768 I0.5511 J-1.3951
G01 X3.58 Y126.4283
G03 X3.5148 Y126.3968 I0.6191 J-1.3663
G01 X3.1952 Y126.2329
G03 X3.1311 Y126.1981 I0.6844 J-1.3348
G01 X2.821 Y126.0195
G03 X2.7599 Y125.9824 I0.7484 J-1.2999
G01 X2.4592 Y125.7896
G03 X2.3986 Y125.7486 I0.8095 J-1.2628
G01 X2.1083 Y125.5419
G03 X2.0509 Y125.4989 I0.8701 J-1.2218
G01 X1.771 Y125.2787
G03 X1.7166 Y125.2338 I0.9275 J-1.1789
G01 X1.4476 Y125.0009
G03 X1.3949 Y124.953 I0.9819 J-1.134
G01 X1.1373 Y124.7076
G03 X1.0859 Y124.6562 I1.0346 J-1.0861
G01 X0.8405 Y124.3986
G03 X0.7931 Y124.3464 I1.0861 J-1.0346
G01 X0.5602 Y124.0777
G03 X0.5144 Y124.0222 I1.1335 J-0.9824
G01 X0.2942 Y123.7421
G03 X0.2516 Y123.6852 I1.1793 J-0.927
G01 X0.0449 Y123.3949
G03 X0.0039 Y123.3343 I1.2218 J-0.8701
G01 X-0.1889 Y123.0336
G03 X-0.226 Y122.9725 I1.2628 J-0.8095
G01 X-0.4046 Y122.6624
G03 X-0.4394 Y122.5983 I1.2999 J-0.7484
G01 X-0.6033 Y122.2787
G03 X-0.6348 Y122.2135 I1.3348 J-0.6844
G01 X-0.7833 Y121.8856
G03 X-0.8122 Y121.8175 I1.3663 J-0.6191
G01 X-0.945 Y121.4812
G03 X-0.9706 Y121.4114 I1.3951 J-0.5511
G01 X-1.0872 Y121.0672
G03 X-1.1094 Y120.996 I1.4207 J-0.4813
G01 X-1.2092 Y120.6447
G03 X-1.2278 Y120.5726 I1.4429 J-0.41
G01 X-1.3106 Y120.2145
G03 X-1.3256 Y120.141 I1.4614 J-0.3379
G01 X-1.3909 Y119.7765
G03 X-1.4023 Y119.7019 I1.4765 J-0.2644
G01 X-1.4496 Y119.3316
G03 X-1.4573 Y119.2559 I1.4879 J-0.1898
G01 X-1.486 Y118.88
G03 X-1.4899 Y118.8038 I1.4956 J-0.1142
G01 X-1.4995 Y118.4231
G03 X-1.5 Y118.3851 I1.4995 J-0.038
G01 Y7.4084
G03 X-1.4995 Y7.3704 I1.5 J0.0
G01 X-1.4899 Y6.9897
G03 X-1.486 Y6.9135 I1.4995 J0.038
G01 X-1.4573 Y6.5376
G03 X-1.4496 Y6.4619 I1.4956 J0.1142
G01 X-1.4023 Y6.0916
G03 X-1.3909 Y6.017 I1.4879 J0.1898
G01 X-1.3256 Y5.6525
G03 X-1.3106 Y5.579 I1.4765 J0.2644
G01 X-1.2278 Y5.2209
G03 X-1.2092 Y5.1488 I1.4614 J0.3379
G01 X-1.1094 Y4.7975
G03 X-1.0872 Y4.7263 I1.4429 J0.41
G01 X-0.9706 Y4.3821
G03 X-0.945 Y4.3123 I1.4207 J0.4813
G01 X-0.8122 Y3.976
G03 X-0.7833 Y3.9079 I1.3951 J0.5511
G01 X-0.6348 Y3.58
G03 X-0.6033 Y3.5148 I1.3663 J0.6191
G01 X-0.4394 Y3.1952
G03 X-0.4046 Y3.1311 I1.3348 J0.6844
G01 X-0.226 Y2.821
G03 X-0.1889 Y2.7599 I1.2999 J0.7484
G01 X0.0039 Y2.4592
G03 X0.0449 Y2.3986 I1.2628 J0.8095
G01 X0.2516 Y2.1083
G03 X0.2942 Y2.0514 I1.2218 J0.8701
G01 X0.5144 Y1.7713
G03 X0.5602 Y1.7158 I1.1793 J0.927
G01 X0.7931 Y1.4471
G03 X0.8405 Y1.3949 I1.1335 J0.9824
G01 Z0.9 F100.0
G01 X1.0859 Y1.1373 F500.0
G03 X1.1373 Y1.0859 I1.0861 J1.0346
G01 X1.3949 Y0.8405
G03 X1.4476 Y0.7926 I1.0346 J1.0861
G01 X1.7166 Y0.5597
G03 X1.771 Y0.5148 I0.9819 J1.134
G01 X2.0509 Y0.2946
G03 X2.1083 Y0.2516 I0.9275 J1.1789
G01 X2.3986 Y0.0449
G03 X2.4592 Y0.0039 I0.8701 J1.2218
G01 X2.7599 Y-0.1889
G03 X2.821 Y-0.226 I0.8095 J1.2628
G01 X3.1311 Y-0.4046
G03 X3.1952 Y-0.4394 I0.7484 J1.2999
G01 X3.5148 Y-0.6033
G03 X3.58 Y-0.6348 I0.6844 J1.3348
G01 X3.9079 Y-0.7833
G03 X3.976 Y-0.8122 I0.6191 J1.3663
G01 X4.3123 Y-0.945
G03 X4.3821 Y-0.9706 I0.5511 J1.3951
G01 X4.7263 Y-1.0872
G03 X4.7975 Y-1.1094 I0.4813 J1.4207
G01 X5.1488 Y-1.2092
G03 X5.2199 Y-1.2275 I0.41 J1.4429
G01 X5.5781 Y-1.3106
G03 X5.6535 Y-1.3261 I0.3389 J1.4612
G01 X6.018 Y-1.3911
G03 X6.0916 Y-1.4023 I0.2634 J1.4767
G01 X6.4619 Y-1.4496
G03 X6.5376 Y-1.4573 I0.1898 J1.4879
G01 X6.9135 Y-1.486
G03 X6.9897 Y-1.4899 I0.1142 J1.4956
G01 X7.3704 Y-1.4995
G03 X7.4084 Y-1.5 I0.038 J1.4995
G01 X192.8073
G03 X192.8454 Y-1.4995 I0.0 J1.5
G01 X193.2259 Y-1.4899
G03 X193.302 Y-1.486 I-0.038 J1.4995
G01 X193.6779 Y-1.4573
G03 X193.7536 Y-1.4496 I-0.1142 J1.4956
G01 X194.1239 Y-1.4023
G03 X194.1975 Y-1.3911 I-0.1898 J1.4879
G01 X194.562 Y-1.3261
G03 X194.6374 Y-1.3106 I-0.2634 J1.4767
G01 X194.9956 Y-1.2275
G03 X195.0667 Y-1.2092 I-0.3389 J1.4612
G01 X195.418 Y-1.1094
G03 X195.4892 Y-1.0872 I-0.41 J1.4429
G01 X195.8334 Y-0.9706
G03 X195.9032 Y-0.945 I-0.4813 J1.4207
G01 X196.2395 Y-0.8122
G03 X196.3076 Y-0.7833 I-0.5511 J1.3951
G01 X196.6355 Y-0.6348
G03 X196.7007 Y-0.6033 I-0.6191 J1.3663
G01 X197.0203 Y-0.4394
G03 X197.0844 Y-0.4046 I-0.6844 J1.3348
G01 X197.3945 Y-0.226
G03 X197.4556 Y-0.1889 I-0.7484 J1.2999
G01 X197.7563 Y0.0039
G03 X197.8164 Y0.0445 I-0.8095 J1.2628
G01 X198.107 Y0.2513
G03 X198.1648 Y0.2946 I-0.8696 J1.2222
G01 X198.4447 Y0.5148
G03 X198.4997 Y0.5602 I-0.9275 J1.1789
G01 X198.7684 Y0.7931
G03 X198.8206 Y0.8405 I-0.9824 J1.1335
G01 X199.0782 Y1.0859
G03 X199.1296 Y1.1373 I-1.0346 J1.0861
G01 X199.375 Y1.3949
G03 X199.4223 Y1.447 I-1.0861 J1.0346
G01 X199.6555 Y1.716
G03 X199.7015 Y1.7717 I-1.1334 J0.9825
G01 X199.9214 Y2.0516
G03 X199.9639 Y2.1083 I-1.1794 J0.9268
G01 X200.1706 Y2.3986
G03 X200.2116 Y2.4592 I-1.2218 J0.8701
G01 X200.4044 Y2.7599
G03 X200.4415 Y2.821 I-1.2628 J0.8095
G01 X200.6201 Y3.1311
G03 X200.6549 Y3.1952 I-1.2999 J0.7484
G01 X200.8188 Y3.5148
G03 X200.8503 Y3.58 I-1.3348 J0.6844
G01 X200.9988 Y3.9079
G03 X201.0277 Y3.976 I-1.3663 J0.6191
G01 X201.1605 Y4.3123
G03 X201.1861 Y4.3821 I-1.3951 J0.5511
G01 X201.3027 Y4.7263
G03 X201.3246 Y4.7965 I-1.4207 J0.4813
G01 X201.4247 Y5.1478
G03 X201.4435 Y5.2209 I-1.4426 J0.411
G01 X201.5263 Y5.579
G03 X201.5414 Y5.6525 I-1.4614 J0.3379
G01 X201.6067 Y6.017
G03 X201.6182 Y6.0926 I-1.4765 J0.2644
G01 X201.6652 Y6.4629
G03 X201.6728 Y6.5376 I-1.4881 J0.1888
G01 X201.7015 Y6.9135
G03 X201.7054 Y6.9897 I-1.4956 J0.1142
G01 X201.715 Y7.3704
G03 X201.7155 Y7.4084 I-1.4995 J0.038
G01 Y118.3851
G03 X201.715 Y118.4231 I-1.5 J0.0
G01 X201.7054 Y118.8038
G03 X201.7015 Y118.88 I-1.4995 J-0.038
G01 X201.6728 Y119.2559
G03 X201.6652 Y119.3306 I-1.4956 J-0.1142
G01 X201.6182 Y119.7009
G03 X201.6067 Y119.7765 I-1.4881 J-0.1888
G01 X201.5414 Y120.141
G03 X201.5263 Y120.2145 I-1.4765 J-0.2644
G01 X201.4435 Y120.5726
G03 X201.4247 Y120.6457 I-1.4614 J-0.3379
G01 X201.3246 Y120.997
G03 X201.3027 Y121.0672 I-1.4426 J-0.411
G01 X201.1861 Y121.4114
G03 X201.1605 Y121.4812 I-1.4207 J-0.4813
G01 X201.0277 Y121.8175
G03 X200.9988 Y121.8856 I-1.3951 J-0.5511
G01 X200.8503 Y122.2135
G03 X200.8188 Y122.2787 I-1.3663 J-0.6191
G01 X200.6549 Y122.5983
G03 X200.6201 Y122.6624 I-1.3348 J-0.6844
G01 X200.4415 Y122.9725
G03 X200.4044 Y123.0336 I-1.2999 J-0.7484
G01 X200.2116 Y123.3343
G03 X200.1706 Y123.3949 I-1.2628 J-0.8095
G01 X199.9639 Y123.6852
G03 X199.9214 Y123.7419 I-1.2218 J-0.8701
G01 X199.7015 Y124.0218
G03 X199.6555 Y124.0775 I-1.1794 J-0.9268
G01 X199.4223 Y124.3465
G03 X199.375 Y124.3986 I-1.1334 J-0.9825
G01 X199.1296 Y124.6562
G03 X199.0782 Y124.7076 I-1.0861 J-1.0346
G01 X198.8206 Y124.953
G03 X198.7684 Y125.0004 I-1.0346 J-1.0861
G01 X198.4997 Y125.2333
G03 X198.4447 Y125.2787 I-0.9824 J-1.1335
G01 X198.1648 Y125.4989
G03 X198.107 Y125.5422 I-0.9275 J-1.1789
G01 X197.8164 Y125.749
G03 X197.7563 Y125.7896 I-0.8696 J-1.2222
G01 X197.4556 Y125.9824
G03 X197.3945 Y126.0195 I-0.8095 J-1.2628
G01 X197.0844 Y126.1981
G03 X197.0203 Y126.2329 I-0.7484 J-1.2999
G01 X196.7007 Y126.3968
G03 X196.6355 Y126.4283 I-0.6844 J-1.3348
G01 X196.3076 Y126.5768
G03 X196.2395 Y126.6057 I-0.6191 J-1.3663
G01 X195.9032 Y126.7385
G03 X195.8334 Y126.7641 I-0.5511 J-1.3951
G01 X195.4892 Y126.8807
G03 X195.418 Y126.9029 I-0.4813 J-1.4207
G01 X195.0667 Y127.0027
G03 X194.9956 Y127.021 I-0.41 J-1.4429
G01 X194.6374 Y127.1041
G03 X194.562 Y127.1196 I-0.3389 J-1.4612
G01 X194.1975 Y127.1846
G03 X194.1239 Y127.1958 I-0.2634 J-1.4767
G01 X193.7536 Y127.2431
G03 X193.6779 Y127.2508 I-0.1898 J-1.4879
G01 X193.302 Y127.2795
G03 X193.2259 Y127.2834 I-0.1142 J-1.4956
G01 X192.8454 Y127.293
G03 X192.8073 Y127.2935 I-0.038 J-1.4995
G01 X7.4084
G03 X7.3704 Y127.293 I0.0 J-1.5
G01 X6.9897 Y127.2834
G03 X6.9135 Y127.2795 I0.038 J-1.4995
G01 X6.5376 Y127.2508
G03 X6.4619 Y127.2431 I0.1142 J-1.4956
G01 X6.0916 Y127.1958
G03 X6.018 Y127.1846 I0.1898 J-1.4879
G01 X5.6535 Y127.1196
G03 X5.5781 Y127.1041 I0.2634 J-1.4767
G01 X5.2199 Y127.021
G03 X5.1488 Y127.0027 I0.3389 J-1.4612
G01 X4.7975 Y126.9029
G03 X4.7263 Y126.8807 I0.41 J-1.4429
G01 X4.3821 Y126.7641
G03 X4.3123 Y126.7385 I0.4813 J-1.4207
G01 X3.976 Y126.6057
G03 X3.9079 Y126.5768 I0.5511 J-1.3951
G01 X3.58 Y126.4283
G03 X3.5148 Y126.3968 I0.6191 J-1.3663
G01 X3.1952 Y126.2329
G03 X3.1311 Y126.1981 I0.6844 J-1.3348
G01 X2.821 Y126.0195
G03 X2.7599 Y125.9824 I0.7484 J-1.2999
G01 X2.4592 Y125.7896
G03 X2.3986 Y125.7486 I0.8095 J-1.2628
G01 X2.1083 Y125.5419
G03 X2.0509 Y125.4989 I0.8701 J-1.2218
G01 X1.771 Y125.2787
G03 X1.7166 Y125.2338 I0.9275 J-1.1789
G01 X1.4476 Y125.0009
G03 X1.3949 Y124.953 I0.9819 J-1.134
G01 X1.1373 Y124.7076
G03 X1.0859 Y124.6562 I1.0346 J-1.0861
G01 X0.8405 Y124.3986
G03 X0.7931 Y124.3464 I1.0861 J-1.0346
G01 X0.5602 Y124.0777
G03 X0.5144 Y124.0222 I1.1335 J-0.9824
G01 X0.2942 Y123.7421
G03 X0.2516 Y123.6852 I1.1793 J-0.927
G01 X0.0449 Y123.3949
G03 X0.0039 Y123.3343 I1.2218 J-0.8701
G01 X-0.1889 Y123.0336
G03 X-0.226 Y122.9725 I1.2628 J-0.8095
G01 X-0.4046 Y122.6624
G03 X-0.4394 Y122.5983 I1.2999 J-0.7484
G01 X-0.6033 Y122.2787
G03 X-0.6348 Y122.2135 I1.3348 J-0.6844
G01 X-0.7833 Y121.8856
G03 X-0.8122 Y121.8175 I1.3663 J-0.6191
G01 X-0.945 Y121.4812
G03 X-0.9706 Y121.4114 I1.3951 J-0.5511
G01 X-1.0872 Y121.0672
G03 X-1.1094 Y120.996 I1.4207 J-0.4813
G01 X-1.2092 Y120.6447
G03 X-1.2278 Y120.5726 I1.4429 J-0.41
G01 X-1.3106 Y120.2145
G03 X-1.3256 Y120.141 I1.4614 J-0.3379
G01 X-1.3909 Y119.7765
G03 X-1.4023 Y119.7019 I1.4765 J-0.2644
G01 X-1.4496 Y119.3316
G03 X-1.4573 Y119.2559 I1.4879 J-0.1898
G01 X-1.486 Y118.88
G03 X-1.4899 Y118.8038 I1.4956 J-0.1142
G01 X-1.4995 Y118.4231
G03 X-1.5 Y118.3851 I1.4995 J-0.038
G01 Y7.4084
G03 X-1.4995 Y7.3704 I1.5 J0.0
G01 X-1.4899 Y6.9897
G03 X-1.486 Y6.9135 I1.4995 J0.038
G01 X-1.4573 Y6.5376
G03 X-1.4496 Y6.4619 I1.4956 J0.1142
G01 X-1.4023 Y6.0916
G03 X-1.3909 Y6.017 I1.4879 J0.1898
G01 X-1.3256 Y5.6525
G03 X-1.3106 Y5.579 I1.4765 J0.2644
G01 X-1.2278 Y5.2209
G03 X-1.2092 Y5.1488 I1.4614 J0.3379
G01 X-1.1094 Y4.7975
G03 X-1.0872 Y4.7263 I1.4429 J0.41
G01 X-0.9706 Y4.3821
G03 X-0.945 Y4.3123 I1.4207 J0.4813
G01 X-0.8122 Y3.976
G03 X-0.7833 Y3.9079 I1.3951 J0.5511
G01 X-0.6348 Y3.58
G03 X-0.6033 Y3.5148 I1.3663 J0.6191
G01 X-0.4394 Y3.1952
G03 X-0.4046 Y3.1311 I1.3348 J0.6844
G01 X-0.226 Y2.821
G03 X-0.1889 Y2.7599 I1.2999 J0.7484
G01 X0.0039 Y2.4592
G03 X0.0449 Y2.3986 I1.2628 J0.8095
G01 X0.2516 Y2.1083
G03 X0.2942 Y2.0514 I1.2218 J0.8701
G01 X0.5144 Y1.7713
G03 X0.5602 Y1.7158 I1.1793 J0.927
G01 X0.7931 Y1.4471
G03 X0.8405 Y1.3949 I1.1335 J0.9824
G01 Z0.8 F100.0
G01 X1.0859 Y1.1373 F500.0
G03 X1.1373 Y1.0859 I1.0861 J1.0346
G01 X1.3949 Y0.8405
G03 X1.4476 Y0.7926 I1.0346 J1.0861
G01 X1.7166 Y0.5597
G03 X1.771 Y0.5148 I0.9819 J1.134
G01 X2.0509 Y0.2946
G03 X2.1083 Y0.2516 I0.9275 J1.1789
G01 X2.3986 Y0.0449
G03 X2.4592 Y0.0039 I0.8701 J1.2218
G01 X2.7599 Y-0.1889
G03 X2.821 Y-0.226 I0.8095 J1.2628
G01 X3.1311 Y-0.4046
G03 X3.1952 Y-0.4394 I0.7484 J1.2999
G01 X3.5148 Y-0.6033
G03 X3.58 Y-0.6348 I0.6844 J1.3348
G01 X3.9079 Y-0.7833
G03 X3.976 Y-0.8122 I0.6191 J1.3663
G01 X4.3123 Y-0.945
G03 X4.3821 Y-0.9706 I0.5511 J1.3951
G01 X4.7263 Y-1.0872
G03 X4.7975 Y-1.1094 I0.4813 J1.4207
G01 X5.1488 Y-1.2092
G03 X5.2199 Y-1.2275 I0.41 J1.4429
G01 X5.5781 Y-1.3106
G03 X5.6535 Y-1.3261 I0.3389 J1.4612
G01 X6.018 Y-1.3911
G03 X6.0916 Y-1.4023 I0.2634 J1.4767
G01 X6.4619 Y-1.4496
G03 X6.5376 Y-1.4573 I0.1898 J1.4879
G01 X6.9135 Y-1.486
G03 X6.9897 Y-1.4899 I0.1142 J1.4956
G01 X7.3704 Y-1.4995
G03 X7.4084 Y-1.5 I0.038 J1.4995
G01 X192.8073
G03 X192.8454 Y-1.4995 I0.0 J1.5
G01 X193.2259 Y-1.4899
G03 X193.302 Y-1.486 I-0.038 J1.4995
G01 X193.6779 Y-1.4573
G03 X193.7536 Y-1.4496 I-0.1142 J1.4956
G01 X194.1239 Y-1.4023
G03 X194.1975 Y-1.3911 I-0.1898 J1.4879
G01 X194.562 Y-1.3261
G03 X194.6374 Y-1.3106 I-0.2634 J1.4767
G01 X194.9956 Y-1.2275
G03 X195.0667 Y-1.2092 I-0.3389 J1.4612
G01 X195.418 Y-1.1094
G03 X195.4892 Y-1.0872 I-0.41 J1.4429
G01 X195.8334 Y-0.9706
G03 X195.9032 Y-0.945 I-0.4813 J1.4207
G01 X196.2395 Y-0.8122
G03 X196.3076 Y-0.7833 I-0.5511 J1.3951
G01 X196.6355 Y-0.6348
G03 X196.7007 Y-0.6033 I-0.6191 J1.3663
G01 X197.0203 Y-0.4394
G03 X197.0844 Y-0.4046 I-0.6844 J1.3348
G01 X197.3945 Y-0.226
G03 X197.4556 Y-0.1889 I-0.7484 J1.2999
G01 X197.7563 Y0.0039
G03 X197.8164 Y0.0445 I-0.8095 J1.2628
G01 X198.107 Y0.2513
G03 X198.1648 Y0.2946 I-0.8696 J1.2222
G01 X198.4447 Y0.5148
G03 X198.4997 Y0.5602 I-0.9275 J1.1789
G01 X198.7684 Y0.7931
G03 X198.8206 Y0.8405 I-0.9824 J1.1335
G01 X199.0782 Y1.0859
G03 X199.1296 Y1.1373 I-1.0346 J1.0861
G01 X199.375 Y1.3949
G03 X199.4223 Y1.447 I-1.0861 J1.0346
G01 X199.6555 Y1.716
G03 X199.7015 Y1.7717 I-1.1334 J0.9825
G01 X199.9214 Y2.0516
G03 X199.9639 Y2.1083 I-1.1794 J0.9268
G01 X200.1706 Y2.3986
G03 X200.2116 Y2.4592 I-1.2218 J0.8701
G01 X200.4044 Y2.7599
G03 X200.4415 Y2.821 I-1.2628 J0.8095
G01 X200.6201 Y3.1311
G03 X200.6549 Y3.1952 I-1.2999 J0.7484
G01 X200.8188 Y3.5148
G03 X200.8503 Y3.58 I-1.3348 J0.6844
G01 X200.9988 Y3.9079
G03 X201.0277 Y3.976 I-1.3663 J0.6191
G01 X201.1605 Y4.3123
G03 X201.1861 Y4.3821 I-1.3951 J0.5511
G01 X201.3027 Y4.7263
G03 X201.3246 Y4.7965 I-1.4207 J0.4813
G01 X201.4247 Y5.1478
G03 X201.4435 Y5.2209 I-1.4426 J0.411
G01 X201.5263 Y5.579
G03 X201.5414 Y5.6525 I-1.4614 J0.3379
G01 X201.6067 Y6.017
G03 X201.6182 Y6.0926 I-1.4765 J0.2644
G01 X201.6652 Y6.4629
G03 X201.6728 Y6.5376 I-1.4881 J0.1888
G01 X201.7015 Y6.9135
G03 X201.7054 Y6.9897 I-1.4956 J0.1142
G01 X201.715 Y7.3704
G03 X201.7155 Y7.4084 I-1.4995 J0.038
G01 Y118.3851
G03 X201.715 Y118.4231 I-1.5 J0.0
G01 X201.7054 Y118.8038
G03 X201.7015 Y118.88 I-1.4995 J-0.038
G01 X201.6728 Y119.2559
G03 X201.6652 Y119.3306 I-1.4956 J-0.1142
G01 X201.6182 Y119.7009
G03 X201.6067 Y119.7765 I-1.4881 J-0.1888
G01 X201.5414 Y120.141
G03 X201.5263 Y120.2145 I-1.4765 J-0.2644
G01 X201.4435 Y120.5726
G03 X201.4247 Y120.6457 I-1.4614 J-0.3379
G01 X201.3246 Y120.997
G03 X201.3027 Y121.0672 I-1.4426 J-0.411
G01 X201.1861 Y121.4114
G03 X201.1605 Y121.4812 I-1.4207 J-0.4813
G01 X201.0277 Y121.8175
G03 X200.9988 Y121.8856 I-1.3951 J-0.5511
G01 X200.8503 Y122.2135
G03 X200.8188 Y122.2787 I-1.3663 J-0.6191
G01 X200.6549 Y122.5983
G03 X200.6201 Y122.6624 I-1.3348 J-0.6844
G01 X200.4415 Y122.9725
G03 X200.4044 Y123.0336 I-1.2999 J-0.7484
G01 X200.2116 Y123.3343
G03 X200.1706 Y123.3949 I-1.2628 J-0.8095
G01 X199.9639 Y123.6852
G03 X199.9214 Y123.7419 I-1.2218 J-0.8701
G01 X199.7015 Y124.0218
G03 X199.6555 Y124.0775 I-1.1794 J-0.9268
G01 X199.4223 Y124.3465
G03 X199.375 Y124.3986 I-1.1334 J-0.9825
G01 X199.1296 Y124.6562
G03 X199.0782 Y124.7076 I-1.0861 J-1.0346
G01 X198.8206 Y124.953
G03 X198.7684 Y125.0004 I-1.0346 J-1.0861
G01 X198.4997 Y125.2333
G03 X198.4447 Y125.2787 I-0.9824 J-1.1335
G01 X198.1648 Y125.4989
G03 X198.107 Y125.5422 I-0.9275 J-1.1789
G01 X197.8164 Y125.749
G03 X197.7563 Y125.7896 I-0.8696 J-1.2222
G01 X197.4556 Y125.9824
G03 X197.3945 Y126.0195 I-0.8095 J-1.2628
G01 X197.0844 Y126.1981
G03 X197.0203 Y126.2329 I-0.7484 J-1.2999
G01 X196.7007 Y126.3968
G03 X196.6355 Y126.4283 I-0.6844 J-1.3348
G01 X196.3076 Y126.5768
G03 X196.2395 Y126.6057 I-0.6191 J-1.3663
G01 X195.9032 Y126.7385
G03 X195.8334 Y126.7641 I-0.5511 J-1.3951
G01 X195.4892 Y126.8807
G03 X195.418 Y126.9029 I-0.4813 J-1.4207
G01 X195.0667 Y127.0027
G03 X194.9956 Y127.021 I-0.41 J-1.4429
G01 X194.6374 Y127.1041
G03 X194.562 Y127.1196 I-0.3389 J-1.4612
G01 X194.1975 Y127.1846
G03 X194.1239 Y127.1958 I-0.2634 J-1.4767
G01 X193.7536 Y127.2431
G03 X193.6779 Y127.2508 I-0.1898 J-1.4879
G01 X193.302 Y127.2795
G03 X193.2259 Y127.2834 I-0.1142 J-1.4956
G01 X192.8454 Y127.293
G03 X192.8073 Y127.2935 I-0.038 J-1.4995
G01 X7.4084
G03 X7.3704 Y127.293 I0.0 J-1.5
G01 X6.9897 Y127.2834
G03 X6.9135 Y127.2795 I0.038 J-1.4995
G01 X6.5376 Y127.2508
G03 X6.4619 Y127.2431 I0.1142 J-1.4956
G01 X6.0916 Y127.1958
G03 X6.018 Y127.1846 I0.1898 J-1.4879
G01 X5.6535 Y127.1196
G03 X5.5781 Y127.1041 I0.2634 J-1.4767
G01 X5.2199 Y127.021
G03 X5.1488 Y127.0027 I0.3389 J-1.4612
G01 X4.7975 Y126.9029
G03 X4.7263 Y126.8807 I0.41 J-1.4429
G01 X4.3821 Y126.7641
G03 X4.3123 Y126.7385 I0.4813 J-1.4207
G01 X3.976 Y126.6057
G03 X3.9079 Y126.5768 I0.5511 J-1.3951
G01 X3.58 Y126.4283
G03 X3.5148 Y126.3968 I0.6191 J-1.3663
G01 X3.1952 Y126.2329
G03 X3.1311 Y126.1981 I0.6844 J-1.3348
G01 X2.821 Y126.0195
G03 X2.7599 Y125.9824 I0.7484 J-1.2999
G01 X2.4592 Y125.7896
G03 X2.3986 Y125.7486 I0.8095 J-1.2628
G01 X2.1083 Y125.5419
G03 X2.0509 Y125.4989 I0.8701 J-1.2218
G01 X1.771 Y125.2787
G03 X1.7166 Y125.2338 I0.9275 J-1.1789
G01 X1.4476 Y125.0009
G03 X1.3949 Y124.953 I0.9819 J-1.134
G01 X1.1373 Y124.7076
G03 X1.0859 Y124.6562 I1.0346 J-1.0861
G01 X0.8405 Y124.3986
G03 X0.7931 Y124.3464 I1.0861 J-1.0346
G01 X0.5602 Y124.0777
G03 X0.5144 Y124.0222 I1.1335 J-0.9824
G01 X0.2942 Y123.7421
G03 X0.2516 Y123.6852 I1.1793 J-0.927
G01 X0.0449 Y123.3949
G03 X0.0039 Y123.3343 I1.2218 J-0.8701
G01 X-0.1889 Y123.0336
G03 X-0.226 Y122.9725 I1.2628 J-0.8095
G01 X-0.4046 Y122.6624
G03 X-0.4394 Y122.5983 I1.2999 J-0.7484
G01 X-0.6033 Y122.2787
G03 X-0.6348 Y122.2135 I1.3348 J-0.6844
G01 X-0.7833 Y121.8856
G03 X-0.8122 Y121.8175 I1.3663 J-0.6191
G01 X-0.945 Y121.4812
G03 X-0.9706 Y121.4114 I1.3951 J-0.5511
G01 X-1.0872 Y121.0672
G03 X-1.1094 Y120.996 I1.4207 J-0.4813
G01 X-1.2092 Y120.6447
G03 X-1.2278 Y120.5726 I1.4429 J-0.41
G01 X-1.3106 Y120.2145
G03 X-1.3256 Y120.141 I1.4614 J-0.3379
G01 X-1.3909 Y119.7765
G03 X-1.4023 Y119.7019 I1.4765 J-0.2644
G01 X-1.4496 Y119.3316
G03 X-1.4573 Y119.2559 I1.4879 J-0.1898
G01 X-1.486 Y118.88
G03 X-1.4899 Y118.8038 I1.4956 J-0.1142
G01 X-1.4995 Y118.4231
G03 X-1.5 Y118.3851 I1.4995 J-0.038
G01 Y7.4084
G03 X-1.4995 Y7.3704 I1.5 J0.0
G01 X-1.4899 Y6.9897
G03 X-1.486 Y6.9135 I1.4995 J0.038
G01 X-1.4573 Y6.5376
G03 X-1.4496 Y6.4619 I1.4956 J0.1142
G01 X-1.4023 Y6.0916
G03 X-1.3909 Y6.017 I1.4879 J0.1898
G01 X-1.3256 Y5.6525
G03 X-1.3106 Y5.579 I1.4765 J0.2644
G01 X-1.2278 Y5.2209
G03 X-1.2092 Y5.1488 I1.4614 J0.3379
G01 X-1.1094 Y4.7975
G03 X-1.0872 Y4.7263 I1.4429 J0.41
G01 X-0.9706 Y4.3821
G03 X-0.945 Y4.3123 I1.4207 J0.4813
G01 X-0.8122 Y3.976
G03 X-0.7833 Y3.9079 I1.3951 J0.5511
G01 X-0.6348 Y3.58
G03 X-0.6033 Y3.5148 I1.3663 J0.6191
G01 X-0.4394 Y3.1952
G03 X-0.4046 Y3.1311 I1.3348 J0.6844
G01 X-0.226 Y2.821
G03 X-0.1889 Y2.7599 I1.2999 J0.7484
G01 X0.0039 Y2.4592
G03 X0.0449 Y2.3986 I1.2628 J0.8095
G01 X0.2516 Y2.1083
G03 X0.2942 Y2.0514 I1.2218 J0.8701
G01 X0.5144 Y1.7713
G03 X0.5602 Y1.7158 I1.1793 J0.927
G01 X0.7931 Y1.4471
G03 X0.8405 Y1.3949 I1.1335 J0.9824
G01 Z0.7 F100.0
G01 X1.0859 Y1.1373 F500.0
G03 X1.1373 Y1.0859 I1.0861 J1.0346
G01 X1.3949 Y0.8405
G03 X1.4476 Y0.7926 I1.0346 J1.0861
G01 X1.7166 Y0.5597
G03 X1.771 Y0.5148 I0.9819 J1.134
G01 X2.0509 Y0.2946
G03 X2.1083 Y0.2516 I0.9275 J1.1789
G01 X2.3986 Y0.0449
G03 X2.4592 Y0.0039 I0.8701 J1.2218
G01 X2.7599 Y-0.1889
G03 X2.821 Y-0.226 I0.8095 J1.2628
G01 X3.1311 Y-0.4046
G03 X3.1952 Y-0.4394 I0.7484 J1.2999
G01 X3.5148 Y-0.6033
G03 X3.58 Y-0.6348 I0.6844 J1.3348
G01 X3.9079 Y-0.7833
G03 X3.976 Y-0.8122 I0.6191 J1.3663
G01 X4.3123 Y-0.945
G03 X4.3821 Y-0.9706 I0.5511 J1.3951
G01 X4.7263 Y-1.0872
G03 X4.7975 Y-1.1094 I0.4813 J1.4207
G01 X5.1488 Y-1.2092
G03 X5.2199 Y-1.2275 I0.41 J1.4429
G01 X5.5781 Y-1.3106
G03 X5.6535 Y-1.3261 I0.3389 J1.4612
G01 X6.018 Y-1.3911
G03 X6.0916 Y-1.4023 I0.2634 J1.4767
G01 X6.4619 Y-1.4496
G03 X6.5376 Y-1.4573 I0.1898 J1.4879
G01 X6.9135 Y-1.486
G03 X6.9897 Y-1.4899 I0.1142 J1.4956
G01 X7.3704 Y-1.4995
G03 X7.4084 Y-1.5 I0.038 J1.4995
G01 X192.8073
G03 X192.8454 Y-1.4995 I0.0 J1.5
G01 X193.2259 Y-1.4899
G03 X193.302 Y-1.486 I-0.038 J1.4995
G01 X193.6779 Y-1.4573
G03 X193.7536 Y-1.4496 I-0.1142 J1.4956
G01 X194.1239 Y-1.4023
G03 X194.1975 Y-1.3911 I-0.1898 J1.4879
G01 X194.562 Y-1.3261
G03 X194.6374 Y-1.3106 I-0.2634 J1.4767
G01 X194.9956 Y-1.2275
G03 X195.0667 Y-1.2092 I-0.3389 J1.4612
G01 X195.418 Y-1.1094
G03 X195.4892 Y-1.0872 I-0.41 J1.4429
G01 X195.8334 Y-0.9706
G03 X195.9032 Y-0.945 I-0.4813 J1.4207
G01 X196.2395 Y-0.8122
G03 X196.3076 Y-0.7833 I-0.5511 J1.3951
G01 X196.6355 Y-0.6348
G03 X196.7007 Y-0.6033 I-0.6191 J1.3663
G01 X197.0203 Y-0.4394
G03 X197.0844 Y-0.4046 I-0.6844 J1.3348
G01 X197.3945 Y-0.226
G03 X197.4556 Y-0.1889 I-0.7484 J1.2999
G01 X197.7563 Y0.0039
G03 X197.8164 Y0.0445 I-0.8095 J1.2628
G01 X198.107 Y0.2513
G03 X198.1648 Y0.2946 I-0.8696 J1.2222
G01 X198.4447 Y0.5148
G03 X198.4997 Y0.5602 I-0.9275 J1.1789
G01 X198.7684 Y0.7931
G03 X198.8206 Y0.8405 I-0.9824 J1.1335
G01 X199.0782 Y1.0859
G03 X199.1296 Y1.1373 I-1.0346 J1.0861
G01 X199.375 Y1.3949
G03 X199.4223 Y1.447 I-1.0861 J1.0346
G01 X199.6555 Y1.716
G03 X199.7015 Y1.7717 I-1.1334 J0.9825
G01 X199.9214 Y2.0516
G03 X199.9639 Y2.1083 I-1.1794 J0.9268
G01 X200.1706 Y2.3986
G03 X200.2116 Y2.4592 I-1.2218 J0.8701
G01 X200.4044 Y2.7599
G03 X200.4415 Y2.821 I-1.2628 J0.8095
G01 X200.6201 Y3.1311
G03 X200.6549 Y3.1952 I-1.2999 J0.7484
G01 X200.8188 Y3.5148
G03 X200.8503 Y3.58 I-1.3348 J0.6844
G01 X200.9988 Y3.9079
G03 X201.0277 Y3.976 I-1.3663 J0.6191
G01 X201.1605 Y4.3123
G03 X201.1861 Y4.3821 I-1.3951 J0.5511
G01 X201.3027 Y4.7263
G03 X201.3246 Y4.7965 I-1.4207 J0.4813
G01 X201.4247 Y5.1478
G03 X201.4435 Y5.2209 I-1.4426 J0.411
G01 X201.5263 Y5.579
G03 X201.5414 Y5.6525 I-1.4614 J0.3379
G01 X201.6067 Y6.017
G03 X201.6182 Y6.0926 I-1.4765 J0.2644
G01 X201.6652 Y6.4629
G03 X201.6728 Y6.5376 I-1.4881 J0.1888
G01 X201.7015 Y6.9135
G03 X201.7054 Y6.9897 I-1.4956 J0.1142
G01 X201.715 Y7.3704
G03 X201.7155 Y7.4084 I-1.4995 J0.038
G01 Y118.3851
G03 X201.715 Y118.4231 I-1.5 J0.0
G01 X201.7054 Y118.8038
G03 X201.7015 Y118.88 I-1.4995 J-0.038
G01 X201.6728 Y119.2559
G03 X201.6652 Y119.3306 I-1.4956 J-0.1142
G01 X201.6182 Y119.7009
G03 X201.6067 Y119.7765 I-1.4881 J-0.1888
G01 X201.5414 Y120.141
G03 X201.5263 Y120.2145 I-1.4765 J-0.2644
G01 X201.4435 Y120.5726
G03 X201.4247 Y120.6457 I-1.4614 J-0.3379
G01 X201.3246 Y120.997
G03 X201.3027 Y121.0672 I-1.4426 J-0.411
G01 X201.1861 Y121.4114
G03 X201.1605 Y121.4812 I-1.4207 J-0.4813
G01 X201.0277 Y121.8175
G03 X200.9988 Y121.8856 I-1.3951 J-0.5511
G01 X200.8503 Y122.2135
G03 X200.8188 Y122.2787 I-1.3663 J-0.6191
G01 X200.6549 Y122.5983
G03 X200.6201 Y122.6624 I-1.3348 J-0.6844
G01 X200.4415 Y122.9725
G03 X200.4044 Y123.0336 I-1.2999 J-0.7484
G01 X200.2116 Y123.3343
G03 X200.1706 Y123.3949 I-1.2628 J-0.8095
G01 X199.9639 Y123.6852
G03 X199.9214 Y123.7419 I-1.2218 J-0.8701
G01 X199.7015 Y124.0218
G03 X199.6555 Y124.0775 I-1.1794 J-0.9268
G01 X199.4223 Y124.3465
G03 X199.375 Y124.3986 I-1.1334 J-0.9825
G01 X199.1296 Y124.6562
G03 X199.0782 Y124.7076 I-1.0861 J-1.0346
G01 X198.8206 Y124.953
G03 X198.7684 Y125.0004 I-1.0346 J-1.0861
G01 X198.4997 Y125.2333
G03 X198.4447 Y125.2787 I-0.9824 J-1.1335
G01 X198.1648 Y125.4989
G03 X198.107 Y125.5422 I-0.9275 J-1.1789
G01 X197.8164 Y125.749
G03 X197.7563 Y125.7896 I-0.8696 J-1.2222
G01 X197.4556 Y125.9824
G03 X197.3945 Y126.0195 I-0.8095 J-1.2628
G01 X197.0844 Y126.1981
G03 X197.0203 Y126.2329 I-0.7484 J-1.2999
G01 X196.7007 Y126.3968
G03 X196.6355 Y126.4283 I-0.6844 J-1.3348
G01 X196.3076 Y126.5768
G03 X196.2395 Y126.6057 I-0.6191 J-1.3663
G01 X195.9032 Y126.7385
G03 X195.8334 Y126.7641 I-0.5511 J-1.3951
G01 X195.4892 Y126.8807
G03 X195.418 Y126.9029 I-0.4813 J-1.4207
G01 X195.0667 Y127.0027
G03 X194.9956 Y127.021 I-0.41 J-1.4429
G01 X194.6374 Y127.1041
G03 X194.562 Y127.1196 I-0.3389 J-1.4612
G01 X194.1975 Y127.1846
G03 X194.1239 Y127.1958 I-0.2634 J-1.4767
G01 X193.7536 Y127.2431
G03 X193.6779 Y127.2508 I-0.1898 J-1.4879
G01 X193.302 Y127.2795
G03 X193.2259 Y127.2834 I-0.1142 J-1.4956
G01 X192.8454 Y127.293
G03 X192.8073 Y127.2935 I-0.038 J-1.4995
G01 X7.4084
G03 X7.3704 Y127.293 I0.0 J-1.5
G01 X6.9897 Y127.2834
G03 X6.9135 Y127.2795 I0.038 J-1.4995
G01 X6.5376 Y127.2508
G03 X6.4619 Y127.2431 I0.1142 J-1.4956
G01 X6.0916 Y127.1958
G03 X6.018 Y127.1846 I0.1898 J-1.4879
G01 X5.6535 Y127.1196
G03 X5.5781 Y127.1041 I0.2634 J-1.4767
G01 X5.2199 Y127.021
G03 X5.1488 Y127.0027 I0.3389 J-1.4612
G01 X4.7975 Y126.9029
G03 X4.7263 Y126.8807 I0.41 J-1.4429
G01 X4.3821 Y126.7641
G03 X4.3123 Y126.7385 I0.4813 J-1.4207
G01 X3.976 Y126.6057
G03 X3.9079 Y126.5768 I0.5511 J-1.3951
G01 X3.58 Y126.4283
G03 X3.5148 Y126.3968 I0.6191 J-1.3663
G01 X3.1952 Y126.2329
G03 X3.1311 Y126.1981 I0.6844 J-1.3348
G01 X2.821 Y126.0195
G03 X2.7599 Y125.9824 I0.7484 J-1.2999
G01 X2.4592 Y125.7896
G03 X2.3986 Y125.7486 I0.8095 J-1.2628
G01 X2.1083 Y125.5419
G03 X2.0509 Y125.4989 I0.8701 J-1.2218
G01 X1.771 Y125.2787
G03 X1.7166 Y125.2338 I0.9275 J-1.1789
G01 X1.4476 Y125.0009
G03 X1.3949 Y124.953 I0.9819 J-1.134
G01 X1.1373 Y124.7076
G03 X1.0859 Y124.6562 I1.0346 J-1.0861
G01 X0.8405 Y124.3986
G03 X0.7931 Y124.3464 I1.0861 J-1.0346
G01 X0.5602 Y124.0777
G03 X0.5144 Y124.0222 I1.1335 J-0.9824
G01 X0.2942 Y123.7421
G03 X0.2516 Y123.6852 I1.1793 J-0.927
G01 X0.0449 Y123.3949
G03 X0.0039 Y123.3343 I1.2218 J-0.8701
G01 X-0.1889 Y123.0336
G03 X-0.226 Y122.9725 I1.2628 J-0.8095
G01 X-0.4046 Y122.6624
G03 X-0.4394 Y122.5983 I1.2999 J-0.7484
G01 X-0.6033 Y122.2787
G03 X-0.6348 Y122.2135 I1.3348 J-0.6844
G01 X-0.7833 Y121.8856
G03 X-0.8122 Y121.8175 I1.3663 J-0.6191
G01 X-0.945 Y121.4812
G03 X-0.9706 Y121.4114 I1.3951 J-0.5511
G01 X-1.0872 Y121.0672
G03 X-1.1094 Y120.996 I1.4207 J-0.4813
G01 X-1.2092 Y120.6447
G03 X-1.2278 Y120.5726 I1.4429 J-0.41
G01 X-1.3106 Y120.2145
G03 X-1.3256 Y120.141 I1.4614 J-0.3379
G01 X-1.3909 Y119.7765
G03 X-1.4023 Y119.7019 I1.4765 J-0.2644
G01 X-1.4496 Y119.3316
G03 X-1.4573 Y119.2559 I1.4879 J-0.1898
G01 X-1.486 Y118.88
G03 X-1.4899 Y118.8038 I1.4956 J-0.1142
G01 X-1.4995 Y118.4231
G03 X-1.5 Y118.3851 I1.4995 J-0.038
G01 Y7.4084
G03 X-1.4995 Y7.3704 I1.5 J0.0
G01 X-1.4899 Y6.9897
G03 X-1.486 Y6.9135 I1.4995 J0.038
G01 X-1.4573 Y6.5376
G03 X-1.4496 Y6.4619 I1.4956 J0.1142
G01 X-1.4023 Y6.0916
G03 X-1.3909 Y6.017 I1.4879 J0.1898
G01 X-1.3256 Y5.6525
G03 X-1.3106 Y5.579 I1.4765 J0.2644
G01 X-1.2278 Y5.2209
G03 X-1.2092 Y5.1488 I1.4614 J0.3379
G01 X-1.1094 Y4.7975
G03 X-1.0872 Y4.7263 I1.4429 J0.41
G01 X-0.9706 Y4.3821
G03 X-0.945 Y4.3123 I1.4207 J0.4813
G01 X-0.8122 Y3.976
G03 X-0.7833 Y3.9079 I1.3951 J0.5511
G01 X-0.6348 Y3.58
G03 X-0.6033 Y3.5148 I1.3663 J0.6191
G01 X-0.4394 Y3.1952
G03 X-0.4046 Y3.1311 I1.3348 J0.6844
G01 X-0.226 Y2.821
G03 X-0.1889 Y2.7599 I1.2999 J0.7484
G01 X0.0039 Y2.4592
G03 X0.0449 Y2.3986 I1.2628 J0.8095
G01 X0.2516 Y2.1083
G03 X0.2942 Y2.0514 I1.2218 J0.8701
G01 X0.5144 Y1.7713
G03 X0.5602 Y1.7158 I1.1793 J0.927
G01 X0.7931 Y1.4471
G03 X0.8405 Y1.3949 I1.1335 J0.9824
G01 Z0.6 F100.0
G01 X1.0859 Y1.1373 F500.0
G03 X1.1373 Y1.0859 I1.0861 J1.0346
G01 X1.3949 Y0.8405
G03 X1.4476 Y0.7926 I1.0346 J1.0861
G01 X1.7166 Y0.5597
G03 X1.771 Y0.5148 I0.9819 J1.134
G01 X2.0509 Y0.2946
G03 X2.1083 Y0.2516 I0.9275 J1.1789
G01 X2.3986 Y0.0449
G03 X2.4592 Y0.0039 I0.8701 J1.2218
G01 X2.7599 Y-0.1889
G03 X2.821 Y-0.226 I0.8095 J1.2628
G01 X3.1311 Y-0.4046
G03 X3.1952 Y-0.4394 I0.7484 J1.2999
G01 X3.5148 Y-0.6033
G03 X3.58 Y-0.6348 I0.6844 J1.3348
G01 X3.9079 Y-0.7833
G03 X3.976 Y-0.8122 I0.6191 J1.3663
G01 X4.3123 Y-0.945
G03 X4.3821 Y-0.9706 I0.5511 J1.3951
G01 X4.7263 Y-1.0872
G03 X4.7975 Y-1.1094 I0.4813 J1.4207
G01 X5.1488 Y-1.2092
G03 X5.2199 Y-1.2275 I0.41 J1.4429
G01 X5.5781 Y-1.3106
G03 X5.6535 Y-1.3261 I0.3389 J1.4612
G01 X6.018 Y-1.3911
G03 X6.0916 Y-1.4023 I0.2634 J1.4767
G01 X6.4619 Y-1.4496
G03 X6.5376 Y-1.4573 I0.1898 J1.4879
G01 X6.9135 Y-1.486
G03 X6.9897 Y-1.4899 I0.1142 J1.4956
G01 X7.3704 Y-1.4995
G03 X7.4084 Y-1.5 I0.038 J1.4995
G01 X192.8073
G03 X192.8454 Y-1.4995 I0.0 J1.5
G01 X193.2259 Y-1.4899
G03 X193.302 Y-1.486 I-0.038 J1.4995
G01 X193.6779 Y-1.4573
G03 X193.7536 Y-1.4496 I-0.1142 J1.4956
G01 X194.1239 Y-1.4023
G03 X194.1975 Y-1.3911 I-0.1898 J1.4879
G01 X194.562 Y-1.3261
G03 X194.6374 Y-1.3106 I-0.2634 J1.4767
G01 X194.9956 Y-1.2275
G03 X195.0667 Y-1.2092 I-0.3389 J1.4612
G01 X195.418 Y-1.1094
G03 X195.4892 Y-1.0872 I-0.41 J1.4429
G01 X195.8334 Y-0.9706
G03 X195.9032 Y-0.945 I-0.4813 J1.4207
G01 X196.2395 Y-0.8122
G03 X196.3076 Y-0.7833 I-0.5511 J1.3951
G01 X196.6355 Y-0.6348
G03 X196.7007 Y-0.6033 I-0.6191 J1.3663
G01 X197.0203 Y-0.4394
G03 X197.0844 Y-0.4046 I-0.6844 J1.3348
G01 X197.3945 Y-0.226
G03 X197.4556 Y-0.1889 I-0.7484 J1.2999
G01 X197.7563 Y0.0039
G03 X197.8164 Y0.0445 I-0.8095 J1.2628
G01 X198.107 Y0.2513
G03 X198.1648 Y0.2946 I-0.8696 J1.2222
G01 X198.4447 Y0.5148
G03 X198.4997 Y0.5602 I-0.9275 J1.1789
G01 X198.7684 Y0.7931
G03 X198.8206 Y0.8405 I-0.9824 J1.1335
G01 X199.0782 Y1.0859
G03 X199.1296 Y1.1373 I-1.0346 J1.0861
G01 X199.375 Y1.3949
G03 X199.4223 Y1.447 I-1.0861 J1.0346
G01 X199.6555 Y1.716
G03 X199.7015 Y1.7717 I-1.1334 J0.9825
G01 X199.9214 Y2.0516
G03 X199.9639 Y2.1083 I-1.1794 J0.9268
G01 X200.1706 Y2.3986
G03 X200.2116 Y2.4592 I-1.2218 J0.8701
G01 X200.4044 Y2.7599
G03 X200.4415 Y2.821 I-1.2628 J0.8095
G01 X200.6201 Y3.1311
G03 X200.6549 Y3.1952 I-1.2999 J0.7484
G01 X200.8188 Y3.5148
G03 X200.8503 Y3.58 I-1.3348 J0.6844
G01 X200.9988 Y3.9079
G03 X201.0277 Y3.976 I-1.3663 J0.6191
G01 X201.1605 Y4.3123
G03 X201.1861 Y4.3821 I-1.3951 J0.5511
G01 X201.3027 Y4.7263
G03 X201.3246 Y4.7965 I-1.4207 J0.4813
G01 X201.4247 Y5.1478
G03 X201.4435 Y5.2209 I-1.4426 J0.411
G01 X201.5263 Y5.579
G03 X201.5414 Y5.6525 I-1.4614 J0.3379
G01 X201.6067 Y6.017
G03 X201.6182 Y6.0926 I-1.4765 J0.2644
G01 X201.6652 Y6.4629
G03 X201.6728 Y6.5376 I-1.4881 J0.1888
G01 X201.7015 Y6.9135
G03 X201.7054 Y6.9897 I-1.4956 J0.1142
G01 X201.715 Y7.3704
G03 X201.7155 Y7.4084 I-1.4995 J0.038
G01 Y118.3851
G03 X201.715 Y118.4231 I-1.5 J0.0
G01 X201.7054 Y118.8038
G03 X201.7015 Y118.88 I-1.4995 J-0.038
G01 X201.6728 Y119.2559
G03 X201.6652 Y119.3306 I-1.4956 J-0.1142
G01 X201.6182 Y119.7009
G03 X201.6067 Y119.7765 I-1.4881 J-0.1888
G01 X201.5414 Y120.141
G03 X201.5263 Y120.2145 I-1.4765 J-0.2644
G01 X201.4435 Y120.5726
G03 X201.4247 Y120.6457 I-1.4614 J-0.3379
G01 X201.3246 Y120.997
G03 X201.3027 Y121.0672 I-1.4426 J-0.411
G01 X201.1861 Y121.4114
G03 X201.1605 Y121.4812 I-1.4207 J-0.4813
G01 X201.0277 Y121.8175
G03 X200.9988 Y121.8856 I-1.3951 J-0.5511
G01 X200.8503 Y122.2135
G03 X200.8188 Y122.2787 I-1.3663 J-0.6191
G01 X200.6549 Y122.5983
G03 X200.6201 Y122.6624 I-1.3348 J-0.6844
G01 X200.4415 Y122.9725
G03 X200.4044 Y123.0336 I-1.2999 J-0.7484
G01 X200.2116 Y123.3343
G03 X200.1706 Y123.3949 I-1.2628 J-0.8095
G01 X199.9639 Y123.6852
G03 X199.9214 Y123.7419 I-1.2218 J-0.8701
G01 X199.7015 Y124.0218
G03 X199.6555 Y124.0775 I-1.1794 J-0.9268
G01 X199.4223 Y124.3465
G03 X199.375 Y124.3986 I-1.1334 J-0.9825
G01 X199.1296 Y124.6562
G03 X199.0782 Y124.7076 I-1.0861 J-1.0346
G01 X198.8206 Y124.953
G03 X198.7684 Y125.0004 I-1.0346 J-1.0861
G01 X198.4997 Y125.2333
G03 X198.4447 Y125.2787 I-0.9824 J-1.1335
G01 X198.1648 Y125.4989
G03 X198.107 Y125.5422 I-0.9275 J-1.1789
G01 X197.8164 Y125.749
G03 X197.7563 Y125.7896 I-0.8696 J-1.2222
G01 X197.4556 Y125.9824
G03 X197.3945 Y126.0195 I-0.8095 J-1.2628
G01 X197.0844 Y126.1981
G03 X197.0203 Y126.2329 I-0.7484 J-1.2999
G01 X196.7007 Y126.3968
G03 X196.6355 Y126.4283 I-0.6844 J-1.3348
G01 X196.3076 Y126.5768
G03 X196.2395 Y126.6057 I-0.6191 J-1.3663
G01 X195.9032 Y126.7385
G03 X195.8334 Y126.7641 I-0.5511 J-1.3951
G01 X195.4892 Y126.8807
G03 X195.418 Y126.9029 I-0.4813 J-1.4207
G01 X195.0667 Y127.0027
G03 X194.9956 Y127.021 I-0.41 J-1.4429
G01 X194.6374 Y127.1041
G03 X194.562 Y127.1196 I-0.3389 J-1.4612
G01 X194.1975 Y127.1846
G03 X194.1239 Y127.1958 I-0.2634 J-1.4767
G01 X193.7536 Y127.2431
G03 X193.6779 Y127.2508 I-0.1898 J-1.4879
G01 X193.302 Y127.2795
G03 X193.2259 Y127.2834 I-0.1142 J-1.4956
G01 X192.8454 Y127.293
G03 X192.8073 Y127.2935 I-0.038 J-1.4995
G01 X7.4084
G03 X7.3704 Y127.293 I0.0 J-1.5
G01 X6.9897 Y127.2834
G03 X6.9135 Y127.2795 I0.038 J-1.4995
G01 X6.5376 Y127.2508
G03 X6.4619 Y127.2431 I0.1142 J-1.4956
G01 X6.0916 Y127.1958
G03 X6.018 Y127.1846 I0.1898 J-1.4879
G01 X5.6535 Y127.1196
G03 X5.5781 Y127.1041 I0.2634 J-1.4767
G01 X5.2199 Y127.021
G03 X5.1488 Y127.0027 I0.3389 J-1.4612
G01 X4.7975 Y126.9029
G03 X4.7263 Y126.8807 I0.41 J-1.4429
G01 X4.3821 Y126.7641
G03 X4.3123 Y126.7385 I0.4813 J-1.4207
G01 X3.976 Y126.6057
G03 X3.9079 Y126.5768 I0.5511 J-1.3951
G01 X3.58 Y126.4283
G03 X3.5148 Y126.3968 I0.6191 J-1.3663
G01 X3.1952 Y126.2329
G03 X3.1311 Y126.1981 I0.6844 J-1.3348
G01 X2.821 Y126.0195
G03 X2.7599 Y125.9824 I0.7484 J-1.2999
G01 X2.4592 Y125.7896
G03 X2.3986 Y125.7486 I0.8095 J-1.2628
G01 X2.1083 Y125.5419
G03 X2.0509 Y125.4989 I0.8701 J-1.2218
G01 X1.771 Y125.2787
G03 X1.7166 Y125.2338 I0.9275 J-1.1789
G01 X1.4476 Y125.0009
G03 X1.3949 Y124.953 I0.9819 J-1.134
G01 X1.1373 Y124.7076
G03 X1.0859 Y124.6562 I1.0346 J-1.0861
G01 X0.8405 Y124.3986
G03 X0.7931 Y124.3464 I1.0861 J-1.0346
G01 X0.5602 Y124.0777
G03 X0.5144 Y124.0222 I1.1335 J-0.9824
G01 X0.2942 Y123.7421
G03 X0.2516 Y123.6852 I1.1793 J-0.927
G01 X0.0449 Y123.3949
G03 X0.0039 Y123.3343 I1.2218 J-0.8701
G01 X-0.1889 Y123.0336
G03 X-0.226 Y122.9725 I1.2628 J-0.8095
G01 X-0.4046 Y122.6624
G03 X-0.4394 Y122.5983 I1.2999 J-0.7484
G01 X-0.6033 Y122.2787
G03 X-0.6348 Y122.2135 I1.3348 J-0.6844
G01 X-0.7833 Y121.8856
G03 X-0.8122 Y121.8175 I1.3663 J-0.6191
G01 X-0.945 Y121.4812
G03 X-0.9706 Y121.4114 I1.3951 J-0.5511
G01 X-1.0872 Y121.0672
G03 X-1.1094 Y120.996 I1.4207 J-0.4813
G01 X-1.2092 Y120.6447
G03 X-1.2278 Y120.5726 I1.4429 J-0.41
G01 X-1.3106 Y120.2145
G03 X-1.3256 Y120.141 I1.4614 J-0.3379
G01 X-1.3909 Y119.7765
G03 X-1.4023 Y119.7019 I1.4765 J-0.2644
G01 X-1.4496 Y119.3316
G03 X-1.4573 Y119.2559 I1.4879 J-0.1898
G01 X-1.486 Y118.88
G03 X-1.4899 Y118.8038 I1.4956 J-0.1142
G01 X-1.4995 Y118.4231
G03 X-1.5 Y118.3851 I1.4995 J-0.038
G01 Y7.4084
G03 X-1.4995 Y7.3704 I1.5 J0.0
G01 X-1.4899 Y6.9897
G03 X-1.486 Y6.9135 I1.4995 J0.038
G01 X-1.4573 Y6.5376
G03 X-1.4496 Y6.4619 I1.4956 J0.1142
G01 X-1.4023 Y6.0916
G03 X-1.3909 Y6.017 I1.4879 J0.1898
G01 X-1.3256 Y5.6525
G03 X-1.3106 Y5.579 I1.4765 J0.2644
G01 X-1.2278 Y5.2209
G03 X-1.2092 Y5.1488 I1.4614 J0.3379
G01 X-1.1094 Y4.7975
G03 X-1.0872 Y4.7263 I1.4429 J0.41
G01 X-0.9706 Y4.3821
G03 X-0.945 Y4.3123 I1.4207 J0.4813
G01 X-0.8122 Y3.976
G03 X-0.7833 Y3.9079 I1.3951 J0.5511
G01 X-0.6348 Y3.58
G03 X-0.6033 Y3.5148 I1.3663 J0.6191
G01 X-0.4394 Y3.1952
G03 X-0.4046 Y3.1311 I1.3348 J0.6844
G01 X-0.226 Y2.821
G03 X-0.1889 Y2.7599 I1.2999 J0.7484
G01 X0.0039 Y2.4592
G03 X0.0449 Y2.3986 I1.2628 J0.8095
G01 X0.2516 Y2.1083
G03 X0.2942 Y2.0514 I1.2218 J0.8701
G01 X0.5144 Y1.7713
G03 X0.5602 Y1.7158 I1.1793 J0.927
G01 X0.7931 Y1.4471
G03 X0.8405 Y1.3949 I1.1335 J0.9824
G01 Z0.5 F100.0
G01 X1.0859 Y1.1373 F500.0
G03 X1.1373 Y1.0859 I1.0861 J1.0346
G01 X1.3949 Y0.8405
G03 X1.4476 Y0.7926 I1.0346 J1.0861
G01 X1.7166 Y0.5597
G03 X1.771 Y0.5148 I0.9819 J1.134
G01 X2.0509 Y0.2946
G03 X2.1083 Y0.2516 I0.9275 J1.1789
G01 X2.3986 Y0.0449
G03 X2.4592 Y0.0039 I0.8701 J1.2218
G01 X2.7599 Y-0.1889
G03 X2.821 Y-0.226 I0.8095 J1.2628
G01 X3.1311 Y-0.4046
G03 X3.1952 Y-0.4394 I0.7484 J1.2999
G01 X3.5148 Y-0.6033
G03 X3.58 Y-0.6348 I0.6844 J1.3348
G01 X3.9079 Y-0.7833
G03 X3.976 Y-0.8122 I0.6191 J1.3663
G01 X4.3123 Y-0.945
G03 X4.3821 Y-0.9706 I0.5511 J1.3951
G01 X4.7263 Y-1.0872
G03 X4.7975 Y-1.1094 I0.4813 J1.4207
G01 X5.1488 Y-1.2092
G03 X5.2199 Y-1.2275 I0.41 J1.4429
G01 X5.5781 Y-1.3106
G03 X5.6535 Y-1.3261 I0.3389 J1.4612
G01 X6.018 Y-1.3911
G03 X6.0916 Y-1.4023 I0.2634 J1.4767
G01 X6.4619 Y-1.4496
G03 X6.5376 Y-1.4573 I0.1898 J1.4879
G01 X6.9135 Y-1.486
G03 X6.9897 Y-1.4899 I0.1142 J1.4956
G01 X7.3704 Y-1.4995
G03 X7.4084 Y-1.5 I0.038 J1.4995
G01 X192.8073
G03 X192.8454 Y-1.4995 I0.0 J1.5
G01 X193.2259 Y-1.4899
G03 X193.302 Y-1.486 I-0.038 J1.4995
G01 X193.6779 Y-1.4573
G03 X193.7536 Y-1.4496 I-0.1142 J1.4956
G01 X194.1239 Y-1.4023
G03 X194.1975 Y-1.3911 I-0.1898 J1.4879
G01 X194.562 Y-1.3261
G03 X194.6374 Y-1.3106 I-0.2634 J1.4767
G01 X194.9956 Y-1.2275
G03 X195.0667 Y-1.2092 I-0.3389 J1.4612
G01 X195.418 Y-1.1094
G03 X195.4892 Y-1.0872 I-0.41 J1.4429
G01 X195.8334 Y-0.9706
G03 X195.9032 Y-0.945 I-0.4813 J1.4207
G01 X196.2395 Y-0.8122
G03 X196.3076 Y-0.7833 I-0.5511 J1.3951
G01 X196.6355 Y-0.6348
G03 X196.7007 Y-0.6033 I-0.6191 J1.3663
G01 X197.0203 Y-0.4394
G03 X197.0844 Y-0.4046 I-0.6844 J1.3348
G01 X197.3945 Y-0.226
G03 X197.4556 Y-0.1889 I-0.7484 J1.2999
G01 X197.7563 Y0.0039
G03 X197.8164 Y0.0445 I-0.8095 J1.2628
G01 X198.107 Y0.2513
G03 X198.1648 Y0.2946 I-0.8696 J1.2222
G01 X198.4447 Y0.5148
G03 X198.4997 Y0.5602 I-0.9275 J1.1789
G01 X198.7684 Y0.7931
G03 X198.8206 Y0.8405 I-0.9824 J1.1335
G01 X199.0782 Y1.0859
G03 X199.1296 Y1.1373 I-1.0346 J1.0861
G01 X199.375 Y1.3949
G03 X199.4223 Y1.447 I-1.0861 J1.0346
G01 X199.6555 Y1.716
G03 X199.7015 Y1.7717 I-1.1334 J0.9825
G01 X199.9214 Y2.0516
G03 X199.9639 Y2.1083 I-1.1794 J0.9268
G01 X200.1706 Y2.3986
G03 X200.2116 Y2.4592 I-1.2218 J0.8701
G01 X200.4044 Y2.7599
G03 X200.4415 Y2.821 I-1.2628 J0.8095
G01 X200.6201 Y3.1311
G03 X200.6549 Y3.1952 I-1.2999 J0.7484
G01 X200.8188 Y3.5148
G03 X200.8503 Y3.58 I-1.3348 J0.6844
G01 X200.9988 Y3.9079
G03 X201.0277 Y3.976 I-1.3663 J0.6191
G01 X201.1605 Y4.3123
G03 X201.1861 Y4.3821 I-1.3951 J0.5511
G01 X201.3027 Y4.7263
G03 X201.3246 Y4.7965 I-1.4207 J0.4813
G01 X201.4247 Y5.1478
G03 X201.4435 Y5.2209 I-1.4426 J0.411
G01 X201.5263 Y5.579
G03 X201.5414 Y5.6525 I-1.4614 J0.3379
G01 X201.6067 Y6.017
G03 X201.6182 Y6.0926 I-1.4765 J0.2644
G01 X201.6652 Y6.4629
G03 X201.6728 Y6.5376 I-1.4881 J0.1888
G01 X201.7015 Y6.9135
G03 X201.7054 Y6.9897 I-1.4956 J0.1142
G01 X201.715 Y7.3704
G03 X201.7155 Y7.4084 I-1.4995 J0.038
G01 Y118.3851
G03 X201.715 Y118.4231 I-1.5 J0.0
G01 X201.7054 Y118.8038
G03 X201.7015 Y118.88 I-1.4995 J-0.038
G01 X201.6728 Y119.2559
G03 X201.6652 Y119.3306 I-1.4956 J-0.1142
G01 X201.6182 Y119.7009
G03 X201.6067 Y119.7765 I-1.4881 J-0.1888
G01 X201.5414 Y120.141
G03 X201.5263 Y120.2145 I-1.4765 J-0.2644
G01 X201.4435 Y120.5726
G03 X201.4247 Y120.6457 I-1.4614 J-0.3379
G01 X201.3246 Y120.997
G03 X201.3027 Y121.0672 I-1.4426 J-0.411
G01 X201.1861 Y121.4114
G03 X201.1605 Y121.4812 I-1.4207 J-0.4813
G01 X201.0277 Y121.8175
G03 X200.9988 Y121.8856 I-1.3951 J-0.5511
G01 X200.8503 Y122.2135
G03 X200.8188 Y122.2787 I-1.3663 J-0.6191
G01 X200.6549 Y122.5983
G03 X200.6201 Y122.6624 I-1.3348 J-0.6844
G01 X200.4415 Y122.9725
G03 X200.4044 Y123.0336 I-1.2999 J-0.7484
G01 X200.2116 Y123.3343
G03 X200.1706 Y123.3949 I-1.2628 J-0.8095
G01 X199.9639 Y123.6852
G03 X199.9214 Y123.7419 I-1.2218 J-0.8701
G01 X199.7015 Y124.0218
G03 X199.6555 Y124.0775 I-1.1794 J-0.9268
G01 X199.4223 Y124.3465
G03 X199.375 Y124.3986 I-1.1334 J-0.9825
G01 X199.1296 Y124.6562
G03 X199.0782 Y124.7076 I-1.0861 J-1.0346
G01 X198.8206 Y124.953
G03 X198.7684 Y125.0004 I-1.0346 J-1.0861
G01 X198.4997 Y125.2333
G03 X198.4447 Y125.2787 I-0.9824 J-1.1335
G01 X198.1648 Y125.4989
G03 X198.107 Y125.5422 I-0.9275 J-1.1789
G01 X197.8164 Y125.749
G03 X197.7563 Y125.7896 I-0.8696 J-1.2222
G01 X197.4556 Y125.9824
G03 X197.3945 Y126.0195 I-0.8095 J-1.2628
G01 X197.0844 Y126.1981
G03 X197.0203 Y126.2329 I-0.7484 J-1.2999
G01 X196.7007 Y126.3968
G03 X196.6355 Y126.4283 I-0.6844 J-1.3348
G01 X196.3076 Y126.5768
G03 X196.2395 Y126.6057 I-0.6191 J-1.3663
G01 X195.9032 Y126.7385
G03 X195.8334 Y126.7641 I-0.5511 J-1.3951
G01 X195.4892 Y126.8807
G03 X195.418 Y126.9029 I-0.4813 J-1.4207
G01 X195.0667 Y127.0027
G03 X194.9956 Y127.021 I-0.41 J-1.4429
G01 X194.6374 Y127.1041
G03 X194.562 Y127.1196 I-0.3389 J-1.4612
G01 X194.1975 Y127.1846
G03 X194.1239 Y127.1958 I-0.2634 J-1.4767
G01 X193.7536 Y127.2431
G03 X193.6779 Y127.2508 I-0.1898 J-1.4879
G01 X193.302 Y127.2795
G03 X193.2259 Y127.2834 I-0.1142 J-1.4956
G01 X192.8454 Y127.293
G03 X192.8073 Y127.2935 I-0.038 J-1.4995
G01 X7.4084
G03 X7.3704 Y127.293 I0.0 J-1.5
G01 X6.9897 Y127.2834
G03 X6.9135 Y127.2795 I0.038 J-1.4995
G01 X6.5376 Y127.2508
G03 X6.4619 Y127.2431 I0.1142 J-1.4956
G01 X6.0916 Y127.1958
G03 X6.018 Y127.1846 I0.1898 J-1.4879
G01 X5.6535 Y127.1196
G03 X5.5781 Y127.1041 I0.2634 J-1.4767
G01 X5.2199 Y127.021
G03 X5.1488 Y127.0027 I0.3389 J-1.4612
G01 X4.7975 Y126.9029
G03 X4.7263 Y126.8807 I0.41 J-1.4429
G01 X4.3821 Y126.7641
G03 X4.3123 Y126.7385 I0.4813 J-1.4207
G01 X3.976 Y126.6057
G03 X3.9079 Y126.5768 I0.5511 J-1.3951
G01 X3.58 Y126.4283
G03 X3.5148 Y126.3968 I0.6191 J-1.3663
G01 X3.1952 Y126.2329
G03 X3.1311 Y126.1981 I0.6844 J-1.3348
G01 X2.821 Y126.0195
G03 X2.7599 Y125.9824 I0.7484 J-1.2999
G01 X2.4592 Y125.7896
G03 X2.3986 Y125.7486 I0.8095 J-1.2628
G01 X2.1083 Y125.5419
G03 X2.0509 Y125.4989 I0.8701 J-1.2218
G01 X1.771 Y125.2787
G03 X1.7166 Y125.2338 I0.9275 J-1.1789
G01 X1.4476 Y125.0009
G03 X1.3949 Y124.953 I0.9819 J-1.134
G01 X1.1373 Y124.7076
G03 X1.0859 Y124.6562 I1.0346 J-1.0861
G01 X0.8405 Y124.3986
G03 X0.7931 Y124.3464 I1.0861 J-1.0346
G01 X0.5602 Y124.0777
G03 X0.5144 Y124.0222 I1.1335 J-0.9824
G01 X0.2942 Y123.7421
G03 X0.2516 Y123.6852 I1.1793 J-0.927
G01 X0.0449 Y123.3949
G03 X0.0039 Y123.3343 I1.2218 J-0.8701
G01 X-0.1889 Y123.0336
G03 X-0.226 Y122.9725 I1.2628 J-0.8095
G01 X-0.4046 Y122.6624
G03 X-0.4394 Y122.5983 I1.2999 J-0.7484
G01 X-0.6033 Y122.2787
G03 X-0.6348 Y122.2135 I1.3348 J-0.6844
G01 X-0.7833 Y121.8856
G03 X-0.8122 Y121.8175 I1.3663 J-0.6191
G01 X-0.945 Y121.4812
G03 X-0.9706 Y121.4114 I1.3951 J-0.5511
G01 X-1.0872 Y121.0672
G03 X-1.1094 Y120.996 I1.4207 J-0.4813
G01 X-1.2092 Y120.6447
G03 X-1.2278 Y120.5726 I1.4429 J-0.41
G01 X-1.3106 Y120.2145
G03 X-1.3256 Y120.141 I1.4614 J-0.3379
G01 X-1.3909 Y119.7765
G03 X-1.4023 Y119.7019 I1.4765 J-0.2644
G01 X-1.4496 Y119.3316
G03 X-1.4573 Y119.2559 I1.4879 J-0.1898
G01 X-1.486 Y118.88
G03 X-1.4899 Y118.8038 I1.4956 J-0.1142
G01 X-1.4995 Y118.4231
G03 X-1.5 Y118.3851 I1.4995 J-0.038
G01 Y7.4084
G03 X-1.4995 Y7.3704 I1.5 J0.0
G01 X-1.4899 Y6.9897
G03 X-1.486 Y6.9135 I1.4995 J0.038
G01 X-1.4573 Y6.5376
G03 X-1.4496 Y6.4619 I1.4956 J0.1142
G01 X-1.4023 Y6.0916
G03 X-1.3909 Y6.017 I1.4879 J0.1898
G01 X-1.3256 Y5.6525
G03 X-1.3106 Y5.579 I1.4765 J0.2644
G01 X-1.2278 Y5.2209
G03 X-1.2092 Y5.1488 I1.4614 J0.3379
G01 X-1.1094 Y4.7975
G03 X-1.0872 Y4.7263 I1.4429 J0.41
G01 X-0.9706 Y4.3821
G03 X-0.945 Y4.3123 I1.4207 J0.4813
G01 X-0.8122 Y3.976
G03 X-0.7833 Y3.9079 I1.3951 J0.5511
G01 X-0.6348 Y3.58
G03 X-0.6033 Y3.5148 I1.3663 J0.6191
G01 X-0.4394 Y3.1952
G03 X-0.4046 Y3.1311 I1.3348 J0.6844
G01 X-0.226 Y2.821
G03 X-0.1889 Y2.7599 I1.2999 J0.7484
G01 X0.0039 Y2.4592
G03 X0.0449 Y2.3986 I1.2628 J0.8095
G01 X0.2516 Y2.1083
G03 X0.2942 Y2.0514 I1.2218 J0.8701
G01 X0.5144 Y1.7713
G03 X0.5602 Y1.7158 I1.1793 J0.927
G01 X0.7931 Y1.4471
G03 X0.8405 Y1.3949 I1.1335 J0.9824
G01 Z0.4 F100.0
G01 X1.0859 Y1.1373 F500.0
G03 X1.1373 Y1.0859 I1.0861 J1.0346
G01 X1.3949 Y0.8405
G03 X1.4476 Y0.7926 I1.0346 J1.0861
G01 X1.7166 Y0.5597
G03 X1.771 Y0.5148 I0.9819 J1.134
G01 X2.0509 Y0.2946
G03 X2.1083 Y0.2516 I0.9275 J1.1789
G01 X2.3986 Y0.0449
G03 X2.4592 Y0.0039 I0.8701 J1.2218
G01 X2.7599 Y-0.1889
G03 X2.821 Y-0.226 I0.8095 J1.2628
G01 X3.1311 Y-0.4046
G03 X3.1952 Y-0.4394 I0.7484 J1.2999
G01 X3.5148 Y-0.6033
G03 X3.58 Y-0.6348 I0.6844 J1.3348
G01 X3.9079 Y-0.7833
G03 X3.976 Y-0.8122 I0.6191 J1.3663
G01 X4.3123 Y-0.945
G03 X4.3821 Y-0.9706 I0.5511 J1.3951
G01 X4.7263 Y-1.0872
G03 X4.7975 Y-1.1094 I0.4813 J1.4207
G01 X5.1488 Y-1.2092
G03 X5.2199 Y-1.2275 I0.41 J1.4429
G01 X5.5781 Y-1.3106
G03 X5.6535 Y-1.3261 I0.3389 J1.4612
G01 X6.018 Y-1.3911
G03 X6.0916 Y-1.4023 I0.2634 J1.4767
G01 X6.4619 Y-1.4496
G03 X6.5376 Y-1.4573 I0.1898 J1.4879
G01 X6.9135 Y-1.486
G03 X6.9897 Y-1.4899 I0.1142 J1.4956
G01 X7.3704 Y-1.4995
G03 X7.4084 Y-1.5 I0.038 J1.4995
G01 X192.8073
G03 X192.8454 Y-1.4995 I0.0 J1.5
G01 X193.2259 Y-1.4899
G03 X193.302 Y-1.486 I-0.038 J1.4995
G01 X193.6779 Y-1.4573
G03 X193.7536 Y-1.4496 I-0.1142 J1.4956
G01 X194.1239 Y-1.4023
G03 X194.1975 Y-1.3911 I-0.1898 J1.4879
G01 X194.562 Y-1.3261
G03 X194.6374 Y-1.3106 I-0.2634 J1.4767
G01 X194.9956 Y-1.2275
G03 X195.0667 Y-1.2092 I-0.3389 J1.4612
G01 X195.418 Y-1.1094
G03 X195.4892 Y-1.0872 I-0.41 J1.4429
G01 X195.8334 Y-0.9706
G03 X195.9032 Y-0.945 I-0.4813 J1.4207
G01 X196.2395 Y-0.8122
G03 X196.3076 Y-0.7833 I-0.5511 J1.3951
G01 X196.6355 Y-0.6348
G03 X196.7007 Y-0.6033 I-0.6191 J1.3663
G01 X197.0203 Y-0.4394
G03 X197.0844 Y-0.4046 I-0.6844 J1.3348
G01 X197.3945 Y-0.226
G03 X197.4556 Y-0.1889 I-0.7484 J1.2999
G01 X197.7563 Y0.0039
G03 X197.8164 Y0.0445 I-0.8095 J1.2628
G01 X198.107 Y0.2513
G03 X198.1648 Y0.2946 I-0.8696 J1.2222
G01 X198.4447 Y0.5148
G03 X198.4997 Y0.5602 I-0.9275 J1.1789
G01 X198.7684 Y0.7931
G03 X198.8206 Y0.8405 I-0.9824 J1.1335
G01 X199.0782 Y1.0859
G03 X199.1296 Y1.1373 I-1.0346 J1.0861
G01 X199.375 Y1.3949
G03 X199.4223 Y1.447 I-1.0861 J1.0346
G01 X199.6555 Y1.716
G03 X199.7015 Y1.7717 I-1.1334 J0.9825
G01 X199.9214 Y2.0516
G03 X199.9639 Y2.1083 I-1.1794 J0.9268
G01 X200.1706 Y2.3986
G03 X200.2116 Y2.4592 I-1.2218 J0.8701
G01 X200.4044 Y2.7599
G03 X200.4415 Y2.821 I-1.2628 J0.8095
G01 X200.6201 Y3.1311
G03 X200.6549 Y3.1952 I-1.2999 J0.7484
G01 X200.8188 Y3.5148
G03 X200.8503 Y3.58 I-1.3348 J0.6844
G01 X200.9988 Y3.9079
G03 X201.0277 Y3.976 I-1.3663 J0.6191
G01 X201.1605 Y4.3123
G03 X201.1861 Y4.3821 I-1.3951 J0.5511
G01 X201.3027 Y4.7263
G03 X201.3246 Y4.7965 I-1.4207 J0.4813
G01 X201.4247 Y5.1478
G03 X201.4435 Y5.2209 I-1.4426 J0.411
G01 X201.5263 Y5.579
G03 X201.5414 Y5.6525 I-1.4614 J0.3379
G01 X201.6067 Y6.017
G03 X201.6182 Y6.0926 I-1.4765 J0.2644
G01 X201.6652 Y6.4629
G03 X201.6728 Y6.5376 I-1.4881 J0.1888
G01 X201.7015 Y6.9135
G03 X201.7054 Y6.9897 I-1.4956 J0.1142
G01 X201.715 Y7.3704
G03 X201.7155 Y7.4084 I-1.4995 J0.038
G01 Y118.3851
G03 X201.715 Y118.4231 I-1.5 J0.0
G01 X201.7054 Y118.8038
G03 X201.7015 Y118.88 I-1.4995 J-0.038
G01 X201.6728 Y119.2559
G03 X201.6652 Y119.3306 I-1.4956 J-0.1142
G01 X201.6182 Y119.7009
G03 X201.6067 Y119.7765 I-1.4881 J-0.1888
G01 X201.5414 Y120.141
G03 X201.5263 Y120.2145 I-1.4765 J-0.2644
G01 X201.4435 Y120.5726
G03 X201.4247 Y120.6457 I-1.4614 J-0.3379
G01 X201.3246 Y120.997
G03 X201.3027 Y121.0672 I-1.4426 J-0.411
G01 X201.1861 Y121.4114
G03 X201.1605 Y121.4812 I-1.4207 J-0.4813
G01 X201.0277 Y121.8175
G03 X200.9988 Y121.8856 I-1.3951 J-0.5511
G01 X200.8503 Y122.2135
G03 X200.8188 Y122.2787 I-1.3663 J-0.6191
G01 X200.6549 Y122.5983
G03 X200.6201 Y122.6624 I-1.3348 J-0.6844
G01 X200.4415 Y122.9725
G03 X200.4044 Y123.0336 I-1.2999 J-0.7484
G01 X200.2116 Y123.3343
G03 X200.1706 Y123.3949 I-1.2628 J-0.8095
G01 X199.9639 Y123.6852
G03 X199.9214 Y123.7419 I-1.2218 J-0.8701
G01 X199.7015 Y124.0218
G03 X199.6555 Y124.0775 I-1.1794 J-0.9268
G01 X199.4223 Y124.3465
G03 X199.375 Y124.3986 I-1.1334 J-0.9825
G01 X199.1296 Y124.6562
G03 X199.0782 Y124.7076 I-1.0861 J-1.0346
G01 X198.8206 Y124.953
G03 X198.7684 Y125.0004 I-1.0346 J-1.0861
G01 X198.4997 Y125.2333
G03 X198.4447 Y125.2787 I-0.9824 J-1.1335
G01 X198.1648 Y125.4989
G03 X198.107 Y125.5422 I-0.9275 J-1.1789
G01 X197.8164 Y125.749
G03 X197.7563 Y125.7896 I-0.8696 J-1.2222
G01 X197.4556 Y125.9824
G03 X197.3945 Y126.0195 I-0.8095 J-1.2628
G01 X197.0844 Y126.1981
G03 X197.0203 Y126.2329 I-0.7484 J-1.2999
G01 X196.7007 Y126.3968
G03 X196.6355 Y126.4283 I-0.6844 J-1.3348
G01 X196.3076 Y126.5768
G03 X196.2395 Y126.6057 I-0.6191 J-1.3663
G01 X195.9032 Y126.7385
G03 X195.8334 Y126.7641 I-0.5511 J-1.3951
G01 X195.4892 Y126.8807
G03 X195.418 Y126.9029 I-0.4813 J-1.4207
G01 X195.0667 Y127.0027
G03 X194.9956 Y127.021 I-0.41 J-1.4429
G01 X194.6374 Y127.1041
G03 X194.562 Y127.1196 I-0.3389 J-1.4612
G01 X194.1975 Y127.1846
G03 X194.1239 Y127.1958 I-0.2634 J-1.4767
G01 X193.7536 Y127.2431
G03 X193.6779 Y127.2508 I-0.1898 J-1.4879
G01 X193.302 Y127.2795
G03 X193.2259 Y127.2834 I-0.1142 J-1.4956
G01 X192.8454 Y127.293
G03 X192.8073 Y127.2935 I-0.038 J-1.4995
G01 X7.4084
G03 X7.3704 Y127.293 I0.0 J-1.5
G01 X6.9897 Y127.2834
G03 X6.9135 Y127.2795 I0.038 J-1.4995
G01 X6.5376 Y127.2508
G03 X6.4619 Y127.2431 I0.1142 J-1.4956
G01 X6.0916 Y127.1958
G03 X6.018 Y127.1846 I0.1898 J-1.4879
G01 X5.6535 Y127.1196
G03 X5.5781 Y127.1041 I0.2634 J-1.4767
G01 X5.2199 Y127.021
G03 X5.1488 Y127.0027 I0.3389 J-1.4612
G01 X4.7975 Y126.9029
G03 X4.7263 Y126.8807 I0.41 J-1.4429
G01 X4.3821 Y126.7641
G03 X4.3123 Y126.7385 I0.4813 J-1.4207
G01 X3.976 Y126.6057
G03 X3.9079 Y126.5768 I0.5511 J-1.3951
G01 X3.58 Y126.4283
G03 X3.5148 Y126.3968 I0.6191 J-1.3663
G01 X3.1952 Y126.2329
G03 X3.1311 Y126.1981 I0.6844 J-1.3348
G01 X2.821 Y126.0195
G03 X2.7599 Y125.9824 I0.7484 J-1.2999
G01 X2.4592 Y125.7896
G03 X2.3986 Y125.7486 I0.8095 J-1.2628
G01 X2.1083 Y125.5419
G03 X2.0509 Y125.4989 I0.8701 J-1.2218
G01 X1.771 Y125.2787
G03 X1.7166 Y125.2338 I0.9275 J-1.1789
G01 X1.4476 Y125.0009
G03 X1.3949 Y124.953 I0.9819 J-1.134
G01 X1.1373 Y124.7076
G03 X1.0859 Y124.6562 I1.0346 J-1.0861
G01 X0.8405 Y124.3986
G03 X0.7931 Y124.3464 I1.0861 J-1.0346
G01 X0.5602 Y124.0777
G03 X0.5144 Y124.0222 I1.1335 J-0.9824
G01 X0.2942 Y123.7421
G03 X0.2516 Y123.6852 I1.1793 J-0.927
G01 X0.0449 Y123.3949
G03 X0.0039 Y123.3343 I1.2218 J-0.8701
G01 X-0.1889 Y123.0336
G03 X-0.226 Y122.9725 I1.2628 J-0.8095
G01 X-0.4046 Y122.6624
G03 X-0.4394 Y122.5983 I1.2999 J-0.7484
G01 X-0.6033 Y122.2787
G03 X-0.6348 Y122.2135 I1.3348 J-0.6844
G01 X-0.7833 Y121.8856
G03 X-0.8122 Y121.8175 I1.3663 J-0.6191
G01 X-0.945 Y121.4812
G03 X-0.9706 Y121.4114 I1.3951 J-0.5511
G01 X-1.0872 Y121.0672
G03 X-1.1094 Y120.996 I1.4207 J-0.4813
G01 X-1.2092 Y120.6447
G03 X-1.2278 Y120.5726 I1.4429 J-0.41
G01 X-1.3106 Y120.2145
G03 X-1.3256 Y120.141 I1.4614 J-0.3379
G01 X-1.3909 Y119.7765
G03 X-1.4023 Y119.7019 I1.4765 J-0.2644
G01 X-1.4496 Y119.3316
G03 X-1.4573 Y119.2559 I1.4879 J-0.1898
G01 X-1.486 Y118.88
G03 X-1.4899 Y118.8038 I1.4956 J-0.1142
G01 X-1.4995 Y118.4231
G03 X-1.5 Y118.3851 I1.4995 J-0.038
G01 Y7.4084
G03 X-1.4995 Y7.3704 I1.5 J0.0
G01 X-1.4899 Y6.9897
G03 X-1.486 Y6.9135 I1.4995 J0.038
G01 X-1.4573 Y6.5376
G03 X-1.4496 Y6.4619 I1.4956 J0.1142
G01 X-1.4023 Y6.0916
G03 X-1.3909 Y6.017 I1.4879 J0.1898
G01 X-1.3256 Y5.6525
G03 X-1.3106 Y5.579 I1.4765 J0.2644
G01 X-1.2278 Y5.2209
G03 X-1.2092 Y5.1488 I1.4614 J0.3379
G01 X-1.1094 Y4.7975
G03 X-1.0872 Y4.7263 I1.4429 J0.41
G01 X-0.9706 Y4.3821
G03 X-0.945 Y4.3123 I1.4207 J0.4813
G01 X-0.8122 Y3.976
G03 X-0.7833 Y3.9079 I1.3951 J0.5511
G01 X-0.6348 Y3.58
G03 X-0.6033 Y3.5148 I1.3663 J0.6191
G01 X-0.4394 Y3.1952
G03 X-0.4046 Y3.1311 I1.3348 J0.6844
G01 X-0.226 Y2.821
G03 X-0.1889 Y2.7599 I1.2999 J0.7484
G01 X0.0039 Y2.4592
G03 X0.0449 Y2.3986 I1.2628 J0.8095
G01 X0.2516 Y2.1083
G03 X0.2942 Y2.0514 I1.2218 J0.8701
G01 X0.5144 Y1.7713
G03 X0.5602 Y1.7158 I1.1793 J0.927
G01 X0.7931 Y1.4471
G03 X0.8405 Y1.3949 I1.1335 J0.9824
G01 Z0.3 F100.0
G01 X1.0859 Y1.1373 F500.0
G03 X1.1373 Y1.0859 I1.0861 J1.0346
G01 X1.3949 Y0.8405
G03 X1.4476 Y0.7926 I1.0346 J1.0861
G01 X1.7166 Y0.5597
G03 X1.771 Y0.5148 I0.9819 J1.134
G01 X2.0509 Y0.2946
G03 X2.1083 Y0.2516 I0.9275 J1.1789
G01 X2.3986 Y0.0449
G03 X2.4592 Y0.0039 I0.8701 J1.2218
G01 X2.7599 Y-0.1889
G03 X2.821 Y-0.226 I0.8095 J1.2628
G01 X3.1311 Y-0.4046
G03 X3.1952 Y-0.4394 I0.7484 J1.2999
G01 X3.5148 Y-0.6033
G03 X3.58 Y-0.6348 I0.6844 J1.3348
G01 X3.9079 Y-0.7833
G03 X3.976 Y-0.8122 I0.6191 J1.3663
G01 X4.3123 Y-0.945
G03 X4.3821 Y-0.9706 I0.5511 J1.3951
G01 X4.7263 Y-1.0872
G03 X4.7975 Y-1.1094 I0.4813 J1.4207
G01 X5.1488 Y-1.2092
G03 X5.2199 Y-1.2275 I0.41 J1.4429
G01 X5.5781 Y-1.3106
G03 X5.6535 Y-1.3261 I0.3389 J1.4612
G01 X6.018 Y-1.3911
G03 X6.0916 Y-1.4023 I0.2634 J1.4767
G01 X6.4619 Y-1.4496
G03 X6.5376 Y-1.4573 I0.1898 J1.4879
G01 X6.9135 Y-1.486
G03 X6.9897 Y-1.4899 I0.1142 J1.4956
G01 X7.3704 Y-1.4995
G03 X7.4084 Y-1.5 I0.038 J1.4995
G01 X192.8073
G03 X192.8454 Y-1.4995 I0.0 J1.5
G01 X193.2259 Y-1.4899
G03 X193.302 Y-1.486 I-0.038 J1.4995
G01 X193.6779 Y-1.4573
G03 X193.7536 Y-1.4496 I-0.1142 J1.4956
G01 X194.1239 Y-1.4023
G03 X194.1975 Y-1.3911 I-0.1898 J1.4879
G01 X194.562 Y-1.3261
G03 X194.6374 Y-1.3106 I-0.2634 J1.4767
G01 X194.9956 Y-1.2275
G03 X195.0667 Y-1.2092 I-0.3389 J1.4612
G01 X195.418 Y-1.1094
G03 X195.4892 Y-1.0872 I-0.41 J1.4429
G01 X195.8334 Y-0.9706
G03 X195.9032 Y-0.945 I-0.4813 J1.4207
G01 X196.2395 Y-0.8122
G03 X196.3076 Y-0.7833 I-0.5511 J1.3951
G01 X196.6355 Y-0.6348
G03 X196.7007 Y-0.6033 I-0.6191 J1.3663
G01 X197.0203 Y-0.4394
G03 X197.0844 Y-0.4046 I-0.6844 J1.3348
G01 X197.3945 Y-0.226
G03 X197.4556 Y-0.1889 I-0.7484 J1.2999
G01 X197.7563 Y0.0039
G03 X197.8164 Y0.0445 I-0.8095 J1.2628
G01 X198.107 Y0.2513
G03 X198.1648 Y0.2946 I-0.8696 J1.2222
G01 X198.4447 Y0.5148
G03 X198.4997 Y0.5602 I-0.9275 J1.1789
G01 X198.7684 Y0.7931
G03 X198.8206 Y0.8405 I-0.9824 J1.1335
G01 X199.0782 Y1.0859
G03 X199.1296 Y1.1373 I-1.0346 J1.0861
G01 X199.375 Y1.3949
G03 X199.4223 Y1.447 I-1.0861 J1.0346
G01 X199.6555 Y1.716
G03 X199.7015 Y1.7717 I-1.1334 J0.9825
G01 X199.9214 Y2.0516
G03 X199.9639 Y2.1083 I-1.1794 J0.9268
G01 X200.1706 Y2.3986
G03 X200.2116 Y2.4592 I-1.2218 J0.8701
G01 X200.4044 Y2.7599
G03 X200.4415 Y2.821 I-1.2628 J0.8095
G01 X200.6201 Y3.1311
G03 X200.6549 Y3.1952 I-1.2999 J0.7484
G01 X200.8188 Y3.5148
G03 X200.8503 Y3.58 I-1.3348 J0.6844
G01 X200.9988 Y3.9079
G03 X201.0277 Y3.976 I-1.3663 J0.6191
G01 X201.1605 Y4.3123
G03 X201.1861 Y4.3821 I-1.3951 J0.5511
G01 X201.3027 Y4.7263
G03 X201.3246 Y4.7965 I-1.4207 J0.4813
G01 X201.4247 Y5.1478
G03 X201.4435 Y5.2209 I-1.4426 J0.411
G01 X201.5263 Y5.579
G03 X201.5414 Y5.6525 I-1.4614 J0.3379
G01 X201.6067 Y6.017
G03 X201.6182 Y6.0926 I-1.4765 J0.2644
G01 X201.6652 Y6.4629
G03 X201.6728 Y6.5376 I-1.4881 J0.1888
G01 X201.7015 Y6.9135
G03 X201.7054 Y6.9897 I-1.4956 J0.1142
G01 X201.715 Y7.3704
G03 X201.7155 Y7.4084 I-1.4995 J0.038
G01 Y118.3851
G03 X201.715 Y118.4231 I-1.5 J0.0
G01 X201.7054 Y118.8038
G03 X201.7015 Y118.88 I-1.4995 J-0.038
G01 X201.6728 Y119.2559
G03 X201.6652 Y119.3306 I-1.4956 J-0.1142
G01 X201.6182 Y119.7009
G03 X201.6067 Y119.7765 I-1.4881 J-0.1888
G01 X201.5414 Y120.141
G03 X201.5263 Y120.2145 I-1.4765 J-0.2644
G01 X201.4435 Y120.5726
G03 X201.4247 Y120.6457 I-1.4614 J-0.3379
G01 X201.3246 Y120.997
G03 X201.3027 Y121.0672 I-1.4426 J-0.411
G01 X201.1861 Y121.4114
G03 X201.1605 Y121.4812 I-1.4207 J-0.4813
G01 X201.0277 Y121.8175
G03 X200.9988 Y121.8856 I-1.3951 J-0.5511
G01 X200.8503 Y122.2135
G03 X200.8188 Y122.2787 I-1.3663 J-0.6191
G01 X200.6549 Y122.5983
